Server/IGTracker/data/luts/Vintage_Film.cube
# Cube LUT created for IGTracker
TITLE "Vintage Film"
LUT_3D_SIZE 17
0.076648 0.056365 0.066984
0.143636 0.056365 0.066984
0.207904 0.056365 0.066984
0.270460 0.056365 0.066984
0.331769 0.056365 0.066984
0.392104 0.056365 0.066984
0.451638 0.056365 0.066984
0.510495 0.056365 0.066984
0.568766 0.056365 0.066984
0.626522 0.056365 0.066984
0.683818 0.056365 0.066984
0.740699 0.056365 0.066984
0.797203 0.056365 0.066984
0.853359 0.056365 0.066984
0.909196 0.056365 0.066984
0.964737 0.056365 0.066984
1.000000 0.056365 0.066984
0.076648 0.119498 0.066984
0.143636 0.119498 0.066984
0.207904 0.119498 0.066984
0.270460 0.119498 0.066984
0.331769 0.119498 0.066984
0.392104 0.119498 0.066984
0.451638 0.119498 0.066984
0.510495 0.119498 0.066984
0.568766 0.119498 0.066984
0.626522 0.119498 0.066984
0.683818 0.119498 0.066984
0.740699 0.119498 0.066984
0.797203 0.119498 0.066984
0.853359 0.119498 0.066984
0.909196 0.119498 0.066984
0.964737 0.119498 0.066984
1.000000 0.119498 0.066984
0.076648 0.181198 0.066984
0.143636 0.181198 0.066984
0.207904 0.181198 0.066984
0.270460 0.181198 0.066984
0.331769 0.181198 0.066984
0.392104 0.181198 0.066984
0.451638 0.181198 0.066984
0.510495 0.181198 0.066984
0.568766 0.181198 0.066984
0.626522 0.181198 0.066984
0.683818 0.181198 0.066984
0.740699 0.181198 0.066984
0.797203 0.181198 0.066984
0.853359 0.181198 0.066984
0.909196 0.181198 0.066984
0.964737 0.181198 0.066984
1.000000 0.181198 0.066984
0.076648 0.242017 0.066984
0.143636 0.242017 0.066984
0.207904 0.242017 0.066984
0.270460 0.242017 0.066984
0.331769 0.242017 0.066984
0.392104 0.242017 0.066984
0.451638 0.242017 0.066984
0.510495 0.242017 0.066984
0.568766 0.242017 0.066984
0.626522 0.242017 0.066984
0.683818 0.242017 0.066984
0.740699 0.242017 0.066984
0.797203 0.242017 0.066984
0.853359 0.242017 0.066984
0.909196 0.242017 0.066984
0.964737 0.242017 0.066984
1.000000 0.242017 0.066984
0.076648 0.302199 0.066984
0.143636 0.302199 0.066984
0.207904 0.302199 0.066984
0.270460 0.302199 0.066984
0.331769 0.302199 0.066984
0.392104 0.302199 0.066984
0.451638 0.302199 0.066984
0.510495 0.302199 0.066984
0.568766 0.302199 0.066984
0.626522 0.302199 0.066984
0.683818 0.302199 0.066984
0.740699 0.302199 0.066984
0.797203 0.302199 0.066984
0.853359 0.302199 0.066984
0.909196 0.302199 0.066984
0.964737 0.302199 0.066984
1.000000 0.302199 0.066984
0.076648 0.361881 0.066984
0.143636 0.361881 0.066984
0.207904 0.361881 0.066984
0.270460 0.361881 0.066984
0.331769 0.361881 0.066984
0.392104 0.361881 0.066984
0.451638 0.361881 0.066984
0.510495 0.361881 0.066984
0.568766 0.361881 0.066984
0.626522 0.361881 0.066984
0.683818 0.361881 0.066984
0.740699 0.361881 0.066984
0.797203 0.361881 0.066984
0.853359 0.361881 0.066984
0.909196 0.361881 0.066984
0.964737 0.361881 0.066984
1.000000 0.361881 0.066984
0.076648 0.421155 0.066984
0.143636 0.421155 0.066984
0.207904 0.421155 0.066984
0.270460 0.421155 0.066984
0.331769 0.421155 0.066984
0.392104 0.421155 0.066984
0.451638 0.421155 0.066984
0.510495 0.421155 0.066984
0.568766 0.421155 0.066984
0.626522 0.421155 0.066984
0.683818 0.421155 0.066984
0.740699 0.421155 0.066984
0.797203 0.421155 0.066984
0.853359 0.421155 0.066984
0.909196 0.421155 0.066984
0.964737 0.421155 0.066984
1.000000 0.421155 0.066984
0.076648 0.480081 0.066984
0.143636 0.480081 0.066984
0.207904 0.480081 0.066984
0.270460 0.480081 0.066984
0.331769 0.480081 0.066984
0.392104 0.480081 0.066984
0.451638 0.480081 0.066984
0.510495 0.480081 0.066984
0.568766 0.480081 0.066984
0.626522 0.480081 0.066984
0.683818 0.480081 0.066984
0.740699 0.480081 0.066984
0.797203 0.480081 0.066984
0.853359 0.480081 0.066984
0.909196 0.480081 0.066984
0.964737 0.480081 0.066984
1.000000 0.480081 0.066984
0.076648 0.538707 0.066984
0.143636 0.538707 0.066984
0.207904 0.538707 0.066984
0.270460 0.538707 0.066984
0.331769 0.538707 0.066984
0.392104 0.538707 0.066984
0.451638 0.538707 0.066984
0.510495 0.538707 0.066984
0.568766 0.538707 0.066984
0.626522 0.538707 0.066984
0.683818 0.538707 0.066984
0.740699 0.538707 0.066984
0.797203 0.538707 0.066984
0.853359 0.538707 0.066984
0.909196 0.538707 0.066984
0.964737 0.538707 0.066984
1.000000 0.538707 0.066984
0.076648 0.597068 0.066984
0.143636 0.597068 0.066984
0.207904 0.597068 0.066984
0.270460 0.597068 0.066984
0.331769 0.597068 0.066984
0.392104 0.597068 0.066984
0.451638 0.597068 0.066984
0.510495 0.597068 0.066984
0.568766 0.597068 0.066984
0.626522 0.597068 0.066984
0.683818 0.597068 0.066984
0.740699 0.597068 0.066984
0.797203 0.597068 0.066984
0.853359 0.597068 0.066984
0.909196 0.597068 0.066984
0.964737 0.597068 0.066984
1.000000 0.597068 0.066984
0.076648 0.655192 0.066984
0.143636 0.655192 0.066984
0.207904 0.655192 0.066984
0.270460 0.655192 0.066984
0.331769 0.655192 0.066984
0.392104 0.655192 0.066984
0.451638 0.655192 0.066984
0.510495 0.655192 0.066984
0.568766 0.655192 0.066984
0.626522 0.655192 0.066984
0.683818 0.655192 0.066984
0.740699 0.655192 0.066984
0.797203 0.655192 0.066984
0.853359 0.655192 0.066984
0.909196 0.655192 0.066984
0.964737 0.655192 0.066984
1.000000 0.655192 0.066984
0.076648 0.713101 0.066984
0.143636 0.713101 0.066984
0.207904 0.713101 0.066984
0.270460 0.713101 0.066984
0.331769 0.713101 0.066984
0.392104 0.713101 0.066984
0.451638 0.713101 0.066984
0.510495 0.713101 0.066984
0.568766 0.713101 0.066984
0.626522 0.713101 0.066984
0.683818 0.713101 0.066984
0.740699 0.713101 0.066984
0.797203 0.713101 0.066984
0.853359 0.713101 0.066984
0.909196 0.713101 0.066984
0.964737 0.713101 0.066984
1.000000 0.713101 0.066984
0.076648 0.770815 0.066984
0.143636 0.770815 0.066984
0.207904 0.770815 0.066984
0.270460 0.770815 0.066984
0.331769 0.770815 0.066984
0.392104 0.770815 0.066984
0.451638 0.770815 0.066984
0.510495 0.770815 0.066984
0.568766 0.770815 0.066984
0.626522 0.770815 0.066984
0.683818 0.770815 0.066984
0.740699 0.770815 0.066984
0.797203 0.770815 0.066984
0.853359 0.770815 0.066984
0.909196 0.770815 0.066984
0.964737 0.770815 0.066984
1.000000 0.770815 0.066984
0.076648 0.828349 0.066984
0.143636 0.828349 0.066984
0.207904 0.828349 0.066984
0.270460 0.828349 0.066984
0.331769 0.828349 0.066984
0.392104 0.828349 0.066984
0.451638 0.828349 0.066984
0.510495 0.828349 0.066984
0.568766 0.828349 0.066984
0.626522 0.828349 0.066984
0.683818 0.828349 0.066984
0.740699 0.828349 0.066984
0.797203 0.828349 0.066984
0.853359 0.828349 0.066984
0.909196 0.828349 0.066984
0.964737 0.828349 0.066984
1.000000 0.828349 0.066984
0.076648 0.885717 0.066984
0.143636 0.885717 0.066984
0.207904 0.885717 0.066984
0.270460 0.885717 0.066984
0.331769 0.885717 0.066984
0.392104 0.885717 0.066984
0.451638 0.885717 0.066984
0.510495 0.885717 0.066984
0.568766 0.885717 0.066984
0.626522 0.885717 0.066984
0.683818 0.885717 0.066984
0.740699 0.885717 0.066984
0.797203 0.885717 0.066984
0.853359 0.885717 0.066984
0.909196 0.885717 0.066984
0.964737 0.885717 0.066984
1.000000 0.885717 0.066984
0.076648 0.942931 0.066984
0.143636 0.942931 0.066984
0.207904 0.942931 0.066984
0.270460 0.942931 0.066984
0.331769 0.942931 0.066984
0.392104 0.942931 0.066984
0.451638 0.942931 0.066984
0.510495 0.942931 0.066984
0.568766 0.942931 0.066984
0.626522 0.942931 0.066984
0.683818 0.942931 0.066984
0.740699 0.942931 0.066984
0.797203 0.942931 0.066984
0.853359 0.942931 0.066984
0.909196 0.942931 0.066984
0.964737 0.942931 0.066984
1.000000 0.942931 0.066984
0.076648 1.000000 0.066984
0.143636 1.000000 0.066984
0.207904 1.000000 0.066984
0.270460 1.000000 0.066984
0.331769 1.000000 0.066984
0.392104 1.000000 0.066984
0.451638 1.000000 0.066984
0.510495 1.000000 0.066984
0.568766 1.000000 0.066984
0.626522 1.000000 0.066984
0.683818 1.000000 0.066984
0.740699 1.000000 0.066984
0.797203 1.000000 0.066984
0.853359 1.000000 0.066984
0.909196 1.000000 0.066984
0.964737 1.000000 0.066984
1.000000 1.000000 0.066984
0.076648 0.056365 0.117159
0.143636 0.056365 0.117159
0.207904 0.056365 0.117159
0.270460 0.056365 0.117159
0.331769 0.056365 0.117159
0.392104 0.056365 0.117159
0.451638 0.056365 0.117159
0.510495 0.056365 0.117159
0.568766 0.056365 0.117159
0.626522 0.056365 0.117159
0.683818 0.056365 0.117159
0.740699 0.056365 0.117159
0.797203 0.056365 0.117159
0.853359 0.056365 0.117159
0.909196 0.056365 0.117159
0.964737 0.056365 0.117159
1.000000 0.056365 0.117159
0.076648 0.119498 0.117159
0.143636 0.119498 0.117159
0.207904 0.119498 0.117159
0.270460 0.119498 0.117159
0.331769 0.119498 0.117159
0.392104 0.119498 0.117159
0.451638 0.119498 0.117159
0.510495 0.119498 0.117159
0.568766 0.119498 0.117159
0.626522 0.119498 0.117159
0.683818 0.119498 0.117159
0.740699 0.119498 0.117159
0.797203 0.119498 0.117159
0.853359 0.119498 0.117159
0.909196 0.119498 0.117159
0.964737 0.119498 0.117159
1.000000 0.119498 0.117159
0.076648 0.181198 0.117159
0.143636 0.181198 0.117159
0.207904 0.181198 0.117159
0.270460 0.181198 0.117159
0.331769 0.181198 0.117159
0.392104 0.181198 0.117159
0.451638 0.181198 0.117159
0.510495 0.181198 0.117159
0.568766 0.181198 0.117159
0.626522 0.181198 0.117159
0.683818 0.181198 0.117159
0.740699 0.181198 0.117159
0.797203 0.181198 0.117159
0.853359 0.181198 0.117159
0.909196 0.181198 0.117159
0.964737 0.181198 0.117159
1.000000 0.181198 0.117159
0.076648 0.242017 0.117159
0.143636 0.242017 0.117159
0.207904 0.242017 0.117159
0.270460 0.242017 0.117159
0.331769 0.242017 0.117159
0.392104 0.242017 0.117159
0.451638 0.242017 0.117159
0.510495 0.242017 0.117159
0.568766 0.242017 0.117159
0.626522 0.242017 0.117159
0.683818 0.242017 0.117159
0.740699 0.242017 0.117159
0.797203 0.242017 0.117159
0.853359 0.242017 0.117159
0.909196 0.242017 0.117159
0.964737 0.242017 0.117159
1.000000 0.242017 0.117159
0.076648 0.302199 0.117159
0.143636 0.302199 0.117159
0.207904 0.302199 0.117159
0.270460 0.302199 0.117159
0.331769 0.302199 0.117159
0.392104 0.302199 0.117159
0.451638 0.302199 0.117159
0.510495 0.302199 0.117159
0.568766 0.302199 0.117159
0.626522 0.302199 0.117159
0.683818 0.302199 0.117159
0.740699 0.302199 0.117159
0.797203 0.302199 0.117159
0.853359 0.302199 0.117159
0.909196 0.302199 0.117159
0.964737 0.302199 0.117159
1.000000 0.302199 0.117159
0.076648 0.361881 0.117159
0.143636 0.361881 0.117159
0.207904 0.361881 0.117159
0.270460 0.361881 0.117159
0.331769 0.361881 0.117159
0.392104 0.361881 0.117159
0.451638 0.361881 0.117159
0.510495 0.361881 0.117159
0.568766 0.361881 0.117159
0.626522 0.361881 0.117159
0.683818 0.361881 0.117159
0.740699 0.361881 0.117159
0.797203 0.361881 0.117159
0.853359 0.361881 0.117159
0.909196 0.361881 0.117159
0.964737 0.361881 0.117159
1.000000 0.361881 0.117159
0.076648 0.421155 0.117159
0.143636 0.421155 0.117159
0.207904 0.421155 0.117159
0.270460 0.421155 0.117159
0.331769 0.421155 0.117159
0.392104 0.421155 0.117159
0.451638 0.421155 0.117159
0.510495 0.421155 0.117159
0.568766 0.421155 0.117159
0.626522 0.421155 0.117159
0.683818 0.421155 0.117159
0.740699 0.421155 0.117159
0.797203 0.421155 0.117159
0.853359 0.421155 0.117159
0.909196 0.421155 0.117159
0.964737 0.421155 0.117159
1.000000 0.421155 0.117159
0.076648 0.480081 0.117159
0.143636 0.480081 0.117159
0.207904 0.480081 0.117159
0.270460 0.480081 0.117159
0.331769 0.480081 0.117159
0.392104 0.480081 0.117159
0.451638 0.480081 0.117159
0.510495 0.480081 0.117159
0.568766 0.480081 0.117159
0.626522 0.480081 0.117159
0.683818 0.480081 0.117159
0.740699 0.480081 0.117159
0.797203 0.480081 0.117159
0.853359 0.480081 0.117159
0.909196 0.480081 0.117159
0.964737 0.480081 0.117159
1.000000 0.480081 0.117159
0.076648 0.538707 0.117159
0.143636 0.538707 0.117159
0.207904 0.538707 0.117159
0.270460 0.538707 0.117159
0.331769 0.538707 0.117159
0.392104 0.538707 0.117159
0.451638 0.538707 0.117159
0.510495 0.538707 0.117159
0.568766 0.538707 0.117159
0.626522 0.538707 0.117159
0.683818 0.538707 0.117159
0.740699 0.538707 0.117159
0.797203 0.538707 0.117159
0.853359 0.538707 0.117159
0.909196 0.538707 0.117159
0.964737 0.538707 0.117159
1.000000 0.538707 0.117159
0.076648 0.597068 0.117159
0.143636 0.597068 0.117159
0.207904 0.597068 0.117159
0.270460 0.597068 0.117159
0.331769 0.597068 0.117159
0.392104 0.597068 0.117159
0.451638 0.597068 0.117159
0.510495 0.597068 0.117159
0.568766 0.597068 0.117159
0.626522 0.597068 0.117159
0.683818 0.597068 0.117159
0.740699 0.597068 0.117159
0.797203 0.597068 0.117159
0.853359 0.597068 0.117159
0.909196 0.597068 0.117159
0.964737 0.597068 0.117159
1.000000 0.597068 0.117159
0.076648 0.655192 0.117159
0.143636 0.655192 0.117159
0.207904 0.655192 0.117159
0.270460 0.655192 0.117159
0.331769 0.655192 0.117159
0.392104 0.655192 0.117159
0.451638 0.655192 0.117159
0.510495 0.655192 0.117159
0.568766 0.655192 0.117159
0.626522 0.655192 0.117159
0.683818 0.655192 0.117159
0.740699 0.655192 0.117159
0.797203 0.655192 0.117159
0.853359 0.655192 0.117159
0.909196 0.655192 0.117159
0.964737 0.655192 0.117159
1.000000 0.655192 0.117159
0.076648 0.713101 0.117159
0.143636 0.713101 0.117159
0.207904 0.713101 0.117159
0.270460 0.713101 0.117159
0.331769 0.713101 0.117159
0.392104 0.713101 0.117159
0.451638 0.713101 0.117159
0.510495 0.713101 0.117159
0.568766 0.713101 0.117159
0.626522 0.713101 0.117159
0.683818 0.713101 0.117159
0.740699 0.713101 0.117159
0.797203 0.713101 0.117159
0.853359 0.713101 0.117159
0.909196 0.713101 0.117159
0.964737 0.713101 0.117159
1.000000 0.713101 0.117159
0.076648 0.770815 0.117159
0.143636 0.770815 0.117159
0.207904 0.770815 0.117159
0.270460 0.770815 0.117159
0.331769 0.770815 0.117159
0.392104 0.770815 0.117159
0.451638 0.770815 0.117159
0.510495 0.770815 0.117159
0.568766 0.770815 0.117159
0.626522 0.770815 0.117159
0.683818 0.770815 0.117159
0.740699 0.770815 0.117159
0.797203 0.770815 0.117159
0.853359 0.770815 0.117159
0.909196 0.770815 0.117159
0.964737 0.770815 0.117159
1.000000 0.770815 0.117159
0.076648 0.828349 0.117159
0.143636 0.828349 0.117159
0.207904 0.828349 0.117159
0.270460 0.828349 0.117159
0.331769 0.828349 0.117159
0.392104 0.828349 0.117159
0.451638 0.828349 0.117159
0.510495 0.828349 0.117159
0.568766 0.828349 0.117159
0.626522 0.828349 0.117159
0.683818 0.828349 0.117159
0.740699 0.828349 0.117159
0.797203 0.828349 0.117159
0.853359 0.828349 0.117159
0.909196 0.828349 0.117159
0.964737 0.828349 0.117159
1.000000 0.828349 0.117159
0.076648 0.885717 0.117159
0.143636 0.885717 0.117159
0.207904 0.885717 0.117159
0.270460 0.885717 0.117159
0.331769 0.885717 0.117159
0.392104 0.885717 0.117159
0.451638 0.885717 0.117159
0.510495 0.885717 0.117159
0.568766 0.885717 0.117159
0.626522 0.885717 0.117159
0.683818 0.885717 0.117159
0.740699 0.885717 0.117159
0.797203 0.885717 0.117159
0.853359 0.885717 0.117159
0.909196 0.885717 0.117159
0.964737 0.885717 0.117159
1.000000 0.885717 0.117159
0.076648 0.942931 0.117159
0.143636 0.942931 0.117159
0.207904 0.942931 0.117159
0.270460 0.942931 0.117159
0.331769 0.942931 0.117159
0.392104 0.942931 0.117159
0.451638 0.942931 0.117159
0.510495 0.942931 0.117159
0.568766 0.942931 0.117159
0.626522 0.942931 0.117159
0.683818 0.942931 0.117159
0.740699 0.942931 0.117159
0.797203 0.942931 0.117159
0.853359 0.942931 0.117159
0.909196 0.942931 0.117159
0.964737 0.942931 0.117159
1.000000 0.942931 0.117159
0.076648 1.000000 0.117159
0.143636 1.000000 0.117159
0.207904 1.000000 0.117159
0.270460 1.000000 0.117159
0.331769 1.000000 0.117159
0.392104 1.000000 0.117159
0.451638 1.000000 0.117159
0.510495 1.000000 0.117159
0.568766 1.000000 0.117159
0.626522 1.000000 0.117159
0.683818 1.000000 0.117159
0.740699 1.000000 0.117159
0.797203 1.000000 0.117159
0.853359 1.000000 0.117159
0.909196 1.000000 0.117159
0.964737 1.000000 0.117159
1.000000 1.000000 0.117159
0.076648 0.056365 0.168413
0.143636 0.056365 0.168413
0.207904 0.056365 0.168413
0.270460 0.056365 0.168413
0.331769 0.056365 0.168413
0.392104 0.056365 0.168413
0.451638 0.056365 0.168413
0.510495 0.056365 0.168413
0.568766 0.056365 0.168413
0.626522 0.056365 0.168413
0.683818 0.056365 0.168413
0.740699 0.056365 0.168413
0.797203 0.056365 0.168413
0.853359 0.056365 0.168413
0.909196 0.056365 0.168413
0.964737 0.056365 0.168413
1.000000 0.056365 0.168413
0.076648 0.119498 0.168413
0.143636 0.119498 0.168413
0.207904 0.119498 0.168413
0.270460 0.119498 0.168413
0.331769 0.119498 0.168413
0.392104 0.119498 0.168413
0.451638 0.119498 0.168413
0.510495 0.119498 0.168413
0.568766 0.119498 0.168413
0.626522 0.119498 0.168413
0.683818 0.119498 0.168413
0.740699 0.119498 0.168413
0.797203 0.119498 0.168413
0.853359 0.119498 0.168413
0.909196 0.119498 0.168413
0.964737 0.119498 0.168413
1.000000 0.119498 0.168413
0.076648 0.181198 0.168413
0.143636 0.181198 0.168413
0.207904 0.181198 0.168413
0.270460 0.181198 0.168413
0.331769 0.181198 0.168413
0.392104 0.181198 0.168413
0.451638 0.181198 0.168413
0.510495 0.181198 0.168413
0.568766 0.181198 0.168413
0.626522 0.181198 0.168413
0.683818 0.181198 0.168413
0.740699 0.181198 0.168413
0.797203 0.181198 0.168413
0.853359 0.181198 0.168413
0.909196 0.181198 0.168413
0.964737 0.181198 0.168413
1.000000 0.181198 0.168413
0.076648 0.242017 0.168413
0.143636 0.242017 0.168413
0.207904 0.242017 0.168413
0.270460 0.242017 0.168413
0.331769 0.242017 0.168413
0.392104 0.242017 0.168413
0.451638 0.242017 0.168413
0.510495 0.242017 0.168413
0.568766 0.242017 0.168413
0.626522 0.242017 0.168413
0.683818 0.242017 0.168413
0.740699 0.242017 0.168413
0.797203 0.242017 0.168413
0.853359 0.242017 0.168413
0.909196 0.242017 0.168413
0.964737 0.242017 0.168413
1.000000 0.242017 0.168413
0.076648 0.302199 0.168413
0.143636 0.302199 0.168413
0.207904 0.302199 0.168413
0.270460 0.302199 0.168413
0.331769 0.302199 0.168413
0.392104 0.302199 0.168413
0.451638 0.302199 0.168413
0.510495 0.302199 0.168413
0.568766 0.302199 0.168413
0.626522 0.302199 0.168413
0.683818 0.302199 0.168413
0.740699 0.302199 0.168413
0.797203 0.302199 0.168413
0.853359 0.302199 0.168413
0.909196 0.302199 0.168413
0.964737 0.302199 0.168413
1.000000 0.302199 0.168413
0.076648 0.361881 0.168413
0.143636 0.361881 0.168413
0.207904 0.361881 0.168413
0.270460 0.361881 0.168413
0.331769 0.361881 0.168413
0.392104 0.361881 0.168413
0.451638 0.361881 0.168413
0.510495 0.361881 0.168413
0.568766 0.361881 0.168413
0.626522 0.361881 0.168413
0.683818 0.361881 0.168413
0.740699 0.361881 0.168413
0.797203 0.361881 0.168413
0.853359 0.361881 0.168413
0.909196 0.361881 0.168413
0.964737 0.361881 0.168413
1.000000 0.361881 0.168413
0.076648 0.421155 0.168413
0.143636 0.421155 0.168413
0.207904 0.421155 0.168413
0.270460 0.421155 0.168413
0.331769 0.421155 0.168413
0.392104 0.421155 0.168413
0.451638 0.421155 0.168413
0.510495 0.421155 0.168413
0.568766 0.421155 0.168413
0.626522 0.421155 0.168413
0.683818 0.421155 0.168413
0.740699 0.421155 0.168413
0.797203 0.421155 0.168413
0.853359 0.421155 0.168413
0.909196 0.421155 0.168413
0.964737 0.421155 0.168413
1.000000 0.421155 0.168413
0.076648 0.480081 0.168413
0.143636 0.480081 0.168413
0.207904 0.480081 0.168413
0.270460 0.480081 0.168413
0.331769 0.480081 0.168413
0.392104 0.480081 0.168413
0.451638 0.480081 0.168413
0.510495 0.480081 0.168413
0.568766 0.480081 0.168413
0.626522 0.480081 0.168413
0.683818 0.480081 0.168413
0.740699 0.480081 0.168413
0.797203 0.480081 0.168413
0.853359 0.480081 0.168413
0.909196 0.480081 0.168413
0.964737 0.480081 0.168413
1.000000 0.480081 0.168413
0.076648 0.538707 0.168413
0.143636 0.538707 0.168413
0.207904 0.538707 0.168413
0.270460 0.538707 0.168413
0.331769 0.538707 0.168413
0.392104 0.538707 0.168413
0.451638 0.538707 0.168413
0.510495 0.538707 0.168413
0.568766 0.538707 0.168413
0.626522 0.538707 0.168413
0.683818 0.538707 0.168413
0.740699 0.538707 0.168413
0.797203 0.538707 0.168413
0.853359 0.538707 0.168413
0.909196 0.538707 0.168413
0.964737 0.538707 0.168413
1.000000 0.538707 0.168413
0.076648 0.597068 0.168413
0.143636 0.597068 0.168413
0.207904 0.597068 0.168413
0.270460 0.597068 0.168413
0.331769 0.597068 0.168413
0.392104 0.597068 0.168413
0.451638 0.597068 0.168413
0.510495 0.597068 0.168413
0.568766 0.597068 0.168413
0.626522 0.597068 0.168413
0.683818 0.597068 0.168413
0.740699 0.597068 0.168413
0.797203 0.597068 0.168413
0.853359 0.597068 0.168413
0.909196 0.597068 0.168413
0.964737 0.597068 0.168413
1.000000 0.597068 0.168413
0.076648 0.655192 0.168413
0.143636 0.655192 0.168413
0.207904 0.655192 0.168413
0.270460 0.655192 0.168413
0.331769 0.655192 0.168413
0.392104 0.655192 0.168413
0.451638 0.655192 0.168413
0.510495 0.655192 0.168413
0.568766 0.655192 0.168413
0.626522 0.655192 0.168413
0.683818 0.655192 0.168413
0.740699 0.655192 0.168413
0.797203 0.655192 0.168413
0.853359 0.655192 0.168413
0.909196 0.655192 0.168413
0.964737 0.655192 0.168413
1.000000 0.655192 0.168413
0.076648 0.713101 0.168413
0.143636 0.713101 0.168413
0.207904 0.713101 0.168413
0.270460 0.713101 0.168413
0.331769 0.713101 0.168413
0.392104 0.713101 0.168413
0.451638 0.713101 0.168413
0.510495 0.713101 0.168413
0.568766 0.713101 0.168413
0.626522 0.713101 0.168413
0.683818 0.713101 0.168413
0.740699 0.713101 0.168413
0.797203 0.713101 0.168413
0.853359 0.713101 0.168413
0.909196 0.713101 0.168413
0.964737 0.713101 0.168413
1.000000 0.713101 0.168413
0.076648 0.770815 0.168413
0.143636 0.770815 0.168413
0.207904 0.770815 0.168413
0.270460 0.770815 0.168413
0.331769 0.770815 0.168413
0.392104 0.770815 0.168413
0.451638 0.770815 0.168413
0.510495 0.770815 0.168413
0.568766 0.770815 0.168413
0.626522 0.770815 0.168413
0.683818 0.770815 0.168413
0.740699 0.770815 0.168413
0.797203 0.770815 0.168413
0.853359 0.770815 0.168413
0.909196 0.770815 0.168413
0.964737 0.770815 0.168413
1.000000 0.770815 0.168413
0.076648 0.828349 0.168413
0.143636 0.828349 0.168413
0.207904 0.828349 0.168413
0.270460 0.828349 0.168413
0.331769 0.828349 0.168413
0.392104 0.828349 0.168413
0.451638 0.828349 0.168413
0.510495 0.828349 0.168413
0.568766 0.828349 0.168413
0.626522 0.828349 0.168413
0.683818 0.828349 0.168413
0.740699 0.828349 0.168413
0.797203 0.828349 0.168413
0.853359 0.828349 0.168413
0.909196 0.828349 0.168413
0.964737 0.828349 0.168413
1.000000 0.828349 0.168413
0.076648 0.885717 0.168413
0.143636 0.885717 0.168413
0.207904 0.885717 0.168413
0.270460 0.885717 0.168413
0.331769 0.885717 0.168413
0.392104 0.885717 0.168413
0.451638 0.885717 0.168413
0.510495 0.885717 0.168413
0.568766 0.885717 0.168413
0.626522 0.885717 0.168413
0.683818 0.885717 0.168413
0.740699 0.885717 0.168413
0.797203 0.885717 0.168413
0.853359 0.885717 0.168413
0.909196 0.885717 0.168413
0.964737 0.885717 0.168413
1.000000 0.885717 0.168413
0.076648 0.942931 0.168413
0.143636 0.942931 0.168413
0.207904 0.942931 0.168413
0.270460 0.942931 0.168413
0.331769 0.942931 0.168413
0.392104 0.942931 0.168413
0.451638 0.942931 0.168413
0.510495 0.942931 0.168413
0.568766 0.942931 0.168413
0.626522 0.942931 0.168413
0.683818 0.942931 0.168413
0.740699 0.942931 0.168413
0.797203 0.942931 0.168413
0.853359 0.942931 0.168413
0.909196 0.942931 0.168413
0.964737 0.942931 0.168413
1.000000 0.942931 0.168413
0.076648 1.000000 0.168413
0.143636 1.000000 0.168413
0.207904 1.000000 0.168413
0.270460 1.000000 0.168413
0.331769 1.000000 0.168413
0.392104 1.000000 0.168413
0.451638 1.000000 0.168413
0.510495 1.000000 0.168413
0.568766 1.000000 0.168413
0.626522 1.000000 0.168413
0.683818 1.000000 0.168413
0.740699 1.000000 0.168413
0.797203 1.000000 0.168413
0.853359 1.000000 0.168413
0.909196 1.000000 0.168413
0.964737 1.000000 0.168413
1.000000 1.000000 0.168413
0.076648 0.056365 0.220432
0.143636 0.056365 0.220432
0.207904 0.056365 0.220432
0.270460 0.056365 0.220432
0.331769 0.056365 0.220432
0.392104 0.056365 0.220432
0.451638 0.056365 0.220432
0.510495 0.056365 0.220432
0.568766 0.056365 0.220432
0.626522 0.056365 0.220432
0.683818 0.056365 0.220432
0.740699 0.056365 0.220432
0.797203 0.056365 0.220432
0.853359 0.056365 0.220432
0.909196 0.056365 0.220432
0.964737 0.056365 0.220432
1.000000 0.056365 0.220432
0.076648 0.119498 0.220432
0.143636 0.119498 0.220432
