Server/IGTracker/data/luts/Vintage_Film.cube
# Cube LUT created for IGTracker
TITLE "Vintage Film"
LUT_3D_SIZE 9
0.076648 0.056365 0.066984
0.207904 0.056365 0.066984
0.331769 0.056365 0.066984
0.451638 0.056365 0.066984
0.568766 0.056365 0.066984
0.683818 0.056365 0.066984
0.797203 0.056365 0.066984
0.909196 0.056365 0.066984
1.000000 0.056365 0.066984
0.076648 0.181198 0.066984
0.207904 0.181198 0.066984
0.331769 0.181198 0.066984
0.451638 0.181198 0.066984
0.568766 0.181198 0.066984
0.683818 0.181198 0.066984
0.797203 0.181198 0.066984
0.909196 0.181198 0.066984
1.000000 0.181198 0.066984
0.076648 0.302199 0.066984
0.207904 0.302199 0.066984
0.331769 0.302199 0.066984
0.451638 0.302199 0.066984
0.568766 0.302199 0.066984
0.683818 0.302199 0.066984
0.797203 0.302199 0.066984
0.909196 0.302199 0.066984
1.000000 0.302199 0.066984
0.076648 0.421155 0.066984
0.207904 0.421155 0.066984
0.331769 0.421155 0.066984
0.451638 0.421155 0.066984
0.568766 0.421155 0.066984
0.683818 0.421155 0.066984
0.797203 0.421155 0.066984
0.909196 0.421155 0.066984
1.000000 0.421155 0.066984
0.076648 0.538707 0.066984
0.207904 0.538707 0.066984
0.331769 0.538707 0.066984
0.451638 0.538707 0.066984
0.568766 0.538707 0.066984
0.683818 0.538707 0.066984
0.797203 0.538707 0.066984
0.909196 0.538707 0.066984
1.000000 0.538707 0.066984
0.076648 0.655192 0.066984
0.207904 0.655192 0.066984
0.331769 0.655192 0.066984
0.451638 0.655192 0.066984
0.568766 0.655192 0.066984
0.683818 0.655192 0.066984
0.797203 0.655192 0.066984
0.909196 0.655192 0.066984
1.000000 0.655192 0.066984
0.076648 0.770815 0.066984
0.207904 0.770815 0.066984
0.331769 0.770815 0.066984
0.451638 0.770815 0.066984
0.568766 0.770815 0.066984
0.683818 0.770815 0.066984
0.797203 0.770815 0.066984
0.909196 0.770815 0.066984
1.000000 0.770815 0.066984
0.076648 0.885717 0.066984
0.207904 0.885717 0.066984
0.331769 0.885717 0.066984
0.451638 0.885717 0.066984
0.568766 0.885717 0.066984
0.683818 0.885717 0.066984
0.797203 0.885717 0.066984
0.909196 0.885717 0.066984
1.000000 0.885717 0.066984
0.076648 1.000000 0.066984
0.207904 1.000000 0.066984
0.331769 1.000000 0.066984
0.451638 1.000000 0.066984
0.568766 1.000000 0.066984
0.683818 1.000000 0.066984
0.797203 1.000000 0.066984
0.909196 1.000000 0.066984
1.000000 1.000000 0.066984
0.076648 0.056365 0.168413
0.207904 0.056365 0.168413
0.331769 0.056365 0.168413
0.451638 0.056365 0.168413
0.568766 0.056365 0.168413
0.683818 0.056365 0.168413
0.797203 0.056365 0.168413
0.909196 0.056365 0.168413
1.000000 0.056365 0.168413
0.076648 0.181198 0.168413
0.207904 0.181198 0.168413
0.331769 0.181198 0.168413
0.451638 0.181198 0.168413
0.568766 0.181198 0.168413
0.683818 0.181198 0.168413
0.797203 0.181198 0.168413
0.909196 0.181198 0.168413
1.000000 0.181198 0.168413
0.076648 0.302199 0.168413
0.207904 0.302199 0.168413
0.331769 0.302199 0.168413
0.451638 0.302199 0.168413
0.568766 0.302199 0.168413
0.683818 0.302199 0.168413
0.797203 0.302199 0.168413
0.909196 0.302199 0.168413
1.000000 0.302199 0.168413
0.076648 0.421155 0.168413
0.207904 0.421155 0.168413
0.331769 0.421155 0.168413
0.451638 0.421155 0.168413
0.568766 0.421155 0.168413
0.683818 0.421155 0.168413
0.797203 0.421155 0.168413
0.909196 0.421155 0.168413
1.000000 0.421155 0.168413
0.076648 0.538707 0.168413
0.207904 0.538707 0.168413
0.331769 0.538707 0.168413
0.451638 0.538707 0.168413
0.568766 0.538707 0.168413
0.683818 0.538707 0.168413
0.797203 0.538707 0.168413
0.909196 0.538707 0.168413
1.000000 0.538707 0.168413
0.076648 0.655192 0.168413
0.207904 0.655192 0.168413
0.331769 0.655192 0.168413
0.451638 0.655192 0.168413
0.568766 0.655192 0.168413
0.683818 0.655192 0.168413
0.797203 0.655192 0.168413
0.909196 0.655192 0.168413
1.000000 0.655192 0.168413
0.076648 0.770815 0.168413
0.207904 0.770815 0.168413
0.331769 0.770815 0.168413
0.451638 0.770815 0.168413
0.568766 0.770815 0.168413
0.683818 0.770815 0.168413
0.797203 0.770815 0.168413
0.909196 0.770815 0.168413
1.000000 0.770815 0.168413
0.076648 0.885717 0.168413
0.207904 0.885717 0.168413
0.331769 0.885717 0.168413
0.451638 0.885717 0.168413
0.568766 0.885717 0.168413
0.683818 0.885717 0.168413
0.797203 0.885717 0.168413
0.909196 0.885717 0.168413
1.000000 0.885717 0.168413
0.076648 1.000000 0.168413
0.207904 1.000000 0.168413
0.331769 1.000000 0.168413
0.451638 1.000000 0.168413
0.568766 1.000000 0.168413
0.683818 1.000000 0.168413
0.797203 1.000000 0.168413
0.909196 1.000000 0.168413
1.000000 1.000000 0.168413
0.076648 0.056365 0.273048
0.207904 0.056365 0.273048
0.331769 0.056365 0.273048
0.451638 0.056365 0.273048
0.568766 0.056365 0.273048
0.683818 0.056365 0.273048
0.797203 0.056365 0.273048
0.909196 0.056365 0.273048
1.000000 0.056365 0.273048
0.076648 0.181198 0.273048
0.207904 0.181198 0.273048
0.331769 0.181198 0.273048
0.451638 0.181198 0.273048
0.568766 0.181198 0.273048
0.683818 0.181198 0.273048
0.797203 0.181198 0.273048
0.909196 0.181198 0.273048
1.000000 0.181198 0.273048
0.076648 0.302199 0.273048
0.207904 0.302199 0.273048
0.331769 0.302199 0.273048
0.451638 0.302199 0.273048
0.568766 0.302199 0.273048
0.683818 0.302199 0.273048
0.797203 0.302199 0.273048
0.909196 0.302199 0.273048
1.000000 0.302199 0.273048
0.076648 0.421155 0.273048
0.207904 0.421155 0.273048
0.331769 0.421155 0.273048
0.451638 0.421155 0.273048
0.568766 0.421155 0.273048
0.683818 0.421155 0.273048
0.797203 0.421155 0.273048
0.909196 0.421155 0.273048
1.000000 0.421155 0.273048
0.076648 0.538707 0.273048
0.207904 0.538707 0.273048
0.331769 0.538707 0.273048
0.451638 0.538707 0.273048
0.568766 0.538707 0.273048
0.683818 0.538707 0.273048
0.797203 0.538707 0.273048
0.909196 0.538707 0.273048
1.000000 0.538707 0.273048
0.076648 0.655192 0.273048
0.207904 0.655192 0.273048
0.331769 0.655192 0.273048
0.451638 0.655192 0.273048
0.568766 0.655192 0.273048
0.683818 0.655192 0.273048
0.797203 0.655192 0.273048
0.909196 0.655192 0.273048
1.000000 0.655192 0.273048
0.076648 0.770815 0.273048
0.207904 0.770815 0.273048
0.331769 0.770815 0.273048
0.451638 0.770815 0.273048
0.568766 0.770815 0.273048
0.683818 0.770815 0.273048
0.797203 0.770815 0.273048
0.909196 0.770815 0.273048
1.000000 0.770815 0.273048
0.076648 0.885717 0.273048
0.207904 0.885717 0.273048
0.331769 0.885717 0.273048
0.451638 0.885717 0.273048
0.568766 0.885717 0.273048
0.683818 0.885717 0.273048
0.797203 0.885717 0.273048
0.909196 0.885717 0.273048
1.000000 0.885717 0.273048
0.076648 1.000000 0.273048
0.207904 1.000000 0.273048
0.331769 1.000000 0.273048
0.451638 1.000000 0.273048
0.568766 1.000000 0.273048
0.683818 1.000000 0.273048
0.797203 1.000000 0.273048
0.909196 1.000000 0.273048
1.000000 1.000000 0.273048
0.076648 0.056365 0.379676
0.207904 0.056365 0.379676
0.331769 0.056365 0.379676
0.451638 0.056365 0.379676
0.568766 0.056365 0.379676
0.683818 0.056365 0.379676
0.797203 0.056365 0.379676
0.909196 0.056365 0.379676
1.000000 0.056365 0.379676
0.076648 0.181198 0.379676
0.207904 0.181198 0.379676
0.331769 0.181198 0.379676
0.451638 0.181198 0.379676
0.568766 0.181198 0.379676
0.683818 0.181198 0.379676
0.797203 0.181198 0.379676
0.909196 0.181198 0.379676
1.000000 0.181198 0.379676
0.076648 0.302199 0.379676
0.207904 0.302199 0.379676
0.331769 0.302199 0.379676
0.451638 0.302199 0.379676
0.568766 0.302199 0.379676
0.683818 0.302199 0.379676
0.797203 0.302199 0.379676
0.909196 0.302199 0.379676
1.000000 0.302199 0.379676
0.076648 0.421155 0.379676
0.207904 0.421155 0.379676
0.331769 0.421155 0.379676
0.451638 0.421155 0.379676
0.568766 0.421155 0.379676
0.683818 0.421155 0.379676
0.797203 0.421155 0.379676
0.909196 0.421155 0.379676
1.000000 0.421155 0.379676
0.076648 0.538707 0.379676
0.207904 0.538707 0.379676
0.331769 0.538707 0.379676
0.451638 0.538707 0.379676
0.568766 0.538707 0.379676
0.683818 0.538707 0.379676
0.797203 0.538707 0.379676
0.909196 0.538707 0.379676
1.000000 0.538707 0.379676
0.076648 0.655192 0.379676
0.207904 0.655192 0.379676
0.331769 0.655192 0.379676
0.451638 0.655192 0.379676
0.568766 0.655192 0.379676
0.683818 0.655192 0.379676
0.797203 0.655192 0.379676
0.909196 0.655192 0.379676
1.000000 0.655192 0.379676
0.076648 0.770815 0.379676
0.207904 0.770815 0.379676
0.331769 0.770815 0.379676
0.451638 0.770815 0.379676
0.568766 0.770815 0.379676
0.683818 0.770815 0.379676
0.797203 0.770815 0.379676
0.909196 0.770815 0.379676
1.000000 0.770815 0.379676
0.076648 0.885717 0.379676
0.207904 0.885717 0.379676
0.331769 0.885717 0.379676
0.451638 0.885717 0.379676
0.568766 0.885717 0.379676
0.683818 0.885717 0.379676
0.797203 0.885717 0.379676
0.909196 0.885717 0.379676
1.000000 0.885717 0.379676
0.076648 1.000000 0.379676
0.207904 1.000000 0.379676
0.331769 1.000000 0.379676
0.451638 1.000000 0.379676
0.568766 1.000000 0.379676
0.683818 1.000000 0.379676
0.797203 1.000000 0.379676
0.909196 1.000000 0.379676
1.000000 1.000000 0.379676
0.076648 0.056365 0.487768
0.207904 0.056365 0.487768
0.331769 0.056365 0.487768
0.451638 0.056365 0.487768
0.568766 0.056365 0.487768
0.683818 0.056365 0.487768
0.797203 0.056365 0.487768
0.909196 0.056365 0.487768
1.000000 0.056365 0.487768
0.076648 0.181198 0.487768
0.207904 0.181198 0.487768
0.331769 0.181198 0.487768
0.451638 0.181198 0.487768
0.568766 0.181198 0.487768
0.683818 0.181198 0.487768
0.797203 0.181198 0.487768
0.909196 0.181198 0.487768
1.000000 0.181198 0.487768
0.076648 0.302199 0.487768
0.207904 0.302199 0.487768
0.331769 0.302199 0.487768
0.451638 0.302199 0.487768
0.568766 0.302199 0.487768
0.683818 0.302199 0.487768
0.797203 0.302199 0.487768
0.909196 0.302199 0.487768
1.000000 0.302199 0.487768
0.076648 0.421155 0.487768
0.207904 0.421155 0.487768
0.331769 0.421155 0.487768
0.451638 0.421155 0.487768
0.568766 0.421155 0.487768
0.683818 0.421155 0.487768
0.797203 0.421155 0.487768
0.909196 0.421155 0.487768
1.000000 0.421155 0.487768
0.076648 0.538707 0.487768
0.207904 0.538707 0.487768
0.331769 0.538707 0.487768
0.451638 0.538707 0.487768
0.568766 0.538707 0.487768
0.683818 0.538707 0.487768
0.797203 0.538707 0.487768
0.909196 0.538707 0.487768
1.000000 0.538707 0.487768
0.076648 0.655192 0.487768
0.207904 0.655192 0.487768
0.331769 0.655192 0.487768
0.451638 0.655192 0.487768
0.568766 0.655192 0.487768
0.683818 0.655192 0.487768
0.797203 0.655192 0.487768
0.909196 0.655192 0.487768
1.000000 0.655192 0.487768
0.076648 0.770815 0.487768
0.207904 0.770815 0.487768
0.331769 0.770815 0.487768
0.451638 0.770815 0.487768
0.568766 0.770815 0.487768
0.683818 0.770815 0.487768
0.797203 0.770815 0.487768
0.909196 0.770815 0.487768
1.000000 0.770815 0.487768
0.076648 0.885717 0.487768
0.207904 0.885717 0.487768
0.331769 0.885717 0.487768
0.451638 0.885717 0.487768
0.568766 0.885717 0.487768
0.683818 0.885717 0.487768
0.797203 0.885717 0.487768
0.909196 0.885717 0.487768
1.000000 0.885717 0.487768
0.076648 1.000000 0.487768
0.207904 1.000000 0.487768
0.331769 1.000000 0.487768
0.451638 1.000000 0.487768
0.568766 1.000000 0.487768
0.683818 1.000000 0.487768
0.797203 1.000000 0.487768
0.909196 1.000000 0.487768
1.000000 1.000000 0.487768
0.076648 0.056365 0.597022
0.207904 0.056365 0.597022
0.331769 0.056365 0.597022
0.451638 0.056365 0.597022
0.568766 0.056365 0.597022
0.683818 0.056365 0.597022
0.797203 0.056365 0.597022
0.909196 0.056365 0.597022
1.000000 0.056365 0.597022
0.076648 0.181198 0.597022
0.207904 0.181198 0.597022
0.331769 0.181198 0.597022
0.451638 0.181198 0.597022
0.568766 0.181198 0.597022
0.683818 0.181198 0.597022
0.797203 0.181198 0.597022
0.909196 0.181198 0.597022
1.000000 0.181198 0.597022
0.076648 0.302199 0.597022
0.207904 0.302199 0.597022
0.331769 0.302199 0.597022
0.451638 0.302199 0.597022
0.568766 0.302199 0.597022
0.683818 0.302199 0.597022
0.797203 0.302199 0.597022
0.909196 0.302199 0.597022
1.000000 0.302199 0.597022
0.076648 0.421155 0.597022
0.207904 0.421155 0.597022
0.331769 0.421155 0.597022
0.451638 0.421155 0.597022
0.568766 0.421155 0.597022
0.683818 0.421155 0.597022
0.797203 0.421155 0.597022
0.909196 0.421155 0.597022
1.000000 0.421155 0.597022
0.076648 0.538707 0.597022
0.207904 0.538707 0.597022
0.331769 0.538707 0.597022
0.451638 0.538707 0.597022
0.568766 0.538707 0.597022
0.683818 0.538707 0.597022
0.797203 0.538707 0.597022
0.909196 0.538707 0.597022
1.000000 0.538707 0.597022
0.076648 0.655192 0.597022
0.207904 0.655192 0.597022
0.331769 0.655192 0.597022
0.451638 0.655192 0.597022
0.568766 0.655192 0.597022
0.683818 0.655192 0.597022
0.797203 0.655192 0.597022
0.909196 0.655192 0.597022
1.000000 0.655192 0.597022
0.076648 0.770815 0.597022
0.207904 0.770815 0.597022
0.331769 0.770815 0.597022
0.451638 0.770815 0.597022
0.568766 0.770815 0.597022
0.683818 0.770815 0.597022
0.797203 0.770815 0.597022
0.909196 0.770815 0.597022
1.000000 0.770815 0.597022
0.076648 0.885717 0.597022
0.207904 0.885717 0.597022
0.331769 0.885717 0.597022
0.451638 0.885717 0.597022
0.568766 0.885717 0.597022
0.683818 0.885717 0.597022
0.797203 0.885717 0.597022
0.909196 0.885717 0.597022
1.000000 0.885717 0.597022
0.076648 1.000000 0.597022
0.207904 1.000000 0.597022
0.331769 1.000000 0.597022
0.451638 1.000000 0.597022
0.568766 1.000000 0.597022
0.683818 1.000000 0.597022
0.797203 1.000000 0.597022
0.909196 1.000000 0.597022
1.000000 1.000000 0.597022
0.076648 0.056365 0.707242
0.207904 0.056365 0.707242
0.331769 0.056365 0.707242
0.451638 0.056365 0.707242
0.568766 0.056365 0.707242
0.683818 0.056365 0.707242
0.797203 0.056365 0.707242
0.909196 0.056365 0.707242
1.000000 0.056365 0.707242
0.076648 0.181198 0.707242
0.207904 0.181198 0.707242
0.331769 0.181198 0.707242
0.451638 0.181198 0.707242
0.568766 0.181198 0.707242
0.683818 0.181198 0.707242
0.797203 0.181198 0.707242
0.909196 0.181198 0.707242
1.000000 0.181198 0.707242
0.076648 0.302199 0.707242
0.207904 0.302199 0.707242
0.331769 0.302199 0.707242
0.451638 0.302199 0.707242
0.568766 0.302199 0.707242
0.683818 0.302199 0.707242
0.797203 0.302199 0.707242
0.909196 0.302199 0.707242
1.000000 0.302199 0.707242
0.076648 0.421155 0.707242
0.207904 0.421155 0.707242
0.331769 0.421155 0.707242
0.451638 0.421155 0.707242
0.568766 0.421155 0.707242
0.683818 0.421155 0.707242
0.797203 0.421155 0.707242
0.909196 0.421155 0.707242
1.000000 0.421155 0.707242
0.076648 0.538707 0.707242
0.207904 0.538707 0.707242
0.331769 0.538707 0.707242
0.451638 0.538707 0.707242
0.568766 0.538707 0.707242
0.683818 0.538707 0.707242
0.797203 0.538707 0.707242
0.909196 0.538707 0.707242
1.000000 0.538707 0.707242
0.076648 0.655192 0.707242
0.207904 0.655192 0.707242
0.331769 0.655192 0.707242
0.451638 0.655192 0.707242
0.568766 0.655192 0.707242
0.683818 0.655192 0.707242
0.797203 0.655192 0.707242
0.909196 0.655192 0.707242
1.000000 0.655192 0.707242
0.076648 0.770815 0.707242
0.207904 0.770815 0.707242
0.331769 0.770815 0.707242
0.451638 0.770815 0.707242
0.568766 0.770815 0.707242
0.683818 0.770815 0.707242
0.797203 0.770815 0.707242
0.909196 0.770815 0.707242
1.000000 0.770815 0.707242
0.076648 0.885717 0.707242
0.207904 0.885717 0.707242
0.331769 0.885717 0.707242
0.451638 0.885717 0.707242
0.568766 0.885717 0.707242
0.683818 0.885717 0.707242
0.797203 0.885717 0.707242
0.909196 0.885717 0.707242
1.000000 0.885717 0.707242
0.076648 1.000000 0.707242
0.207904 1.000000 0.707242
0.331769 1.000000 0.707242
0.451638 1.000000 0.707242
0.568766 1.000000 0.707242
0.683818 1.000000 0.707242
0.797203 1.000000 0.707242
0.909196 1.000000 0.707242
1.000000 1.000000 0.707242
0.076648 0.056365 0.818289
0.207904 0.056365 0.818289
0.331769 0.056365 0.818289
0.451638 0.056365 0.818289
0.568766 0.056365 0.818289
0.683818 0.056365 0.818289
0.797203 0.056365 0.818289
0.909196 0.056365 0.818289
1.000000 0.056365 0.818289
0.076648 0.181198 0.818289
0.207904 0.181198 0.818289
0.331769 0.181198 0.818289
0.451638 0.181198 0.818289
0.568766 0.181198 0.818289
0.683818 0.181198 0.818289
0.797203 0.181198 0.818289
0.909196 0.181198 0.818289
1.000000 0.181198 0.818289
0.076648 0.302199 0.818289
0.207904 0.302199 0.818289
0.331769 0.302199 0.818289
0.451638 0.302199 0.818289
0.568766 0.302199 0.818289
0.683818 0.302199 0.818289
0.797203 0.302199 0.818289
0.909196 0.302199 0.818289
1.000000 0.302199 0.818289
0.076648 0.421155 0.818289
0.207904 0.421155 0.818289
0.331769 0.421155 0.818289
0.451638 0.421155 0.818289
0.568766 0.421155 0.818289
0.683818 0.421155 0.818289
0.797203 0.421155 0.818289
0.909196 0.421155 0.818289
1.000000 0.421155 0.818289
0.076648 0.538707 0.818289
0.207904 0.538707 0.818289
0.331769 0.538707 0.818289
0.451638 0.538707 0.818289
0.568766 0.538707 0.818289
0.683818 0.538707 0.818289
0.797203 0.538707 0.818289
0.909196 0.538707 0.818289
1.000000 0.538707 0.818289
0.076648 0.655192 0.818289
0.207904 0.655192 0.818289
0.331769 0.655192 0.818289
0.451638 0.655192 0.818289
0.568766 0.655192 0.818289
0.683818 0.655192 0.818289
0.797203 0.655192 0.818289
0.909196 0.655192 0.818289
1.000000 0.655192 0.818289
0.076648 0.770815 0.818289
0.207904 0.770815 0.818289
0.331769 0.770815 0.818289
0.451638 0.770815 0.818289
0.568766 0.770815 0.818289
0.683818 0.770815 0.818289
0.797203 0.770815 0.818289
0.909196 0.770815 0.818289
1.000000 0.770815 0.818289
0.076648 0.885717 0.818289
0.207904 0.885717 0.818289
0.331769 0.885717 0.818289
0.451638 0.885717 0.818289
0.568766 0.885717 0.818289
0.683818 0.885717 0.818289
0.797203 0.885717 0.818289
0.909196 0.885717 0.818289
1.000000 0.885717 0.818289
0.076648 1.000000 0.818289
0.207904 1.000000 0.818289
0.331769 1.000000 0.818289
0.451638 1.000000 0.818289
0.568766 1.000000 0.818289
0.683818 1.000000 0.818289
0.797203 1.000000 0.818289
0.909196 1.000000 0.818289
1.000000 1.000000 0.818289
0.076648 0.056365 0.930060
0.207904 0.056365 0.930060
0.331769 0.056365 0.930060
0.451638 0.056365 0.930060
0.568766 0.056365 0.930060
0.683818 0.056365 0.930060
0.797203 0.056365 0.930060
0.909196 0.056365 0.930060
1.000000 0.056365 0.930060
0.076648 0.181198 0.930060
0.207904 0.181198 0.930060
0.331769 0.181198 0.930060
0.451638 0.181198 0.930060
0.568766 0.181198 0.930060
0.683818 0.181198 0.930060
0.797203 0.181198 0.930060
0.909196 0.181198 0.930060
1.000000 0.181198 0.930060
0.076648 0.302199 0.930060
0.207904 0.302199 0.930060
0.331769 0.302199 0.930060
0.451638 0.302199 0.930060
0.568766 0.302199 0.930060
0.683818 0.302199 0.930060
0.797203 0.302199 0.930060
0.909196 0.302199 0.930060
1.000000 0.302199 0.930060
0.076648 0.421155 0.930060
0.207904 0.421155 0.930060
0.331769 0.421155 0.930060
0.451638 0.421155 0.930060
0.568766 0.421155 0.930060
0.683818 0.421155 0.930060
0.797203 0.421155 0.930060
0.909196 0.421155 0.930060
1.000000 0.421155 0.930060
0.076648 0.538707 0.930060
0.207904 0.538707 0.930060
0.331769 0.538707 0.930060
0.451638 0.538707 0.930060
0.568766 0.538707 0.930060
0.683818 0.538707 0.930060
0.797203 0.538707 0.930060
0.909196 0.538707 0.930060
1.000000 0.538707 0.930060
0.076648 0.655192 0.930060
0.207904 0.655192 0.930060
0.331769 0.655192 0.930060
0.451638 0.655192 0.930060
0.568766 0.655192 0.930060
0.683818 0.655192 0.930060
0.797203 0.655192 0.930060
0.909196 0.655192 0.930060
1.000000 0.655192 0.930060
0.076648 0.770815 0.930060
0.207904 0.770815 0.930060
0.331769 0.770815 0.930060
0.451638 0.770815 0.930060
0.568766 0.770815 0.930060
0.683818 0.770815 0.930060
0.797203 0.770815 0.930060
0.909196 0.770815 0.930060
1.000000 0.770815 0.930060
0.076648 0.885717 0.930060
0.207904 0.885717 0.930060
0.331769 0.885717 0.930060
0.451638 0.885717 0.930060
0.568766 0.885717 0.930060
0.683818 0.885717 0.930060
0.797203 0.885717 0.930060
0.909196 0.885717 0.930060
1.000000 0.885717 0.930060
0.076648 1.000000 0.930060
0.207904 1.000000 0.930060
0.331769 1.000000 0.930060
0.451638 1.000000 0.930060
0.568766 1.000000 0.930060
0.683818 1.000000 0.930060
0.797203 1.000000 0.930060
0.909196 1.000000 0.930060
1.000000 1.000000 0.930060
