Server/IGTracker/data/luts/Vintage_Film.cube
# Cube LUT created for IGTracker
TITLE "Vintage Film"
LUT_3D_SIZE 5
0.076648 0.056365 0.066984
0.331769 0.056365 0.066984
0.568766 0.056365 0.066984
0.797203 0.056365 0.066984
1.000000 0.056365 0.066984
0.076648 0.302199 0.066984
0.331769 0.302199 0.066984
0.568766 0.302199 0.066984
0.797203 0.302199 0.066984
1.000000 0.302199 0.066984
0.076648 0.538707 0.066984
0.331769 0.538707 0.066984
0.568766 0.538707 0.066984
0.797203 0.538707 0.066984
1.000000 0.538707 0.066984
0.076648 0.770815 0.066984
0.331769 0.770815 0.066984
0.568766 0.770815 0.066984
0.797203 0.770815 0.066984
1.000000 0.770815 0.066984
0.076648 1.000000 0.066984
0.331769 1.000000 0.066984
0.568766 1.000000 0.066984
0.797203 1.000000 0.066984
1.000000 1.000000 0.066984
0.076648 0.056365 0.273048
0.331769 0.056365 0.273048
0.568766 0.056365 0.273048
0.797203 0.056365 0.273048
1.000000 0.056365 0.273048
0.076648 0.302199 0.273048
0.331769 0.302199 0.273048
0.568766 0.302199 0.273048
0.797203 0.302199 0.273048
1.000000 0.302199 0.273048
0.076648 0.538707 0.273048
0.331769 0.538707 0.273048
0.568766 0.538707 0.273048
0.797203 0.538707 0.273048
1.000000 0.538707 0.273048
0.076648 0.770815 0.273048
0.331769 0.770815 0.273048
0.568766 0.770815 0.273048
0.797203 0.770815 0.273048
1.000000 0.770815 0.273048
0.076648 1.000000 0.273048
0.331769 1.000000 0.273048
0.568766 1.000000 0.273048
0.797203 1.000000 0.273048
1.000000 1.000000 0.273048
0.076648 0.056365 0.487768
0.331769 0.056365 0.487768
0.568766 0.056365 0.487768
0.797203 0.056365 0.487768
1.000000 0.056365 0.487768
0.076648 0.302199 0.487768
0.331769 0.302199 0.487768
0.568766 0.302199 0.487768
0.797203 0.302199 0.487768
1.000000 0.302199 0.487768
0.076648 0.538707 0.487768
0.331769 0.538707 0.487768
0.568766 0.538707 0.487768
0.797203 0.538707 0.487768
1.000000 0.538707 0.487768
0.076648 0.770815 0.487768
0.331769 0.770815 0.487768
0.568766 0.770815 0.487768
0.797203 0.770815 0.487768
1.000000 0.770815 0.487768
0.076648 1.000000 0.487768
0.331769 1.000000 0.487768
0.568766 1.000000 0.487768
0.797203 1.000000 0.487768
1.000000 1.000000 0.487768
0.076648 0.056365 0.707242
0.331769 0.056365 0.707242
0.568766 0.056365 0.707242
0.797203 0.056365 0.707242
1.000000 0.056365 0.707242
0.076648 0.302199 0.707242
0.331769 0.302199 0.707242
0.568766 0.302199 0.707242
0.797203 0.302199 0.707242
1.000000 0.302199 0.707242
0.076648 0.538707 0.707242
0.331769 0.538707 0.707242
0.568766 0.538707 0.707242
0.797203 0.538707 0.707242
1.000000 0.538707 0.707242
0.076648 0.770815 0.707242
0.331769 0.770815 0.707242
0.568766 0.770815 0.707242
0.797203 0.770815 0.707242
1.000000 0.770815 0.707242
0.076648 1.000000 0.707242
0.331769 1.000000 0.707242
0.568766 1.000000 0.707242
0.797203 1.000000 0.707242
1.000000 1.000000 0.707242
0.076648 0.056365 0.930060
0.331769 0.056365 0.930060
0.568766 0.056365 0.930060
0.797203 0.056365 0.930060
1.000000 0.056365 0.930060
0.076648 0.302199 0.930060
0.331769 0.302199 0.930060
0.568766 0.302199 0.930060
0.797203 0.302199 0.930060
1.000000 0.302199 0.930060
0.076648 0.538707 0.930060
0.331769 0.538707 0.930060
0.568766 0.538707 0.930060
0.797203 0.538707 0.930060
1.000000 0.538707 0.930060
0.076648 0.770815 0.930060
0.331769 0.770815 0.930060
0.568766 0.770815 0.930060
0.797203 0.770815 0.930060
1.000000 0.770815 0.930060
0.076648 1.000000 0.930060
0.331769 1.000000 0.930060
0.568766 1.000000 0.930060
0.797203 1.000000 0.930060
1.000000 1.000000 0.930060
