Server/IGTracker/desktop_spoofer/luts/Anti_AI_Filmic.cube
# Anti-AI Filmic Procedural 3D LUT
TITLE "Anti-AI Filmic"
LUT_3D_SIZE 33
0.013009 0.014445 0.017317
0.024242 0.019632 0.023676
0.038669 0.023961 0.029128
0.056292 0.027431 0.033673
0.077109 0.030044 0.037310
0.101122 0.031798 0.040041
0.128329 0.032694 0.041865
0.158731 0.032732 0.042781
0.192329 0.031912 0.042790
0.229121 0.030233 0.041892
0.269109 0.027697 0.040088
0.312291 0.024302 0.037375
0.358669 0.020049 0.033756
0.408015 0.015000 0.029282
0.438984 0.015000 0.028908
0.469952 0.015000 0.028534
0.500920 0.015000 0.028160
0.531888 0.015000 0.027786
0.562857 0.015000 0.027412
0.593825 0.015000 0.027038
0.624793 0.015000 0.026664
0.655761 0.015000 0.026290
0.686730 0.015000 0.025916
0.717698 0.015000 0.025542
0.748666 0.015000 0.025168
0.779634 0.015000 0.024794
0.810602 0.015000 0.024420
0.841571 0.015000 0.024046
0.872539 0.015000 0.023672
0.903507 0.015000 0.023298
0.934475 0.015000 0.022924
0.965444 0.015000 0.022550
0.996412 0.015000 0.022177
0.022075 0.034234 0.032005
0.040376 0.044190 0.038409
0.058775 0.047646 0.040810
0.080370 0.050244 0.042303
0.105159 0.051984 0.042889
0.133143 0.052866 0.042568
0.164322 0.052889 0.041340
0.198696 0.052054 0.039205
0.236266 0.050362 0.036163
0.277030 0.047811 0.032213
0.315740 0.045781 0.029145
0.346708 0.045781 0.028771
0.377676 0.045781 0.028397
0.408644 0.045781 0.028024
0.439613 0.045781 0.027650
0.470581 0.045781 0.027276
0.501549 0.045781 0.026902
0.532517 0.045781 0.026528
0.563486 0.045781 0.026154
0.594454 0.045781 0.025780
0.625422 0.045781 0.025406
0.656390 0.045781 0.025032
0.687358 0.045781 0.024658
0.718327 0.045781 0.024284
0.749295 0.045781 0.023910
0.780263 0.045781 0.023536
0.811231 0.045781 0.023162
0.842200 0.045781 0.022788
0.873168 0.045781 0.022414
0.904136 0.045781 0.022040
0.935104 0.045781 0.021666
0.966073 0.045781 0.021292
0.997041 0.045781 0.020919
0.023870 0.057001 0.038593
0.045383 0.066388 0.041185
0.069446 0.075172 0.042226
0.095012 0.076898 0.040668
0.123773 0.077765 0.038203
0.155729 0.077774 0.034830
0.190881 0.076925 0.030550
0.223464 0.076563 0.029009
0.254432 0.076563 0.028635
0.285401 0.076563 0.028261
0.316369 0.076563 0.027887
0.347337 0.076563 0.027513
0.378305 0.076563 0.027140
0.409273 0.076563 0.026766
0.440242 0.076563 0.026392
0.471210 0.076563 0.026018
0.502178 0.076563 0.025644
0.533146 0.076563 0.025270
0.564115 0.076563 0.024896
0.595083 0.076563 0.024522
0.626051 0.076563 0.024148
0.657019 0.076563 0.023774
0.687987 0.076563 0.023400
0.718956 0.076563 0.023026
0.749924 0.076563 0.022652
0.780892 0.076563 0.022278
0.811860 0.076563 0.021904
0.842829 0.076563 0.021530
0.873797 0.076563 0.021156
0.904765 0.076563 0.020782
0.935733 0.076563 0.020408
0.966702 0.076563 0.020034
0.997670 0.076563 0.019661
0.018396 0.082748 0.037079
0.043119 0.091564 0.035859
0.070394 0.099779 0.033088
0.100220 0.107344 0.029247
0.131188 0.107344 0.028873
0.162157 0.107344 0.028499
0.193125 0.107344 0.028125
0.224093 0.107344 0.027751
0.255061 0.107344 0.027377
0.286030 0.107344 0.027003
0.316998 0.107344 0.026629
0.347966 0.107344 0.026255
0.378934 0.107344 0.025882
0.409902 0.107344 0.025508
0.440871 0.107344 0.025134
0.471839 0.107344 0.024760
0.502807 0.107344 0.024386
0.533775 0.107344 0.024012
0.564744 0.107344 0.023638
0.595712 0.107344 0.023264
0.626680 0.107344 0.022890
0.657648 0.107344 0.022516
0.688616 0.107344 0.022142
0.719585 0.107344 0.021768
0.750553 0.107344 0.021394
0.781521 0.107344 0.021020
0.812489 0.107344 0.020646
0.843458 0.107344 0.020272
0.874426 0.107344 0.019898
0.905394 0.107344 0.019524
0.936362 0.107344 0.019150
0.967330 0.107344 0.018777
0.998299 0.107344 0.018403
0.007945 0.110625 0.029111
0.038913 0.117500 0.028737
0.069881 0.124375 0.028363
0.100849 0.131250 0.027989
0.131817 0.138125 0.027615
0.162786 0.138125 0.027241
0.193754 0.138125 0.026867
0.224722 0.138125 0.026493
0.255690 0.138125 0.026119
0.286659 0.138125 0.025745
0.317627 0.138125 0.025371
0.348595 0.138125 0.024997
0.379563 0.138125 0.024624
0.410531 0.138125 0.024250
0.441500 0.138125 0.023876
0.472468 0.138125 0.023502
0.503436 0.138125 0.023128
0.534404 0.138125 0.022754
0.565373 0.138125 0.022380
0.596341 0.138125 0.022006
0.627309 0.138125 0.021632
0.658277 0.138125 0.021258
0.689245 0.138125 0.020884
0.720214 0.138125 0.020510
0.751182 0.138125 0.020136
0.782150 0.138125 0.019762
0.813118 0.138125 0.019388
0.844087 0.138125 0.019014
0.875055 0.138125 0.018640
0.906023 0.138125 0.018266
0.936991 0.138125 0.017892
0.967959 0.138125 0.017519
0.998928 0.138125 0.017145
0.008574 0.134531 0.027853
0.039542 0.141406 0.027479
0.070510 0.148281 0.027105
0.101478 0.155156 0.026731
0.132446 0.162031 0.026357
0.163415 0.168906 0.025983
0.194383 0.168906 0.025609
0.225351 0.168906 0.025235
0.256319 0.168906 0.024861
0.287288 0.168906 0.024487
0.318256 0.168906 0.024113
0.349224 0.168906 0.023739
0.380192 0.168906 0.023366
0.411160 0.168906 0.022992
0.442129 0.168906 0.022618
0.473097 0.168906 0.022244
0.504065 0.168906 0.021870
0.535033 0.168906 0.021496
0.566002 0.168906 0.021122
0.596970 0.168906 0.020748
0.627938 0.168906 0.020374
0.658906 0.168906 0.020000
0.689874 0.168906 0.019626
0.720843 0.168906 0.019252
0.751811 0.168906 0.018878
0.782779 0.168906 0.018504
0.813747 0.168906 0.018130
0.844716 0.168906 0.017756
0.875684 0.168906 0.017382
0.906652 0.168906 0.017008
0.937620 0.168906 0.016634
0.968588 0.168906 0.016261
0.999557 0.168906 0.015887
0.009203 0.158438 0.026595
0.040171 0.165313 0.026221
0.071139 0.172188 0.025847
0.102107 0.179063 0.025473
0.133075 0.185938 0.025099
0.164044 0.192813 0.024725
0.195012 0.199688 0.024351
0.225980 0.199688 0.023977
0.256948 0.199688 0.023603
0.287917 0.199688 0.023229
0.318885 0.199688 0.022855
0.349853 0.199688 0.022482
0.380821 0.199688 0.022108
0.411789 0.199688 0.021734
0.442758 0.199688 0.021360
0.473726 0.199688 0.020986
0.504694 0.199688 0.020612
0.535662 0.199688 0.020238
0.566631 0.199688 0.019864
0.597599 0.199688 0.019490
0.628567 0.199688 0.019116
0.659535 0.199688 0.018742
0.690503 0.199688 0.018368
0.721472 0.199688 0.017994
0.752440 0.199688 0.017620
0.783408 0.199688 0.017246
0.814376 0.199688 0.016872
0.845345 0.199688 0.016498
0.876313 0.199688 0.016124
0.907281 0.199688 0.015750
0.938249 0.199688 0.015376
0.969217 0.199688 0.015003
1.000000 0.202224 0.009927
0.009832 0.182344 0.025337
0.040800 0.189219 0.024963
0.071768 0.196094 0.024589
0.102736 0.202969 0.024215
0.133704 0.209844 0.023841
0.164673 0.216719 0.023467
0.195641 0.223594 0.023093
0.226609 0.230469 0.022719
0.257577 0.230469 0.022345
0.288546 0.230469 0.021971
0.319514 0.230469 0.021597
0.350482 0.230469 0.021224
0.381450 0.230469 0.020850
0.412418 0.230469 0.020476
0.443387 0.230469 0.020102
0.474355 0.230469 0.019728
0.505323 0.230469 0.019354
0.536291 0.230469 0.018980
0.567260 0.230469 0.018606
0.598228 0.230469 0.018232
0.629196 0.230469 0.017858
0.660164 0.230469 0.017484
0.691132 0.230469 0.017110
0.722101 0.230469 0.016736
0.753069 0.230469 0.016362
0.784037 0.230469 0.015988
0.815005 0.230469 0.015614
0.845974 0.230469 0.015240
0.886308 0.232827 0.010283
0.918206 0.233106 0.009725
0.950081 0.233380 0.009178
0.981932 0.233647 0.008643
1.000000 0.233908 0.008122
0.010461 0.206250 0.024079
0.041429 0.213125 0.023705
0.072397 0.220000 0.023331
0.103365 0.226875 0.022957
0.134333 0.233750 0.022583
0.165302 0.240625 0.022209
0.196270 0.247500 0.021835
0.227238 0.254375 0.021461
0.258206 0.261250 0.021087
0.289175 0.261250 0.020713
0.320143 0.261250 0.020339
0.351111 0.261250 0.019966
0.382079 0.261250 0.019592
0.413047 0.261250 0.019218
0.444016 0.261250 0.018844
0.474984 0.261250 0.018470
0.505952 0.261250 0.018096
0.536920 0.261250 0.017722
0.567889 0.261250 0.017348
0.598857 0.261250 0.016974
0.629825 0.261250 0.016600
0.660793 0.261250 0.016226
0.691761 0.261250 0.015852
0.722730 0.261250 0.015478
0.753698 0.261250 0.015104
0.794373 0.263710 0.010079
0.826263 0.263988 0.009525
0.858130 0.264259 0.008982
0.889972 0.264524 0.008452
0.921786 0.264782 0.007935
0.953571 0.265033 0.007433
0.985324 0.265276 0.006947
1.000000 0.265511 0.006478
0.011090 0.230156 0.022821
0.042058 0.237031 0.022447
0.073026 0.243906 0.022073
0.103994 0.250781 0.021699
0.134962 0.257656 0.021325
0.165931 0.264531 0.020951
0.196899 0.271406 0.020577
0.227867 0.278281 0.020203
0.258835 0.285156 0.019829
0.289804 0.292031 0.019455
0.320772 0.292031 0.019082
0.351740 0.292031 0.018708
0.382708 0.292031 0.018334
0.413676 0.292031 0.017960
0.444645 0.292031 0.017586
0.475613 0.292031 0.017212
0.506581 0.292031 0.016838
0.537549 0.292031 0.016464
0.568518 0.292031 0.016090
0.599486 0.292031 0.015716
0.630454 0.292031 0.015342
0.670532 0.294313 0.010437
0.702435 0.294593 0.009876
0.734317 0.294868 0.009326
0.766175 0.295138 0.008787
0.798007 0.295400 0.008262
0.829811 0.295656 0.007751
0.861585 0.295904 0.007254
0.893326 0.296144 0.006774
0.925033 0.296376 0.006311
0.956704 0.296598 0.005867
0.988337 0.296811 0.005441
1.000000 0.297014 0.005035
0.011718 0.254062 0.021563
0.042687 0.260937 0.021189
0.073655 0.267813 0.020815
0.104623 0.274687 0.020441
0.135591 0.281562 0.020067
0.166560 0.288438 0.019693
0.197528 0.295312 0.019319
0.228496 0.302187 0.018945
0.259464 0.309063 0.018571
0.290433 0.315937 0.018197
0.321401 0.322813 0.017824
0.352369 0.322813 0.017450
0.383337 0.322813 0.017076
0.414305 0.322813 0.016702
0.445274 0.322813 0.016328
0.476242 0.322813 0.015954
0.507210 0.322813 0.015580
0.538178 0.322813 0.015206
0.578599 0.325197 0.010232
0.610495 0.325475 0.009674
0.642368 0.325748 0.009128
0.674217 0.326015 0.008595
0.706039 0.326275 0.008074
0.737832 0.326528 0.007568
0.769595 0.326774 0.007078
0.801324 0.327011 0.006604
0.833018 0.327239 0.006147
0.864675 0.327458 0.005709
0.896293 0.327667 0.005291
0.927871 0.327866 0.004893
0.959407 0.328055 0.004515
0.990899 0.328232 0.004160
1.000000 0.328399 0.003827
0.012347 0.277969 0.020305
0.043316 0.284844 0.019931
0.074284 0.291719 0.019557
0.105252 0.298594 0.019183
0.136220 0.305469 0.018809
0.167189 0.312344 0.018435
0.198157 0.319219 0.018061
0.229125 0.326094 0.017687
0.260093 0.332969 0.017313
0.291062 0.339844 0.016939
0.322030 0.346719 0.016566
0.352998 0.353594 0.016192
0.383966 0.353594 0.015818
0.414934 0.353594 0.015444
0.445903 0.353594 0.015070
0.486664 0.356080 0.010028
0.518551 0.356357 0.009474
0.550416 0.356627 0.008933
0.582255 0.356892 0.008404
0.614067 0.357150 0.007888
0.645849 0.357400 0.007388
0.677600 0.357642 0.006903
0.709316 0.357876 0.006436
0.740997 0.358101 0.005986
0.772640 0.358316 0.005555
0.804244 0.358522 0.005143
0.835807 0.358717 0.004753
0.867327 0.358902 0.004383
0.898802 0.359076 0.004036
0.930232 0.359238 0.003712
0.961615 0.359388 0.003411
0.992949 0.359526 0.003135
1.000000 0.359652 0.002883
0.012976 0.301875 0.019047
0.043945 0.308750 0.018673
0.074913 0.315625 0.018299
0.105881 0.322500 0.017925
0.136849 0.329375 0.017551
0.167818 0.336250 0.017177
0.198786 0.343125 0.016803
0.229754 0.350000 0.016429
0.260722 0.356875 0.016055
0.291691 0.363750 0.015681
0.322659 0.370625 0.015308
0.362824 0.379808 0.010385
0.394725 0.386963 0.009825
0.426605 0.387237 0.009276
0.458461 0.387506 0.008738
0.490290 0.387768 0.008214
0.522091 0.388023 0.007704
0.553862 0.388270 0.007209
0.585601 0.388510 0.006731
0.617304 0.388740 0.006270
0.648972 0.388962 0.005827
0.680601 0.389174 0.005403
0.712190 0.389376 0.004999
0.743737 0.389567 0.004616
0.775241 0.389748 0.004254
0.806700 0.389917 0.003916
0.838113 0.390075 0.003600
0.869478 0.390221 0.003308
0.900795 0.390355 0.003040
0.932061 0.390476 0.002798
0.963277 0.390585 0.002580
0.994440 0.390680 0.002389
1.000000 0.390763 0.002224
0.013605 0.325781 0.017789
0.044574 0.332656 0.017415
0.075542 0.339531 0.017041
0.106510 0.346406 0.016667
0.137478 0.353281 0.016293
0.168447 0.360156 0.015919
0.199415 0.367031 0.015545
0.230383 0.373906 0.015171
0.270890 0.383191 0.010180
0.302784 0.390344 0.009624
0.334655 0.397492 0.009079
0.366502 0.404633 0.008546
0.398321 0.411768 0.008027
0.430112 0.418895 0.007522
0.461871 0.419140 0.007033
0.493597 0.419376 0.006561
0.525288 0.419603 0.006106
0.556941 0.419821 0.005670
0.588556 0.420030 0.005253
0.620130 0.420228 0.004857
0.651662 0.420415 0.004482
0.683149 0.420592 0.004128
0.714592 0.420757 0.003798
0.745987 0.420911 0.003491
0.777335 0.421053 0.003207
0.808633 0.421182 0.002949
0.839881 0.421298 0.002716
0.871078 0.421402 0.002508
0.902223 0.421493 0.002326
0.933315 0.421571 0.002171
0.964353 0.421635 0.002042
0.995337 0.421686 0.001941
1.000000 0.421723 0.001867
0.014234 0.349687 0.016531
0.045203 0.356563 0.016157
0.076171 0.363437 0.015783
0.107139 0.370312 0.015409
0.138107 0.377188 0.015035
0.178954 0.386574 0.009976
0.210840 0.393726 0.009424
0.242702 0.400871 0.008883
0.274539 0.408010 0.008355
0.306348 0.415142 0.007841
0.338128 0.422266 0.007342
0.369875 0.429383 0.006859
0.401588 0.436491 0.006393
0.433266 0.443590 0.005945
0.464905 0.450679 0.005516
0.496506 0.450884 0.005107
0.528064 0.451079 0.004718
0.559580 0.451262 0.004351
0.591052 0.451435 0.004005
0.622477 0.451596 0.003683
0.653855 0.451745 0.003385
0.685185 0.451882 0.003110
0.716465 0.452007 0.002861
0.747695 0.452119 0.002637
0.778873 0.452218 0.002439
0.809998 0.452304 0.002266
0.841071 0.452377 0.002121
0.872089 0.452436 0.002002
0.903054 0.452482 0.001911
0.933963 0.452514 0.001846
0.964818 0.452533 0.001810
0.995618 0.452537 0.001800
1.000000 0.452528 0.001819
0.014863 0.373594 0.015273
0.055116 0.382802 0.010333
0.087015 0.389957 0.009774
0.118892 0.397106 0.009226
0.150746 0.404249 0.008690
0.182573 0.411385 0.008167
0.214372 0.418515 0.007658
0.246139 0.425636 0.007165
0.277875 0.432750 0.006688
0.309575 0.439855 0.006228
0.341239 0.446950 0.005787
0.372865 0.454036 0.005365
0.404450 0.461112 0.004963
0.435993 0.468178 0.004582
0.467493 0.475233 0.004222
0.498948 0.482276 0.003885
0.530356 0.482433 0.003572
0.561717 0.482578 0.003282
0.593029 0.482710 0.003017
0.624291 0.482831 0.002776
0.655502 0.482938 0.002562
0.686661 0.483032 0.002373
0.717767 0.483114 0.002210
0.748820 0.483181 0.002075
0.779819 0.483236 0.001966
0.810763 0.483277 0.001884
0.841653 0.483304 0.001830
0.872488 0.483317 0.001803
0.903267 0.483317 0.001804
0.933992 0.483303 0.001832
0.964662 0.483275 0.001888
0.995277 0.483233 0.001971
1.000000 0.483178 0.002081
0.026942 0.400485 0.009029
0.058786 0.407626 0.008498
0.090603 0.414760 0.007980
0.122391 0.421887 0.007477
0.154147 0.429005 0.006989
0.185870 0.436116 0.006518
0.217557 0.443217 0.006065
0.249207 0.450310 0.005631
0.280818 0.457392 0.005216
0.312388 0.464464 0.004821
0.343916 0.471526 0.004448
0.375400 0.478576 0.004097
0.406838 0.485616 0.003769
0.438229 0.492643 0.003464
0.469572 0.499659 0.003183
0.500866 0.506662 0.002926
0.532109 0.513652 0.002695
0.563301 0.513755 0.002490
0.594441 0.513845 0.002311
0.625528 0.513921 0.002158
0.656561 0.513984 0.002032
0.687541 0.514034 0.001933
0.718465 0.514069 0.001861
0.749335 0.514092 0.001817
0.780150 0.514100 0.001800
0.810909 0.514095 0.001811
0.841614 0.514075 0.001849
0.872264 0.514042 0.001915
0.902859 0.513996 0.002008
0.933400 0.513936 0.002128
0.963887 0.513862 0.002275
0.994321 0.513776 0.002449
1.000000 0.513676 0.002649
0.030406 0.425258 0.007297
0.062150 0.432373 0.006816
0.093860 0.439481 0.006351
0.125534 0.446579 0.005905
0.157170 0.453668 0.005477
0.188767 0.460746 0.005070
0.220321 0.467815 0.004683
0.251833 0.474872 0.004318
0.283300 0.481919 0.003975
0.314722 0.488954 0.003655
0.346096 0.495977 0.003358
0.377421 0.502988 0.003086
0.408696 0.509987 0.002839
0.439921 0.516972 0.002618
0.471094 0.523945 0.002422
0.502215 0.530905 0.002252
0.533282 0.537852 0.002109
0.564296 0.544785 0.001993
0.595255 0.544829 0.001904
0.626160 0.544860 0.001842
0.657010 0.544877 0.001808
0.687804 0.544881 0.001801
0.718544 0.544870 0.001822
0.749229 0.544846 0.001870
0.779858 0.544808 0.001946
0.810434 0.544757 0.002049
0.840955 0.544692 0.002179
0.871423 0.544613 0.002336
0.901838 0.544522 0.002519
0.932200 0.544417 0.002728
0.962512 0.544300 0.002963
0.992773 0.544170 0.003223
1.000000 0.544028 0.003507
0.033506 0.449939 0.005747
0.065128 0.457024 0.005327
0.096709 0.464099 0.004927
0.128249 0.471164 0.004548
0.159744 0.478217 0.004190
0.191195 0.485260 0.003856
0.222599 0.492290 0.003544
0.253956 0.499309 0.003257
0.285263 0.506316 0.002994
0.316520 0.513310 0.002756
0.347726 0.520291 0.002543
0.378880 0.527259 0.002357
0.409982 0.534214 0.002197
0.441030 0.541156 0.002063
0.472023 0.548084 0.001957
0.502963 0.554999 0.001878
0.533848 0.561899 0.001826
0.564677 0.568787 0.001802
0.595452 0.575660 0.001805
0.626171 0.575644 0.001836
0.656836 0.575615 0.001894
0.687446 0.575572 0.001980
0.718002 0.575516 0.002093
0.748503 0.575446 0.002233
0.778952 0.575363 0.002399
0.809347 0.575267 0.002592
0.839691 0.575157 0.002811
0.869985 0.575035 0.003055
0.900228 0.574901 0.003324
0.930422 0.574754 0.003617
0.960570 0.574596 0.003934
0.990670 0.574425 0.004274
1.000000 0.574244 0.004637
0.036170 0.474511 0.004415
0.067650 0.481561 0.004066
0.099084 0.488599 0.003739
0.130470 0.495625 0.003437
0.161809 0.502640 0.003158
0.193098 0.509642 0.002904
0.224337 0.516631 0.002675
0.255524 0.523608 0.002472
0.286659 0.530571 0.002295
0.317741 0.537521 0.002145
0.348769 0.544458 0.002022
0.379744 0.551381 0.001925
0.410663 0.558291 0.001856
0.441528 0.565187 0.001814
0.472337 0.572069 0.001800
0.503092 0.578937 0.001813
0.533792 0.585792 0.001854
0.564436 0.592632 0.001923
0.595026 0.599460 0.002018
0.625562 0.606273 0.002141
0.656044 0.606199 0.002290
0.686474 0.606111 0.002466
0.716850 0.606009 0.002669
0.747176 0.605896 0.002896
0.777451 0.605769 0.003150
0.807676 0.605630 0.003428
0.837853 0.605479 0.003730
0.867983 0.605316 0.004055
0.898068 0.605142 0.004404
0.928108 0.604957 0.004774
0.958105 0.604761 0.005166
0.988062 0.604555 0.005578
1.000000 0.604338 0.006011
0.038335 0.498959 0.003332
0.069656 0.505969 0.003063
0.100927 0.512966 0.002818
0.132147 0.519951 0.002598
0.163315 0.526923 0.002405
0.194431 0.533881 0.002238
0.225494 0.540827 0.002097
0.256502 0.547758 0.001983
0.287457 0.554677 0.001897
0.318356 0.561581 0.001838
0.349201 0.568472 0.001806
0.379990 0.575349 0.001802
0.410725 0.582212 0.001825
0.441404 0.589062 0.001876
0.472029 0.595898 0.001954
0.502599 0.602720 0.002060
0.533116 0.609529 0.002192
0.563579 0.616324 0.002351
0.593989 0.623107 0.002537
0.624347 0.629876 0.002749
0.654654 0.636632 0.002986
0.684910 0.636501 0.003248
0.715118 0.636358 0.003535
0.745278 0.636202 0.003845
0.775391 0.636035 0.004179
0.805459 0.635857 0.004536
0.835484 0.635668 0.004914
0.865466 0.635468 0.005314
0.895408 0.635258 0.005734
0.925311 0.635039 0.006173
0.955178 0.634810 0.006630
0.985009 0.634573 0.007105
1.000000 0.634327 0.007596
0.039950 0.523269 0.002525
0.071100 0.530236 0.002341
0.102196 0.537190 0.002183
0.133239 0.544130 0.002052
0.164228 0.551057 0.001949
0.195162 0.557970 0.001872
0.226042 0.564870 0.001823
0.256866 0.571756 0.001801
0.287636 0.578628 0.001807
0.318350 0.585486 0.001840
0.349010 0.592331 0.001901
0.379615 0.599162 0.001989
0.410166 0.605979 0.002105
0.440662 0.612783 0.002247
0.471106 0.619573 0.002416
0.501497 0.626351 0.002611
0.531836 0.633115 0.002832
0.562125 0.639867 0.003078
0.592363 0.646606 0.003350
0.622553 0.653334 0.003645
0.652696 0.660049 0.003964
0.682793 0.666753 0.004307
0.712845 0.666571 0.004671
0.742854 0.666378 0.005057
0.772821 0.666174 0.005464
0.802749 0.665961 0.005891
0.832639 0.665738 0.006337
0.862492 0.665506 0.006801
0.892311 0.665265 0.007282
0.922098 0.665017 0.007779
0.951855 0.664761 0.008291
0.981584 0.664498 0.008817
1.000000 0.664228 0.009356
0.040977 0.547432 0.002011
0.071946 0.554354 0.001918
0.102861 0.561262 0.001851
0.133720 0.568157 0.001812
0.164525 0.575037 0.001800
0.195274 0.581905 0.001816
0.225969 0.588758 0.001859
0.256608 0.595597 0.001930
0.287193 0.602423 0.002028
0.317724 0.609236 0.002153
0.348202 0.616035 0.002305
0.378626 0.622821 0.002484
0.408998 0.629593 0.002688
0.439319 0.636353 0.002919
0.469589 0.643100 0.003174
0.499810 0.649835 0.003454
0.529983 0.656558 0.003759
0.560108 0.663269 0.004086
0.590189 0.669969 0.004437
0.620225 0.676658 0.004809
0.650219 0.683336 0.005203
0.680171 0.690004 0.005617
0.710085 0.696662 0.006051
0.739961 0.696436 0.006504
0.769802 0.696200 0.006974
0.799609 0.695957 0.007461
0.829385 0.695706 0.007964
0.859131 0.695447 0.008481
0.888851 0.695181 0.009012
0.918545 0.694910 0.009556
0.948216 0.694632 0.010111
0.977868 0.694350 0.010676
1.000000 0.694063 0.011250
0.041391 0.571442 0.001804
0.072176 0.578317 0.001803
0.102905 0.585179 0.001829
0.133580 0.592028 0.001882
0.164200 0.598862 0.001963
0.194765 0.605683 0.002071
0.225276 0.612491 0.002206
0.255734 0.619285 0.002367
0.286139 0.626066 0.002555
0.316493 0.632834 0.002769
0.346795 0.639589 0.003009
0.377047 0.646332 0.003273
0.407250 0.653063 0.003562
0.437406 0.659781 0.003875
0.467515 0.666488 0.004211
0.497579 0.673184 0.004570
0.527599 0.679869 0.004950
0.557578 0.686543 0.005352
0.587516 0.693207 0.005773
0.617416 0.699862 0.006214
0.647279 0.706507 0.006673
0.677107 0.713144 0.007149
0.706903 0.719773 0.007642
0.736668 0.726394 0.008150
0.766404 0.726132 0.008673
0.796114 0.725864 0.009209
0.825800 0.725591 0.009756
0.855463 0.725311 0.010315
0.885108 0.725027 0.010884
0.914735 0.724738 0.011461
0.944347 0.724446 0.012045
0.973947 0.724151 0.012636
1.000000 0.723853 0.013231
0.041184 0.595296 0.001908
0.071783 0.602126 0.001999
0.102329 0.608942 0.002117
0.132821 0.615744 0.002261
0.163260 0.622534 0.002433
0.193646 0.629310 0.002630
0.223980 0.636073 0.002854
0.254264 0.642824 0.003102
0.284498 0.649562 0.003376
0.314684 0.656288 0.003674
0.344823 0.663003 0.003995
0.374915 0.669705 0.004339
0.404963 0.676397 0.004706
0.434968 0.683078 0.005094
0.464932 0.689749 0.005503
0.494856 0.696409 0.005931
0.524742 0.703061 0.006379
0.554592 0.709703 0.006845
0.584408 0.716336 0.007327
0.614193 0.722962 0.007826
0.643947 0.729580 0.008339
0.673673 0.736192 0.008867
0.703374 0.742797 0.009407
0.733051 0.749396 0.009959
0.762708 0.755989 0.010521
0.792346 0.755704 0.011093
0.821967 0.755414 0.011673
0.851575 0.755120 0.012260
0.881171 0.754824 0.012852
0.910758 0.754525 0.013449
0.940338 0.754225 0.014050
0.969915 0.753924 0.014652
0.999996 0.753745 0.014994
0.040358 0.618996 0.002321
0.070778 0.625780 0.002502
0.101145 0.632552 0.002709
0.131461 0.639311 0.002941
0.161727 0.646057 0.003199
0.191943 0.652791 0.003481
0.222112 0.659512 0.003788
0.252233 0.666222 0.004118
0.282309 0.672921 0.004470
0.312342 0.679609 0.004845
0.342331 0.686286 0.005241
0.372280 0.692953 0.005657
0.402190 0.699610 0.006092
0.432063 0.706258 0.006546
0.461901 0.712897 0.007018
0.491705 0.719528 0.007507
0.521478 0.726151 0.008011
0.551222 0.732766 0.008530
0.580939 0.739375 0.009062
0.610631 0.745978 0.009606
0.640301 0.752575 0.010162
0.669950 0.759167 0.010728
0.699581 0.765755 0.011303
0.729197 0.772338 0.011886
0.758801 0.778919 0.012475
0.788393 0.785497 0.013069
0.817978 0.785198 0.013667
0.847557 0.784897 0.014269
0.877132 0.784596 0.014871
0.907643 0.784514 0.014978
0.938368 0.784444 0.014886
0.969048 0.784318 0.014723
0.999686 0.784138 0.014489
0.038936 0.642546 0.003032
0.069183 0.649288 0.003299
0.099382 0.656017 0.003590
0.129533 0.662735 0.003905
0.159638 0.669441 0.004244
0.189698 0.676135 0.004604
0.219714 0.682819 0.004987
0.249689 0.689493 0.005390
0.279624 0.696156 0.005813
0.309520 0.702810 0.006256
0.339380 0.709454 0.006716
0.369205 0.716090 0.007194
0.398998 0.722718 0.007689
0.428760 0.729338 0.008198
0.458494 0.735952 0.008722
0.488201 0.742558 0.009259
0.517885 0.749159 0.009808
0.547547 0.755754 0.010367
0.577189 0.762344 0.010937
0.606815 0.768930 0.011514
0.636426 0.775513 0.012099
0.666025 0.782092 0.012691
0.695614 0.788669 0.013287
0.725197 0.795244 0.013886
0.754774 0.801819 0.014488
0.784531 0.808437 0.014999
0.815283 0.815276 0.014953
0.845992 0.815186 0.014835
