Server/IGTracker/desktop_spoofer/luts/Anti_AI_Filmic.cube
# Anti-AI Filmic Procedural 3D LUT
TITLE "Anti-AI Filmic"
LUT_3D_SIZE 9
0.013009 0.014445 0.017317
0.077109 0.030044 0.037310
0.192329 0.031912 0.042790
0.358669 0.020049 0.033756
0.500920 0.015000 0.028160
0.624793 0.015000 0.026664
0.748666 0.015000 0.025168
0.872539 0.015000 0.023672
0.996412 0.015000 0.022177
0.007945 0.110625 0.029111
0.131817 0.138125 0.027615
0.255690 0.138125 0.026119
0.379563 0.138125 0.024624
0.503436 0.138125 0.023128
0.627309 0.138125 0.021632
0.751182 0.138125 0.020136
0.875055 0.138125 0.018640
0.998928 0.138125 0.017145
0.010461 0.206250 0.024079
0.134333 0.233750 0.022583
0.258206 0.261250 0.021087
0.382079 0.261250 0.019592
0.505952 0.261250 0.018096
0.629825 0.261250 0.016600
0.753698 0.261250 0.015104
0.889972 0.264524 0.008452
1.000000 0.265511 0.006478
0.012976 0.301875 0.019047
0.136849 0.329375 0.017551
0.260722 0.356875 0.016055
0.394725 0.386963 0.009825
0.522091 0.388023 0.007704
0.648972 0.388962 0.005827
0.775241 0.389748 0.004254
0.900795 0.390355 0.003040
1.000000 0.390763 0.002224
0.026942 0.400485 0.009029
0.154147 0.429005 0.006989
0.280818 0.457392 0.005216
0.406838 0.485616 0.003769
0.532109 0.513652 0.002695
0.656561 0.513984 0.002032
0.780150 0.514100 0.001800
0.902859 0.513996 0.002008
1.000000 0.513676 0.002649
0.038335 0.498959 0.003332
0.163315 0.526923 0.002405
0.287457 0.554677 0.001897
0.410725 0.582212 0.001825
0.533116 0.609529 0.002192
0.654654 0.636632 0.002986
0.775391 0.636035 0.004179
0.895408 0.635258 0.005734
1.000000 0.634327 0.007596
0.041184 0.595296 0.001908
0.163260 0.622534 0.002433
0.284498 0.649562 0.003376
0.404963 0.676397 0.004706
0.524742 0.703061 0.006379
0.643947 0.729580 0.008339
0.762708 0.755989 0.010521
0.881171 0.754824 0.012852
0.999996 0.753745 0.014994
0.034444 0.689236 0.005278
0.154000 0.715844 0.007063
0.273027 0.742319 0.009111
0.391662 0.768697 0.011356
0.510054 0.795014 0.013723
0.630548 0.821778 0.014874
0.752992 0.848428 0.013769
0.874735 0.874200 0.011523
0.995777 0.871596 0.008137
0.020584 0.781396 0.012208
0.138927 0.807700 0.014599
0.261006 0.834695 0.014604
0.383195 0.861025 0.013083
0.504683 0.886479 0.010422
0.625469 0.911055 0.006621
0.745553 0.934754 0.001680
0.864969 0.956731 0.003867
0.976056 0.972374 0.081426
0.019056 0.021282 0.055148
0.089571 0.032218 0.102443
0.211206 0.029423 0.135223
0.377301 0.015000 0.152273
0.501174 0.015000 0.150777
0.625047 0.015000 0.149281
0.748920 0.015000 0.147785
0.872793 0.015000 0.146289
0.996666 0.015000 0.144794
0.008199 0.138125 0.151728
0.132071 0.138125 0.150232
0.255944 0.138125 0.148736
0.379817 0.138125 0.147241
0.503690 0.138125 0.145745
0.627563 0.138125 0.144249
0.751436 0.138125 0.142753
0.875309 0.138125 0.141257
0.999182 0.138125 0.139762
0.010715 0.233750 0.146696
0.134587 0.233750 0.145200
0.258460 0.261250 0.143704
0.382333 0.261250 0.142209
0.506206 0.261250 0.140713
0.630079 0.261250 0.139217
0.763992 0.263810 0.133004
0.891368 0.264873 0.130878
1.000000 0.265815 0.128994
0.013230 0.329375 0.141664
0.137103 0.329375 0.140168
0.260976 0.356875 0.138672
0.396212 0.387334 0.132207
0.523428 0.388357 0.130161
0.650114 0.389247 0.128381
0.776151 0.389975 0.126925
0.901441 0.390517 0.125842
1.000000 0.390854 0.125168
0.028379 0.428345 0.131435
0.155417 0.429323 0.129479
0.281880 0.457657 0.127810
0.407655 0.485820 0.126485
0.532655 0.513789 0.125548
0.656817 0.514048 0.125029
0.780107 0.514089 0.124947
0.902519 0.513911 0.125303
1.000000 0.513519 0.126086
0.039056 0.526639 0.126097
0.163757 0.527033 0.125309
0.287604 0.554713 0.124948
0.410573 0.582175 0.125026
0.532670 0.609418 0.125540
0.653929 0.636451 0.126473
0.774412 0.635790 0.127794
0.894206 0.634958 0.129459
1.000000 0.633981 0.131413
0.040924 0.622731 0.125163
0.162710 0.622396 0.125832
0.283678 0.649357 0.126911
0.403898 0.676131 0.128363
0.523469 0.702742 0.130141
0.642508 0.729221 0.132184
0.761150 0.755600 0.134425
0.879547 0.754418 0.136789
0.999930 0.753663 0.138012
0.033299 0.716450 0.128976
0.152661 0.715509 0.130857
0.271539 0.741947 0.132981
0.390074 0.768300 0.135275
0.508420 0.794605 0.137665
0.630395 0.821588 0.137752
0.752602 0.847939 0.136259
0.874106 0.873414 0.133626
0.994909 0.870512 0.129853
0.018973 0.808493 0.136139
0.138114 0.807487 0.138108
0.260767 0.834396 0.137340
0.382718 0.860429 0.135432
0.503967 0.885584 0.132384
0.624515 0.909862 0.128196
0.744361 0.933263 0.122867
0.863994 0.952531 0.147211
0.973186 0.969270 0.215464
0.023565 0.026536 0.113197
0.100495 0.032809 0.187792
0.228546 0.025350 0.247873
0.377555 0.015000 0.274890
0.501428 0.015000 0.273394
0.625301 0.015000 0.271898
0.749174 0.015000 0.270402
0.873047 0.015000 0.268906
0.996920 0.015000 0.267411
0.008453 0.138125 0.274345
0.132325 0.138125 0.272849
0.256198 0.138125 0.271353
0.380071 0.138125 0.269858
0.503944 0.138125 0.268362
0.627817 0.138125 0.266866
0.751690 0.138125 0.265370
0.875563 0.138125 0.263874
0.999436 0.138125 0.262379
0.010968 0.261250 0.269313
0.134841 0.261250 0.267817
0.258714 0.261250 0.266321
0.382587 0.261250 0.264826
0.506460 0.261250 0.263330
0.630333 0.261250 0.261834
0.765481 0.264183 0.255384
0.892709 0.265208 0.253333
1.000000 0.266102 0.251545
0.013484 0.356875 0.264281
0.137357 0.356875 0.262785
0.261230 0.356875 0.261289
0.397652 0.387694 0.254611
0.524703 0.388676 0.252648
0.651181 0.389514 0.250972
0.776974 0.390181 0.249638
0.901994 0.390655 0.248691
1.000000 0.390919 0.248162
0.029765 0.456191 0.253867
0.156621 0.457124 0.252002
0.282862 0.457903 0.250444
0.408382 0.486002 0.249246
0.533103 0.513901 0.248448
0.656972 0.514087 0.248077
0.779963 0.514053 0.248144
0.902081 0.513801 0.248647
1.000000 0.513340 0.249570
0.039684 0.554296 0.248908
0.164100 0.554619 0.248263
0.287650 0.554725 0.248050
0.410321 0.582111 0.248277
0.532128 0.609282 0.248936
0.653115 0.636247 0.250005
0.773353 0.635526 0.251449
0.892938 0.634641 0.253219
1.000000 0.633622 0.255256
0.040564 0.650141 0.248468
0.162066 0.649735 0.249279
0.282771 0.649130 0.250490
0.402759 0.675846 0.252058
0.522134 0.702409 0.253933
0.641023 0.728849 0.256051
0.759564 0.755204 0.258343
0.877913 0.754009 0.260731
0.999784 0.753480 0.260899
0.032083 0.743646 0.252708
0.151266 0.742660 0.254679
0.270011 0.741565 0.256869
0.388465 0.767897 0.259205
0.507492 0.794365 0.261237
0.630162 0.821296 0.260497
0.752130 0.847350 0.258617
0.873396 0.872527 0.255597
0.993961 0.869326 0.251437
0.017347 0.835587 0.260077
0.138033 0.834885 0.261100
0.260447 0.833996 0.259945
0.382160 0.859731 0.257650
0.503171 0.884588 0.254215
0.623480 0.908569 0.249639
0.743087 0.931672 0.243923
0.863471 0.948786 0.283353
0.970763 0.966621 0.342309
0.026535 0.030206 0.191462
0.109881 0.031815 0.293358
0.244346 0.019694 0.380740
0.377809 0.015000 0.397507
0.501682 0.015000 0.396011
0.625555 0.015000 0.394515
0.749428 0.015000 0.393019
0.873301 0.015000 0.391523
0.997174 0.015000 0.390028
0.008707 0.138125 0.396962
0.132579 0.138125 0.395466
0.256452 0.138125 0.393970
0.380325 0.138125 0.392475
0.504198 0.138125 0.390979
0.628071 0.138125 0.389483
0.751944 0.138125 0.387987
0.875817 0.138125 0.386491
0.999690 0.138125 0.384996
0.011222 0.261250 0.391930
0.135095 0.261250 0.390434
0.258968 0.261250 0.388938
0.382841 0.261250 0.387443
0.506714 0.261250 0.385947
0.630587 0.261250 0.384451
0.766925 0.264544 0.377787
0.893988 0.265528 0.375818
1.000000 0.266370 0.374134
0.013738 0.384375 0.386898
0.137611 0.384375 0.385402
0.271684 0.386983 0.379158
0.399042 0.388042 0.377041
0.525912 0.388978 0.375169
0.652169 0.389761 0.373603
0.777708 0.390364 0.372396
0.902449 0.390769 0.371588
1.000000 0.390960 0.371206
0.031094 0.484023 0.376328
0.157754 0.484907 0.374560
0.283760 0.485628 0.373120
0.409017 0.486161 0.372054
0.533453 0.513988 0.371398
0.657025 0.514100 0.371175
0.779718 0.513992 0.371391
0.901545 0.513668 0.372040
1.000000 0.513138 0.373099
0.040217 0.581929 0.371766
0.164342 0.582179 0.371266
0.287594 0.582211 0.371203
0.409969 0.582023 0.371578
0.531491 0.609123 0.372380
0.652214 0.636022 0.373580
0.772218 0.635242 0.375141
0.891607 0.634308 0.377009
1.000000 0.633251 0.379122
0.040107 0.677527 0.371822
0.161330 0.677051 0.372772
0.281781 0.676383 0.374109
0.401548 0.675543 0.375788
0.520743 0.702061 0.377753
0.639497 0.728468 0.379939
0.757956 0.754802 0.382272
0.876870 0.753743 0.384366
0.999556 0.753196 0.383654
0.030802 0.770826 0.376474
0.149821 0.769799 0.378527
0.268450 0.768675 0.380775
0.386839 0.767491 0.383143
0.507416 0.794270 0.384239
0.629848 0.820903 0.383112
0.751577 0.846659 0.380845
0.872606 0.871538 0.377437
0.992932 0.868040 0.372890
0.015711 0.862678 0.384019
0.137870 0.862181 0.383961
0.260046 0.860995 0.382418
0.381520 0.858932 0.379736
0.502293 0.883491 0.375914
0.622364 0.907174 0.370951
0.742936 0.929074 0.370271
0.863397 0.945496 0.412296
0.968783 0.964427 0.461963
0.027967 0.032292 0.289944
0.117727 0.029239 0.419140
0.254190 0.015000 0.521619
0.378063 0.015000 0.520124
0.501936 0.015000 0.518628
0.625809 0.015000 0.517132
0.749682 0.015000 0.515636
0.873555 0.015000 0.514140
0.997428 0.015000 0.512645
0.008960 0.138125 0.519579
0.132833 0.138125 0.518083
0.256706 0.138125 0.516587
0.380579 0.138125 0.515092
0.504452 0.138125 0.513596
0.628325 0.138125 0.512100
0.752198 0.138125 0.510604
0.876071 0.138125 0.509108
0.999944 0.138125 0.507613
0.011476 0.261250 0.514547
0.135349 0.261250 0.513051
0.259222 0.261250 0.511555
0.383095 0.261250 0.510060
0.506968 0.261250 0.508564
0.640950 0.263831 0.502337
0.768319 0.264892 0.500216
0.895202 0.265832 0.498336
1.000000 0.266619 0.496762
0.013992 0.384375 0.509515
0.137865 0.384375 0.508019
0.273168 0.387354 0.501541
0.400375 0.388375 0.499500
0.527050 0.389262 0.497725
0.653074 0.389987 0.496276
0.778350 0.390525 0.495200
0.902806 0.390858 0.494534
1.000000 0.390975 0.494300
0.032361 0.511840 0.498820
0.158811 0.512672 0.497157
0.284573 0.513331 0.495839
0.409557 0.513796 0.494909
0.533703 0.514051 0.494398
0.656977 0.514088 0.494324
0.779372 0.513906 0.494689
0.900915 0.513510 0.495480
1.000000 0.512914 0.496672
0.040653 0.609538 0.494673
0.164484 0.609715 0.494320
0.287437 0.609672 0.494406
0.409518 0.609411 0.494929
0.530761 0.608940 0.495869
0.651230 0.635776 0.497197
0.771013 0.634941 0.498869
0.890220 0.633961 0.500827
1.000000 0.632871 0.503008
0.039552 0.704888 0.495224
0.160505 0.704345 0.496310
0.280712 0.703616 0.497769
0.400272 0.702724 0.499552
0.519301 0.701700 0.501599
0.637938 0.728078 0.503843
0.756332 0.754395 0.506209
0.876799 0.753656 0.507377
0.999248 0.752810 0.506278
0.029460 0.797990 0.500270
0.148330 0.796926 0.502397
0.266861 0.795778 0.504695
0.385204 0.794582 0.507085
0.507259 0.794074 0.507109
0.629453 0.820409 0.505595
0.750944 0.845868 0.502940
0.871734 0.870449 0.499146
0.991822 0.866653 0.494211
0.014987 0.889984 0.507479
0.137626 0.889377 0.506690
0.259564 0.887893 0.504760
0.380800 0.885531 0.501691
0.501335 0.882293 0.497481
0.621167 0.905678 0.492131
0.745206 0.925143 0.501323
0.863771 0.942660 0.534043
0.967246 0.962688 0.574431
0.027860 0.032795 0.408643
0.124036 0.025079 0.565140
0.254444 0.015000 0.644236
0.378317 0.015000 0.642741
0.502190 0.015000 0.641245
0.626063 0.015000 0.639749
0.749936 0.015000 0.638253
0.873809 0.015000 0.636757
0.997682 0.015000 0.635262
0.009214 0.138125 0.642196
0.133087 0.138125 0.640700
0.256960 0.138125 0.639204
0.380833 0.138125 0.637709
0.504706 0.138125 0.636213
0.628579 0.138125 0.634717
0.752452 0.138125 0.633221
0.876325 0.138125 0.631725
1.000000 0.140679 0.625517
0.011730 0.261250 0.637164
0.135603 0.261250 0.635668
0.259476 0.261250 0.634172
0.383349 0.261250 0.632677
0.507222 0.261250 0.631181
0.642437 0.264203 0.624719
0.769656 0.265227 0.622672
0.896345 0.266118 0.620890
1.000000 0.266847 0.619432
0.014246 0.384375 0.632132
0.138119 0.384375 0.630636
0.274606 0.387714 0.623947
0.401647 0.388693 0.621989
0.528113 0.389528 0.620319
0.653892 0.390192 0.618991
0.778897 0.390662 0.618052
0.903064 0.390922 0.617531
1.000000 0.390965 0.617446
0.033561 0.512140 0.621345
0.159789 0.512916 0.619793
0.285295 0.513511 0.618603
0.410000 0.513906 0.617812
0.533852 0.514088 0.617449
0.656827 0.514050 0.617524
0.778929 0.513795 0.618036
0.900192 0.513329 0.618967
1.000000 0.512670 0.620286
0.040991 0.637123 0.617630
0.164524 0.637225 0.617425
0.287179 0.637107 0.617660
0.408970 0.636774 0.618327
0.529942 0.636236 0.619404
0.650167 0.635510 0.620854
0.769741 0.634623 0.622630
0.888782 0.633602 0.624672
1.000000 0.632482 0.626912
0.038903 0.732226 0.618674
0.159593 0.731617 0.619891
0.279568 0.730830 0.621466
0.398934 0.729890 0.623346
0.517814 0.728829 0.625468
0.636351 0.727681 0.627762
0.754697 0.753987 0.630151
0.876648 0.753467 0.630257
0.998859 0.752323 0.628770
0.028062 0.825141 0.624094
0.146801 0.824044 0.626287
0.265250 0.822875 0.628625
0.384365 0.821863 0.630609
0.507022 0.821277 0.629848
0.628976 0.819814 0.627946
0.750230 0.844975 0.624904
0.870781 0.869258 0.620723
0.990631 0.865164 0.615401
0.014901 0.917376 0.630464
0.137302 0.916471 0.629287
0.259001 0.914689 0.626971
0.379999 0.912030 0.623514
0.500295 0.908494 0.618917
0.619890 0.904081 0.613180
0.747927 0.921667 0.625174
0.864591 0.940280 0.648597
0.966151 0.961405 0.679715
0.026215 0.031714 0.547558
0.128806 0.019335 0.731356
0.254698 0.015000 0.766853
0.378571 0.015000 0.765358
0.502444 0.015000 0.763862
0.626317 0.015000 0.762366
0.750190 0.015000 0.760870
0.874063 0.015000 0.759374
0.997936 0.015000 0.757879
0.009468 0.138125 0.764813
0.133341 0.138125 0.763317
0.257214 0.138125 0.761821
0.381087 0.138125 0.760326
0.504960 0.138125 0.758830
0.628833 0.138125 0.757334
0.752706 0.138125 0.755838
0.876579 0.138125 0.754342
1.000000 0.141052 0.747897
0.011984 0.261250 0.759781
0.135857 0.261250 0.758285
0.259730 0.261250 0.756790
0.383603 0.261250 0.755294
0.507476 0.261250 0.753798
0.643879 0.264563 0.747123
0.770932 0.265546 0.745159
0.897414 0.266385 0.743481
1.000000 0.267053 0.742144
0.014500 0.384375 0.754749
0.148642 0.387004 0.748491
0.275992 0.388061 0.746379
0.402852 0.388994 0.744512
0.529096 0.389774 0.742952
0.654621 0.390374 0.741752
0.779347 0.390774 0.740952
0.903220 0.390961 0.740578
1.000000 0.390929 0.740642
0.034690 0.512422 0.743905
0.160683 0.513139 0.742471
0.285925 0.513669 0.741413
0.410345 0.513992 0.740765
0.533900 0.514100 0.740550
0.656576 0.513988 0.740775
0.778388 0.513659 0.741431
0.899379 0.513126 0.742498
1.000000 0.512405 0.743940
0.041228 0.637182 0.740636
0.164463 0.637210 0.740581
0.286821 0.637018 0.740964
0.408328 0.636613 0.741774
0.529037 0.636009 0.742982
0.649028 0.635226 0.744548
0.768407 0.634289 0.746422
0.887298 0.633231 0.748539
1.000000 0.632085 0.750829
0.038162 0.759540 0.742169
0.158599 0.758868 0.743513
0.278354 0.758026 0.745198
0.397540 0.757041 0.747168
0.516287 0.755947 0.749357
0.634741 0.754779 0.751692
0.753743 0.753741 0.753738
0.876416 0.753177 0.753005
0.998388 0.751736 0.751131
0.026614 0.852279 0.747943
0.145237 0.851153 0.750194
0.263624 0.849968 0.752563
0.384285 0.849262 0.753603
0.506703 0.848379 0.752455
0.628419 0.846618 0.750166
0.749434 0.843981 0.746737
0.869748 0.867966 0.742168
0.989359 0.863574 0.736459
0.014734 0.944667 0.753317
0.136896 0.943464 0.751753
0.258358 0.941384 0.749050
0.379117 0.938427 0.745206
0.499175 0.934594 0.740222
0.621516 0.928845 0.735589
0.751097 0.918646 0.741826
0.865855 0.938355 0.755961
0.965494 0.960578 0.777818
0.023031 0.029050 0.706691
0.131079 0.015000 0.890966
0.254952 0.015000 0.889470
0.378825 0.015000 0.887975
0.502698 0.015000 0.886479
0.626571 0.015000 0.884983
0.750444 0.015000 0.883487
0.874317 0.015000 0.881991
0.998190 0.015000 0.880496
0.009722 0.138125 0.887430
0.133595 0.138125 0.885934
0.257468 0.138125 0.884438
0.381341 0.138125 0.882943
0.505214 0.138125 0.881447
0.629087 0.138125 0.879951
0.752960 0.138125 0.878455
0.876833 0.138125 0.876960
1.000000 0.141413 0.870299
0.012238 0.261250 0.882398
0.136111 0.261250 0.880902
0.259984 0.261250 0.879407
0.383857 0.261250 0.877911
0.517909 0.263852 0.871671
0.645269 0.264911 0.869553
0.772142 0.265848 0.867679
0.898403 0.266632 0.866111
1.000000 0.267237 0.864902
0.014754 0.384375 0.877366
0.150124 0.387375 0.870876
0.277322 0.388393 0.868839
0.403986 0.389278 0.867070
0.529996 0.389999 0.865627
0.655257 0.390533 0.864559
0.779698 0.390862 0.863901
0.903275 0.390975 0.863675
1.000000 0.390868 0.863889
0.035742 0.512686 0.866504
0.161490 0.513341 0.865193
0.286459 0.513802 0.864270
0.410589 0.514054 0.863768
0.533846 0.514086 0.863702
0.656225 0.513900 0.864075
0.777752 0.513501 0.864874
0.898480 0.512901 0.866073
1.000000 0.512122 0.867631
0.041364 0.637216 0.863693
0.164300 0.637169 0.863787
0.286365 0.636904 0.864318
0.407593 0.636430 0.865266
0.528048 0.635762 0.866601
0.647819 0.634923 0.868278
0.767017 0.633942 0.870242
0.885773 0.632850 0.872426
1.000000 0.631683 0.874759
0.037332 0.759333 0.865709
0.157526 0.758600 0.867175
0.277074 0.757706 0.868963
0.396095 0.756680 0.871015
0.514726 0.755556 0.873262
0.633116 0.754373 0.875629
0.753668 0.753648 0.876742
0.876104 0.752786 0.875621
0.997837 0.751047 0.873361
0.025122 0.879405 0.871814
0.143647 0.878255 0.874114
0.261988 0.877060 0.876506
0.384123 0.876560 0.876466
0.506303 0.875379 0.874930
0.627782 0.873321 0.872254
0.748558 0.870385 0.868438
0.868633 0.866573 0.863482
0.986942 0.862166 0.857717
0.014486 0.971857 0.876039
0.136410 0.970356 0.874088
0.257633 0.967979 0.870997
0.378154 0.964724 0.866766
0.497974 0.960592 0.861395
0.628508 0.952094 0.855828
0.757382 0.942516 0.853950
0.867562 0.936885 0.856139
0.965275 0.960207 0.868742
0.018309 0.024802 0.886040
0.131333 0.015000 1.000000
0.255206 0.015000 1.000000
0.379079 0.015000 1.000000
0.502952 0.015000 1.000000
0.626825 0.015000 1.000000
0.750698 0.015000 1.000000
0.874571 0.015000 1.000000
0.998444 0.015000 1.000000
0.009976 0.138125 1.000000
0.133849 0.138125 1.000000
0.257722 0.138125 1.000000
0.381595 0.138125 1.000000
0.505468 0.138125 1.000000
0.629341 0.138125 1.000000
0.753214 0.138125 1.000000
0.887175 0.140700 0.994850
1.000000 0.141762 0.992727
0.012492 0.261250 1.000000
0.136365 0.261250 1.000000
0.260238 0.261250 1.000000
0.384111 0.261250 1.000000
0.519393 0.264223 0.994053
0.646604 0.265245 0.992011
0.773282 0.266133 0.990234
0.899309 0.266859 0.988783
1.000000 0.267397 0.987705
0.024080 0.386645 0.995460
0.151559 0.387733 0.993283
0.278590 0.388710 0.991330
0.405044 0.389542 0.989665
0.530810 0.390202 0.988345
0.655799 0.390669 0.987413
0.779950 0.390925 0.986900
0.903228 0.390963 0.986823
1.000000 0.390782 0.987186
0.036715 0.512929 0.989142
0.162207 0.513521 0.987959
0.286897 0.513912 0.987177
0.410733 0.514089 0.986821
0.533690 0.514048 0.986905
0.655776 0.513788 0.987424
0.777024 0.513319 0.988363
0.897497 0.512656 0.989689
1.000000 0.511821 0.991358
0.041399 0.637225 0.986801
0.164037 0.637103 0.987044
0.285812 0.636766 0.987719
0.406769 0.636224 0.988803
0.526981 0.635495 0.990260
0.646543 0.634605 0.992041
0.765576 0.633581 0.994087
0.884214 0.632460 0.996330
1.000000 0.631277 0.998696
0.036415 0.759104 0.989292
0.156378 0.758313 0.990874
0.275733 0.757371 0.992759
0.394605 0.756308 0.994885
0.513137 0.755159 0.997181
0.631481 0.753964 0.999572
0.753513 0.753453 0.999614
0.875710 0.752293 0.998107
0.997205 0.750257 0.995458
0.023590 0.879022 0.995705
0.142035 0.877853 0.998045
0.261238 0.876860 0.999980
0.383881 0.876258 0.999197
0.505823 0.874778 0.997274
0.627063 0.872422 0.994211
0.747601 0.869189 0.990008
0.867438 0.865078 0.984665
0.982767 0.861571 0.974726
0.014156 0.998946 0.998629
0.135843 0.997147 0.996291
0.256827 0.994472 0.992813
0.377110 0.990919 0.988195
0.496691 0.986489 0.982436
0.637174 0.975311 0.970090
0.765337 0.966355 0.960106
0.874791 0.961347 0.954214
0.965492 0.960292 0.952492
