Server/IGTracker/desktop_spoofer/luts/Anti_AI_Filmic.cube
# Anti-AI Filmic Procedural 3D LUT
TITLE "Anti-AI Filmic"
LUT_3D_SIZE 5
0.013009 0.014445 0.017317
0.192329 0.031912 0.042790
0.500920 0.015000 0.028160
0.748666 0.015000 0.025168
0.996412 0.015000 0.022177
0.010461 0.206250 0.024079
0.258206 0.261250 0.021087
0.505952 0.261250 0.018096
0.753698 0.261250 0.015104
1.000000 0.265511 0.006478
0.026942 0.400485 0.009029
0.280818 0.457392 0.005216
0.532109 0.513652 0.002695
0.780150 0.514100 0.001800
1.000000 0.513676 0.002649
0.041184 0.595296 0.001908
0.284498 0.649562 0.003376
0.524742 0.703061 0.006379
0.762708 0.755989 0.010521
0.999996 0.753745 0.014994
0.020584 0.781396 0.012208
0.261006 0.834695 0.014604
0.504683 0.886479 0.010422
0.745553 0.934754 0.001680
0.976056 0.972374 0.081426
0.023565 0.026536 0.113197
0.228546 0.025350 0.247873
0.501428 0.015000 0.273394
0.749174 0.015000 0.270402
0.996920 0.015000 0.267411
0.010968 0.261250 0.269313
0.258714 0.261250 0.266321
0.506460 0.261250 0.263330
0.765481 0.264183 0.255384
1.000000 0.266102 0.251545
0.029765 0.456191 0.253867
0.282862 0.457903 0.250444
0.533103 0.513901 0.248448
0.779963 0.514053 0.248144
1.000000 0.513340 0.249570
0.040564 0.650141 0.248468
0.282771 0.649130 0.250490
0.522134 0.702409 0.253933
0.759564 0.755204 0.258343
0.999784 0.753480 0.260899
0.017347 0.835587 0.260077
0.260447 0.833996 0.259945
0.503171 0.884588 0.254215
0.743087 0.931672 0.243923
0.970763 0.966621 0.342309
0.027967 0.032292 0.289944
0.254190 0.015000 0.521619
0.501936 0.015000 0.518628
0.749682 0.015000 0.515636
0.997428 0.015000 0.512645
0.011476 0.261250 0.514547
0.259222 0.261250 0.511555
0.506968 0.261250 0.508564
0.768319 0.264892 0.500216
1.000000 0.266619 0.496762
0.032361 0.511840 0.498820
0.284573 0.513331 0.495839
0.533703 0.514051 0.494398
0.779372 0.513906 0.494689
1.000000 0.512914 0.496672
0.039552 0.704888 0.495224
0.280712 0.703616 0.497769
0.519301 0.701700 0.501599
0.756332 0.754395 0.506209
0.999248 0.752810 0.506278
0.014987 0.889984 0.507479
0.259564 0.887893 0.504760
0.501335 0.882293 0.497481
0.745206 0.925143 0.501323
0.967246 0.962688 0.574431
0.026215 0.031714 0.547558
0.254698 0.015000 0.766853
0.502444 0.015000 0.763862
0.750190 0.015000 0.760870
0.997936 0.015000 0.757879
0.011984 0.261250 0.759781
0.259730 0.261250 0.756790
0.507476 0.261250 0.753798
0.770932 0.265546 0.745159
1.000000 0.267053 0.742144
0.034690 0.512422 0.743905
0.285925 0.513669 0.741413
0.533900 0.514100 0.740550
0.778388 0.513659 0.741431
1.000000 0.512405 0.743940
0.038162 0.759540 0.742169
0.278354 0.758026 0.745198
0.516287 0.755947 0.749357
0.753743 0.753741 0.753738
0.998388 0.751736 0.751131
0.014734 0.944667 0.753317
0.258358 0.941384 0.749050
0.499175 0.934594 0.740222
0.751097 0.918646 0.741826
0.965494 0.960578 0.777818
0.018309 0.024802 0.886040
0.255206 0.015000 1.000000
0.502952 0.015000 1.000000
0.750698 0.015000 1.000000
0.998444 0.015000 1.000000
0.012492 0.261250 1.000000
0.260238 0.261250 1.000000
0.519393 0.264223 0.994053
0.773282 0.266133 0.990234
1.000000 0.267397 0.987705
0.036715 0.512929 0.989142
0.286897 0.513912 0.987177
0.533690 0.514048 0.986905
0.777024 0.513319 0.988363
1.000000 0.511821 0.991358
0.036415 0.759104 0.989292
0.275733 0.757371 0.992759
0.513137 0.755159 0.997181
0.753513 0.753453 0.999614
0.997205 0.750257 0.995458
0.014156 0.998946 0.998629
0.256827 0.994472 0.992813
0.496691 0.986489 0.982436
0.765337 0.966355 0.960106
0.965492 0.960292 0.952492
