Server/IGTracker/desktop_spoofer/luts/Cinematic_Warm.cube
# Cube LUT created for IGTracker
TITLE "Cinematic Warm"
LUT_3D_SIZE 5
0.000000 0.000000 0.040000
0.162230 0.001495 0.033273
0.511960 0.002990 0.026545
0.861690 0.004485 0.019817
1.000000 0.005980 0.013090
0.011740 0.159185 0.026793
0.173970 0.160680 0.020065
0.523700 0.162175 0.013338
0.873430 0.163670 0.006610
1.000000 0.165165 0.000000
0.023480 0.505870 0.013585
0.185710 0.507365 0.006858
0.535440 0.508860 0.000130
0.885170 0.510355 0.000000
1.000000 0.511850 0.000000
0.035220 0.852555 0.000377
0.197450 0.854050 0.000000
0.547180 0.855545 0.000000
0.896910 0.857040 0.000000
1.000000 0.858535 0.000000
0.046960 1.000000 0.000000
0.209190 1.000000 0.000000
0.558920 1.000000 0.000000
0.908650 1.000000 0.000000
1.000000 1.000000 0.000000
0.002280 0.000570 0.193685
0.164510 0.002065 0.186957
0.514240 0.003560 0.180230
0.863970 0.005055 0.173503
1.000000 0.006550 0.166775
0.014020 0.159755 0.180477
0.176250 0.161250 0.173750
0.525980 0.162745 0.167022
0.875710 0.164240 0.160295
1.000000 0.165735 0.153567
0.025760 0.506440 0.167270
0.187990 0.507935 0.160543
0.537720 0.509430 0.153815
0.887450 0.510925 0.147088
1.000000 0.512420 0.140360
0.037500 0.853125 0.154062
0.199730 0.854620 0.147335
0.549460 0.856115 0.140607
0.899190 0.857610 0.133880
1.000000 0.859105 0.127153
0.049240 1.000000 0.140855
0.211470 1.000000 0.134128
0.561200 1.000000 0.127400
0.910930 1.000000 0.120672
1.000000 1.000000 0.113945
0.004560 0.001140 0.534870
0.166790 0.002635 0.528142
0.516520 0.004130 0.521415
0.866250 0.005625 0.514688
1.000000 0.007120 0.507960
0.016300 0.160325 0.521663
0.178530 0.161820 0.514935
0.528260 0.163315 0.508207
0.877990 0.164810 0.501480
1.000000 0.166305 0.494753
0.028040 0.507010 0.508455
0.190270 0.508505 0.501727
0.540000 0.510000 0.495000
0.889730 0.511495 0.488273
1.000000 0.512990 0.481545
0.039780 0.853695 0.495248
0.202010 0.855190 0.488520
0.551740 0.856685 0.481792
0.901470 0.858180 0.475065
1.000000 0.859675 0.468337
0.051520 1.000000 0.482040
0.213750 1.000000 0.475312
0.563480 1.000000 0.468585
0.913210 1.000000 0.461857
1.000000 1.000000 0.455130
0.006840 0.001710 0.876055
0.169070 0.003205 0.869328
0.518800 0.004700 0.862600
0.868530 0.006195 0.855873
1.000000 0.007690 0.849145
0.018580 0.160895 0.862847
0.180810 0.162390 0.856120
0.530540 0.163885 0.849392
0.880270 0.165380 0.842665
1.000000 0.166875 0.835938
0.030320 0.507580 0.849640
0.192550 0.509075 0.842913
0.542280 0.510570 0.836185
0.892010 0.512065 0.829458
1.000000 0.513560 0.822730
0.042060 0.854265 0.836433
0.204290 0.855760 0.829705
0.554020 0.857255 0.822977
0.903750 0.858750 0.816250
1.000000 0.860245 0.809522
0.053800 1.000000 0.823225
0.216030 1.000000 0.816497
0.565760 1.000000 0.809770
0.915490 1.000000 0.803042
1.000000 1.000000 0.796315
0.009120 0.002280 1.000000
0.171350 0.003775 1.000000
0.521080 0.005270 1.000000
0.870810 0.006765 1.000000
1.000000 0.008260 1.000000
0.020860 0.161465 1.000000
0.183090 0.162960 1.000000
0.532820 0.164455 1.000000
0.882550 0.165950 0.996350
1.000000 0.167445 0.989622
0.032600 0.508150 1.000000
0.194830 0.509645 0.996598
0.544560 0.511140 0.989870
0.894290 0.512635 0.983143
1.000000 0.514130 0.976415
0.044340 0.854835 0.990117
0.206570 0.856330 0.983390
0.556300 0.857825 0.976662
0.906030 0.859320 0.969935
1.000000 0.860815 0.963207
0.056080 1.000000 0.976910
0.218310 1.000000 0.970183
0.568040 1.000000 0.963455
0.917770 1.000000 0.956728
1.000000 1.000000 0.950000
