Server/IGTracker/desktop_spoofer/luts/Cinematic_Warm.cube
# Cube LUT created for IGTracker
TITLE "Cinematic Warm"
LUT_3D_SIZE 17
0.000000 0.000000 0.040000
0.012725 0.000374 0.038318
0.045959 0.000748 0.036636
0.096770 0.001121 0.034954
0.162230 0.001495 0.033273
0.239409 0.001869 0.031591
0.325376 0.002243 0.029909
0.417203 0.002616 0.028227
0.511960 0.002990 0.026545
0.606717 0.003364 0.024863
0.698544 0.003737 0.023181
0.784511 0.004111 0.021499
0.861690 0.004485 0.019817
0.927150 0.004859 0.018136
0.977961 0.005233 0.016454
1.000000 0.005606 0.014772
1.000000 0.005980 0.013090
0.002935 0.011964 0.036698
0.015660 0.012338 0.035016
0.048894 0.012712 0.033334
0.099705 0.013085 0.031653
0.165165 0.013459 0.029971
0.242344 0.013833 0.028289
0.328311 0.014207 0.026607
0.420138 0.014580 0.024925
0.514895 0.014954 0.023243
0.609652 0.015328 0.021561
0.701479 0.015702 0.019879
0.787446 0.016075 0.018198
0.864625 0.016449 0.016516
0.930085 0.016823 0.014834
0.980896 0.017197 0.013152
1.000000 0.017570 0.011470
1.000000 0.017944 0.009788
0.005870 0.044436 0.033396
0.018595 0.044810 0.031714
0.051829 0.045184 0.030032
0.102640 0.045558 0.028351
0.168100 0.045931 0.026669
0.245279 0.046305 0.024987
0.331246 0.046679 0.023305
0.423073 0.047052 0.021623
0.517830 0.047426 0.019941
0.612587 0.047800 0.018259
0.704414 0.048174 0.016578
0.790381 0.048548 0.014896
0.867560 0.048921 0.013214
0.933020 0.049295 0.011532
0.983831 0.049669 0.009850
1.000000 0.050042 0.008168
1.000000 0.050416 0.006486
0.008805 0.094486 0.030094
0.021530 0.094860 0.028413
0.054764 0.095234 0.026731
0.105575 0.095608 0.025049
0.171035 0.095981 0.023367
0.248214 0.096355 0.021685
0.334181 0.096729 0.020003
0.426008 0.097103 0.018321
0.520765 0.097476 0.016639
0.615522 0.097850 0.014957
0.707349 0.098224 0.013276
0.793316 0.098598 0.011594
0.870495 0.098971 0.009912
0.935955 0.099345 0.008230
0.986766 0.099719 0.006548
1.000000 0.100093 0.004866
1.000000 0.100466 0.003184
0.011740 0.159185 0.026793
0.024465 0.159559 0.025111
0.057699 0.159933 0.023429
0.108510 0.160306 0.021747
0.173970 0.160680 0.020065
0.251149 0.161054 0.018383
0.337116 0.161428 0.016701
0.428943 0.161801 0.015019
0.523700 0.162175 0.013338
0.618457 0.162549 0.011656
0.710284 0.162922 0.009974
0.796251 0.163296 0.008292
0.873430 0.163670 0.006610
0.938890 0.164044 0.004928
0.989701 0.164417 0.003246
1.000000 0.164791 0.001564
1.000000 0.165165 0.000000
0.014675 0.235602 0.023491
0.027400 0.235976 0.021809
0.060634 0.236350 0.020127
0.111445 0.236724 0.018445
0.176905 0.237097 0.016763
0.254084 0.237471 0.015081
0.340051 0.237845 0.013399
0.431878 0.238219 0.011718
0.526635 0.238592 0.010036
0.621392 0.238966 0.008354
0.713219 0.239340 0.006672
0.799186 0.239714 0.004990
0.876365 0.240087 0.003308
0.941825 0.240461 0.001626
0.992636 0.240835 0.000000
1.000000 0.241209 0.000000
1.000000 0.241582 0.000000
0.017610 0.320809 0.020189
0.030335 0.321182 0.018507
0.063569 0.321556 0.016825
0.114380 0.321930 0.015143
0.179840 0.322304 0.013461
0.257019 0.322678 0.011779
0.342986 0.323051 0.010098
0.434813 0.323425 0.008416
0.529570 0.323799 0.006734
0.624327 0.324172 0.005052
0.716154 0.324546 0.003370
0.802121 0.324920 0.001688
0.879300 0.325294 0.000006
0.944760 0.325667 0.000000
0.995571 0.326041 0.000000
1.000000 0.326415 0.000000
1.000000 0.326789 0.000000
0.020545 0.411875 0.016887
0.033270 0.412248 0.015205
0.066504 0.412622 0.013523
0.117315 0.412996 0.011841
0.182775 0.413370 0.010159
0.259954 0.413743 0.008478
0.345921 0.414117 0.006796
0.437748 0.414491 0.005114
0.532505 0.414865 0.003432
0.627262 0.415238 0.001750
0.719089 0.415612 0.000068
0.805056 0.415986 0.000000
0.882235 0.416360 0.000000
0.947695 0.416733 0.000000
0.998506 0.417107 0.000000
1.000000 0.417481 0.000000
1.000000 0.417855 0.000000
0.023480 0.505870 0.013585
0.036205 0.506244 0.011903
0.069439 0.506618 0.010221
0.120250 0.506991 0.008539
0.185710 0.507365 0.006858
0.262889 0.507739 0.005176
0.348856 0.508112 0.003494
0.440683 0.508486 0.001812
0.535440 0.508860 0.000130
0.630197 0.509234 0.000000
0.722024 0.509607 0.000000
0.807991 0.509981 0.000000
0.885170 0.510355 0.000000
0.950630 0.510729 0.000000
1.000000 0.511103 0.000000
1.000000 0.511476 0.000000
1.000000 0.511850 0.000000
0.026415 0.599865 0.010283
0.039140 0.600239 0.008601
0.072374 0.600613 0.006919
0.123185 0.600987 0.005238
0.188645 0.601360 0.003556
0.265824 0.601734 0.001874
0.351791 0.602108 0.000192
0.443618 0.602482 0.000000
0.538375 0.602855 0.000000
0.633132 0.603229 0.000000
0.724959 0.603603 0.000000
0.810926 0.603977 0.000000
0.888105 0.604350 0.000000
0.953565 0.604724 0.000000
1.000000 0.605098 0.000000
1.000000 0.605472 0.000000
1.000000 0.605845 0.000000
0.029350 0.690931 0.006981
0.042075 0.691305 0.005299
0.075309 0.691679 0.003618
0.126120 0.692052 0.001936
0.191580 0.692426 0.000254
0.268759 0.692800 0.000000
0.354726 0.693174 0.000000
0.446553 0.693547 0.000000
0.541310 0.693921 0.000000
0.636067 0.694295 0.000000
0.727894 0.694669 0.000000
0.813861 0.695043 0.000000
0.891040 0.695416 0.000000
0.956500 0.695790 0.000000
1.000000 0.696164 0.000000
1.000000 0.696538 0.000000
1.000000 0.696911 0.000000
0.032285 0.776138 0.003679
0.045010 0.776511 0.001997
0.078244 0.776885 0.000316
0.129055 0.777259 0.000000
0.194515 0.777633 0.000000
0.271694 0.778006 0.000000
0.357661 0.778380 0.000000
0.449488 0.778754 0.000000
0.544245 0.779128 0.000000
0.639002 0.779501 0.000000
0.730829 0.779875 0.000000
0.816796 0.780249 0.000000
0.893975 0.780623 0.000000
0.959435 0.780996 0.000000
1.000000 0.781370 0.000000
1.000000 0.781744 0.000000
1.000000 0.782118 0.000000
0.035220 0.852555 0.000377
0.047945 0.852929 0.000000
0.081179 0.853302 0.000000
0.131990 0.853676 0.000000
0.197450 0.854050 0.000000
0.274629 0.854424 0.000000
0.360596 0.854797 0.000000
0.452423 0.855171 0.000000
0.547180 0.855545 0.000000
0.641937 0.855919 0.000000
0.733764 0.856293 0.000000
0.819731 0.856666 0.000000
0.896910 0.857040 0.000000
0.962370 0.857414 0.000000
1.000000 0.857788 0.000000
1.000000 0.858161 0.000000
1.000000 0.858535 0.000000
0.038155 0.917254 0.000000
0.050880 0.917627 0.000000
0.084114 0.918001 0.000000
0.134925 0.918375 0.000000
0.200385 0.918749 0.000000
0.277564 0.919122 0.000000
0.363531 0.919496 0.000000
0.455358 0.919870 0.000000
0.550115 0.920244 0.000000
0.644872 0.920617 0.000000
0.736699 0.920991 0.000000
0.822666 0.921365 0.000000
0.899845 0.921739 0.000000
0.965305 0.922112 0.000000
1.000000 0.922486 0.000000
1.000000 0.922860 0.000000
1.000000 0.923234 0.000000
0.041090 0.967304 0.000000
0.053815 0.967677 0.000000
0.087049 0.968051 0.000000
0.137860 0.968425 0.000000
0.203320 0.968799 0.000000
0.280499 0.969172 0.000000
0.366466 0.969546 0.000000
0.458293 0.969920 0.000000
0.553050 0.970294 0.000000
0.647807 0.970668 0.000000
0.739634 0.971041 0.000000
0.825601 0.971415 0.000000
0.902780 0.971789 0.000000
0.968240 0.972163 0.000000
1.000000 0.972536 0.000000
1.000000 0.972910 0.000000
1.000000 0.973284 0.000000
0.044025 0.999776 0.000000
0.056750 1.000000 0.000000
0.089984 1.000000 0.000000
0.140795 1.000000 0.000000
0.206255 1.000000 0.000000
0.283434 1.000000 0.000000
0.369401 1.000000 0.000000
0.461228 1.000000 0.000000
0.555985 1.000000 0.000000
0.650742 1.000000 0.000000
0.742569 1.000000 0.000000
0.828536 1.000000 0.000000
0.905715 1.000000 0.000000
0.971175 1.000000 0.000000
1.000000 1.000000 0.000000
1.000000 1.000000 0.000000
1.000000 1.000000 0.000000
0.046960 1.000000 0.000000
0.059685 1.000000 0.000000
0.092919 1.000000 0.000000
0.143730 1.000000 0.000000
0.209190 1.000000 0.000000
0.286369 1.000000 0.000000
0.372336 1.000000 0.000000
0.464163 1.000000 0.000000
0.558920 1.000000 0.000000
0.653677 1.000000 0.000000
0.745504 1.000000 0.000000
0.831471 1.000000 0.000000
0.908650 1.000000 0.000000
0.974110 1.000000 0.000000
1.000000 1.000000 0.000000
1.000000 1.000000 0.000000
1.000000 1.000000 0.000000
0.000570 0.000143 0.050589
0.013295 0.000516 0.048907
0.046529 0.000890 0.047225
0.097340 0.001264 0.045544
0.162800 0.001638 0.043862
0.239979 0.002011 0.042180
0.325946 0.002385 0.040498
0.417773 0.002759 0.038816
0.512530 0.003132 0.037134
0.607287 0.003506 0.035452
0.699114 0.003880 0.033770
0.785081 0.004254 0.032089
0.862260 0.004627 0.030407
0.927720 0.005001 0.028725
0.978531 0.005375 0.027043
1.000000 0.005749 0.025361
1.000000 0.006122 0.023679
0.003505 0.012107 0.047287
0.016230 0.012480 0.045605
0.049464 0.012854 0.043924
0.100275 0.013228 0.042242
0.165735 0.013602 0.040560
0.242914 0.013975 0.038878
0.328881 0.014349 0.037196
0.420708 0.014723 0.035514
0.515465 0.015097 0.033832
0.610222 0.015470 0.032150
0.702049 0.015844 0.030469
0.788016 0.016218 0.028787
0.865195 0.016592 0.027105
0.930655 0.016965 0.025423
0.981466 0.017339 0.023741
1.000000 0.017713 0.022059
1.000000 0.018087 0.020377
0.006440 0.044579 0.043985
0.019165 0.044952 0.042304
0.052399 0.045326 0.040622
0.103210 0.045700 0.038940
0.168670 0.046074 0.037258
0.245849 0.046448 0.035576
0.331816 0.046821 0.033894
0.423643 0.047195 0.032212
0.518400 0.047569 0.030530
0.613157 0.047942 0.028849
0.704984 0.048316 0.027167
0.790951 0.048690 0.025485
0.868130 0.049064 0.023803
0.933590 0.049438 0.022121
0.984401 0.049811 0.020439
1.000000 0.050185 0.018757
1.000000 0.050559 0.017075
0.009375 0.094629 0.040684
0.022100 0.095003 0.039002
0.055334 0.095376 0.037320
0.106145 0.095750 0.035638
0.171605 0.096124 0.033956
0.248784 0.096498 0.032274
0.334751 0.096871 0.030592
0.426578 0.097245 0.028910
0.521335 0.097619 0.027229
0.616092 0.097993 0.025547
0.707919 0.098366 0.023865
0.793886 0.098740 0.022183
0.871065 0.099114 0.020501
0.936525 0.099488 0.018819
0.987336 0.099861 0.017137
1.000000 0.100235 0.015455
1.000000 0.100609 0.013774
0.012310 0.159328 0.037382
0.025035 0.159701 0.035700
0.058269 0.160075 0.034018
0.109080 0.160449 0.032336
0.174540 0.160823 0.030654
0.251719 0.161196 0.028972
0.337686 0.161570 0.027290
0.429513 0.161944 0.025609
0.524270 0.162318 0.023927
0.619027 0.162691 0.022245
0.710854 0.163065 0.020563
0.796821 0.163439 0.018881
0.874000 0.163812 0.017199
0.939460 0.164186 0.015517
0.990271 0.164560 0.013835
1.000000 0.164934 0.012154
1.000000 0.165307 0.010472
0.015245 0.235745 0.034080
0.027970 0.236119 0.032398
0.061204 0.236492 0.030716
0.112015 0.236866 0.029034
0.177475 0.237240 0.027352
0.254654 0.237614 0.025670
0.340621 0.237987 0.023989
0.432448 0.238361 0.022307
0.527205 0.238735 0.020625
0.621962 0.239109 0.018943
0.713789 0.239482 0.017261
0.799756 0.239856 0.015579
0.876935 0.240230 0.013897
0.942395 0.240604 0.012215
0.993206 0.240977 0.010534
1.000000 0.241351 0.008852
1.000000 0.241725 0.007170
0.018180 0.320951 0.030778
0.030905 0.321325 0.029096
0.064139 0.321699 0.027414
0.114950 0.322072 0.025732
0.180410 0.322446 0.024050
0.257589 0.322820 0.022369
0.343556 0.323194 0.020687
0.435383 0.323568 0.019005
0.530140 0.323941 0.017323
0.624897 0.324315 0.015641
0.716724 0.324689 0.013959
0.802691 0.325062 0.012277
0.879870 0.325436 0.010595
0.945330 0.325810 0.008914
0.996141 0.326184 0.007232
1.000000 0.326558 0.005550
1.000000 0.326931 0.003868
0.021115 0.412017 0.027476
0.033840 0.412391 0.025794
0.067074 0.412765 0.024112
0.117885 0.413138 0.022430
0.183345 0.413512 0.020749
0.260524 0.413886 0.019067
0.346491 0.414260 0.017385
0.438318 0.414633 0.015703
0.533075 0.415007 0.014021
0.627832 0.415381 0.012339
0.719659 0.415755 0.010657
0.805626 0.416128 0.008975
0.882805 0.416502 0.007294
0.948265 0.416876 0.005612
0.999076 0.417250 0.003930
1.000000 0.417623 0.002248
1.000000 0.417997 0.000566
0.024050 0.506012 0.024174
0.036775 0.506386 0.022492
0.070009 0.506760 0.020810
0.120820 0.507134 0.019129
0.186280 0.507508 0.017447
0.263459 0.507881 0.015765
0.349426 0.508255 0.014083
0.441253 0.508629 0.012401
0.536010 0.509003 0.010719
0.630767 0.509376 0.009037
0.722594 0.509750 0.007355
0.808561 0.510124 0.005674
0.885740 0.510498 0.003992
0.951200 0.510871 0.002310
1.000000 0.511245 0.000628
1.000000 0.511619 0.000000
1.000000 0.511992 0.000000
0.026985 0.600008 0.020872
0.039710 0.600382 0.019190
0.072944 0.600755 0.017509
0.123755 0.601129 0.015827
0.189215 0.601503 0.014145
0.266394 0.601877 0.012463
0.352361 0.602250 0.010781
0.444188 0.602624 0.009099
0.538945 0.602998 0.007417
0.633702 0.603372 0.005735
0.725529 0.603745 0.004054
0.811496 0.604119 0.002372
0.888675 0.604493 0.000690
0.954135 0.604867 0.000000
1.000000 0.605240 0.000000
1.000000 0.605614 0.000000
1.000000 0.605988 0.000000
0.029920 0.691074 0.017570
0.042645 0.691447 0.015889
0.075879 0.691821 0.014207
0.126690 0.692195 0.012525
0.192150 0.692569 0.010843
0.269329 0.692943 0.009161
0.355296 0.693316 0.007479
0.447123 0.693690 0.005797
0.541880 0.694064 0.004115
0.636637 0.694438 0.002434
0.728464 0.694811 0.000752
0.814431 0.695185 0.000000
0.891610 0.695559 0.000000
0.957070 0.695932 0.000000
1.000000 0.696306 0.000000
1.000000 0.696680 0.000000
1.000000 0.697054 0.000000
0.032855 0.776280 0.014269
0.045580 0.776654 0.012587
0.078814 0.777028 0.010905
0.129625 0.777401 0.009223
0.195085 0.777775 0.007541
0.272264 0.778149 0.005859
0.358231 0.778523 0.004177
0.450058 0.778896 0.002495
0.544815 0.779270 0.000814
0.639572 0.779644 0.000000
0.731399 0.780018 0.000000
0.817366 0.780391 0.000000
0.894545 0.780765 0.000000
0.960005 0.781139 0.000000
1.000000 0.781513 0.000000
1.000000 0.781886 0.000000
1.000000 0.782260 0.000000
0.035790 0.852697 0.010967
0.048515 0.853071 0.009285
0.081749 0.853445 0.007603
0.132560 0.853819 0.005921
0.198020 0.854193 0.004239
0.275199 0.854566 0.002557
0.361166 0.854940 0.000875
0.452993 0.855314 0.000000
0.547750 0.855688 0.000000
0.642507 0.856061 0.000000
0.734334 0.856435 0.000000
0.820301 0.856809 0.000000
0.897480 0.857182 0.000000
0.962940 0.857556 0.000000
1.000000 0.857930 0.000000
1.000000 0.858304 0.000000
1.000000 0.858677 0.000000
0.038725 0.917396 0.007665
0.051450 0.917770 0.005983
0.084684 0.918144 0.004301
0.135495 0.918517 0.002619
0.200955 0.918891 0.000937
0.278134 0.919265 0.000000
0.364101 0.919639 0.000000
0.455928 0.920012 0.000000
0.550685 0.920386 0.000000
0.645442 0.920760 0.000000
0.737269 0.921134 0.000000
0.823236 0.921507 0.000000
0.900415 0.921881 0.000000
0.965875 0.922255 0.000000
1.000000 0.922629 0.000000
1.000000 0.923002 0.000000
1.000000 0.923376 0.000000
0.041660 0.967446 0.004363
0.054385 0.967820 0.002681
0.087619 0.968194 0.000999
0.138430 0.968568 0.000000
0.203890 0.968941 0.000000
0.281069 0.969315 0.000000
0.367036 0.969689 0.000000
0.458863 0.970063 0.000000
0.553620 0.970436 0.000000
0.648377 0.970810 0.000000
0.740204 0.971184 0.000000
0.826171 0.971557 0.000000
0.903350 0.971931 0.000000
0.968810 0.972305 0.000000
1.000000 0.972679 0.000000
1.000000 0.973052 0.000000
1.000000 0.973426 0.000000
0.044595 0.999918 0.001061
0.057320 1.000000 0.000000
0.090554 1.000000 0.000000
0.141365 1.000000 0.000000
0.206825 1.000000 0.000000
0.284004 1.000000 0.000000
0.369971 1.000000 0.000000
0.461798 1.000000 0.000000
0.556555 1.000000 0.000000
0.651312 1.000000 0.000000
0.743139 1.000000 0.000000
0.829106 1.000000 0.000000
0.906285 1.000000 0.000000
0.971745 1.000000 0.000000
1.000000 1.000000 0.000000
1.000000 1.000000 0.000000
1.000000 1.000000 0.000000
0.047530 1.000000 0.000000
0.060255 1.000000 0.000000
0.093489 1.000000 0.000000
0.144300 1.000000 0.000000
0.209760 1.000000 0.000000
0.286939 1.000000 0.000000
0.372906 1.000000 0.000000
0.464733 1.000000 0.000000
0.559490 1.000000 0.000000
0.654247 1.000000 0.000000
0.746074 1.000000 0.000000
0.832041 1.000000 0.000000
0.909220 1.000000 0.000000
0.974680 1.000000 0.000000
1.000000 1.000000 0.000000
1.000000 1.000000 0.000000
1.000000 1.000000 0.000000
0.001140 0.000285 0.081686
0.013865 0.000659 0.080004
0.047099 0.001032 0.078322
0.097910 0.001406 0.076641
0.163370 0.001780 0.074959
0.240549 0.002154 0.073277
0.326516 0.002528 0.071595
0.418343 0.002901 0.069913
0.513100 0.003275 0.068231
0.607857 0.003649 0.066549
0.699684 0.004023 0.064867
0.785651 0.004396 0.063186
0.862830 0.004770 0.061504
0.928290 0.005144 0.059822
0.979101 0.005517 0.058140
1.000000 0.005891 0.056458
1.000000 0.006265 0.054776
0.004075 0.012249 0.078384
0.016800 0.012623 0.076703
0.050034 0.012997 0.075021
0.100845 0.013370 0.073339
0.166305 0.013744 0.071657
0.243484 0.014118 0.069975
0.329451 0.014492 0.068293
0.421278 0.014865 0.066611
0.516035 0.015239 0.064929
0.610792 0.015613 0.063247
0.702619 0.015987 0.061566
0.788586 0.016360 0.059884
0.865765 0.016734 0.058202
0.931225 0.017108 0.056520
0.982036 0.017482 0.054838
1.000000 0.017855 0.053156
1.000000 0.018229 0.051474
0.007010 0.044721 0.075082
0.019735 0.045095 0.073401
0.052969 0.045469 0.071719
0.103780 0.045843 0.070037
0.169240 0.046216 0.068355
0.246419 0.046590 0.066673
0.332386 0.046964 0.064991
0.424213 0.047337 0.063309
0.518970 0.047711 0.061628
0.613727 0.048085 0.059946
0.705554 0.048459 0.058264
0.791521 0.048833 0.056582
0.868700 0.049206 0.054900
0.934160 0.049580 0.053218
0.984971 0.049954 0.051536
1.000000 0.050327 0.049854
1.000000 0.050701 0.048173
0.009945 0.094771 0.071781
0.022670 0.095145 0.070099
0.055904 0.095519 0.068417
0.106715 0.095893 0.066735
0.172175 0.096266 0.065053
0.249354 0.096640 0.063371
0.335321 0.097014 0.061689
0.427148 0.097388 0.060007
0.521905 0.097761 0.058326
0.616662 0.098135 0.056644
0.708489 0.098509 0.054962
0.794456 0.098883 0.053280
0.871635 0.099256 0.051598
0.937095 0.099630 0.049916
0.987906 0.100004 0.048234
1.000000 0.100378 0.046552
1.000000 0.100751 0.044871
0.012880 0.159470 0.068479
0.025605 0.159844 0.066797
0.058839 0.160218 0.065115
0.109650 0.160591 0.063433
0.175110 0.160965 0.061751
0.252289 0.161339 0.060069
0.338256 0.161713 0.058388
0.430083 0.162086 0.056706
0.524840 0.162460 0.055024
0.619597 0.162834 0.053342
0.711424 0.163208 0.051660
0.797391 0.163581 0.049978
0.874570 0.163955 0.048296
0.940030 0.164329 0.046614
0.990841 0.164703 0.044933
1.000000 0.165076 0.043251
1.000000 0.165450 0.041569
0.015815 0.235887 0.065177
0.028540 0.236261 0.063495
0.061774 0.236635 0.061813
0.112585 0.237009 0.060131
0.178045 0.237382 0.058449
0.255224 0.237756 0.056767
0.341191 0.238130 0.055086
0.433018 0.238504 0.053404
0.527775 0.238877 0.051722
0.622532 0.239251 0.050040
0.714359 0.239625 0.048358
0.800326 0.239999 0.046676
0.877505 0.240372 0.044994
0.942965 0.240746 0.043313
0.993776 0.241120 0.041631
1.000000 0.241494 0.039949
1.000000 0.241867 0.038267
0.018750 0.321094 0.061875
0.031475 0.321468 0.060193
0.064709 0.321841 0.058511
0.115520 0.322215 0.056829
0.180980 0.322589 0.055148
0.258159 0.322962 0.053466
0.344126 0.323336 0.051784
0.435953 0.323710 0.050102
0.530710 0.324084 0.048420
0.625467 0.324458 0.046738
0.717294 0.324831 0.045056
0.803261 0.325205 0.043374
0.880440 0.325579 0.041693
0.945900 0.325952 0.040011
0.996711 0.326326 0.038329
1.000000 0.326700 0.036647
1.000000 0.327074 0.034965
0.021685 0.412160 0.058573
0.034410 0.412533 0.056891
0.067644 0.412907 0.055209
0.118455 0.413281 0.053528
0.183915 0.413655 0.051846
0.261094 0.414028 0.050164
0.347061 0.414402 0.048482
0.438888 0.414776 0.046800
0.533645 0.415150 0.045118
0.628402 0.415523 0.043436
0.720229 0.415897 0.041754
0.806196 0.416271 0.040073
0.883375 0.416645 0.038391
0.948835 0.417018 0.036709
0.999646 0.417392 0.035027
1.000000 0.417766 0.033345
1.000000 0.418140 0.031663
0.024620 0.506155 0.055271
0.037345 0.506529 0.053589
0.070579 0.506903 0.051908
0.121390 0.507276 0.050226
0.186850 0.507650 0.048544
0.264029 0.508024 0.046862
0.349996 0.508397 0.045180
0.441823 0.508771 0.043498
0.536580 0.509145 0.041816
0.631337 0.509519 0.040134
0.723164 0.509892 0.038453
0.809131 0.510266 0.036771
0.886310 0.510640 0.035089
0.951770 0.511014 0.033407
1.000000 0.511387 0.031725
1.000000 0.511761 0.030043
1.000000 0.512135 0.028361
0.027555 0.600150 0.051969
0.040280 0.600524 0.050288
0.073514 0.600898 0.048606
0.124325 0.601272 0.046924
0.189785 0.601645 0.045242
0.266964 0.602019 0.043560
0.352931 0.602393 0.041878
0.444758 0.602767 0.040196
0.539515 0.603140 0.038514
0.634272 0.603514 0.036833
0.726099 0.603888 0.035151
0.812066 0.604262 0.033469
0.889245 0.604635 0.031787
0.954705 0.605009 0.030105
1.000000 0.605383 0.028423
1.000000 0.605757 0.026741
1.000000 0.606130 0.025059
0.030490 0.691216 0.048668
0.043215 0.691590 0.046986
0.076449 0.691964 0.045304
0.127260 0.692338 0.043622
0.192720 0.692711 0.041940
0.269899 0.693085 0.040258
0.355866 0.693459 0.038576
0.447693 0.693832 0.036894
0.542450 0.694206 0.035213
0.637207 0.694580 0.033531
0.729034 0.694954 0.031849
0.815001 0.695327 0.030167
0.892180 0.695701 0.028485
0.957640 0.696075 0.026803
1.000000 0.696449 0.025121
1.000000 0.696823 0.023439
1.000000 0.697196 0.021757
0.033425 0.776423 0.045366
0.046150 0.776796 0.043684
0.079384 0.777170 0.042002
0.130195 0.777544 0.040320
0.195655 0.777918 0.038638
0.272834 0.778291 0.036956
0.358801 0.778665 0.035274
0.450628 0.779039 0.033592
0.545385 0.779413 0.031911
0.640142 0.779786 0.030229
0.731969 0.780160 0.028547
0.817936 0.780534 0.026865
0.895115 0.780908 0.025183
0.960575 0.781281 0.023501
1.000000 0.781655 0.021819
1.000000 0.782029 0.020138
1.000000 0.782403 0.018456
0.036360 0.852840 0.042064
0.049085 0.853214 0.040382
0.082319 0.853587 0.038700
0.133130 0.853961 0.037018
0.198590 0.854335 0.035336
0.275769 0.854709 0.033654
0.361736 0.855082 0.031973
0.453563 0.855456 0.030291
0.548320 0.855830 0.028609
0.643077 0.856204 0.026927
0.734904 0.856577 0.025245
0.820871 0.856951 0.023563
0.898050 0.857325 0.021881
0.963510 0.857699 0.020199
1.000000 0.858073 0.018517
1.000000 0.858446 0.016836
1.000000 0.858820 0.015154
0.039295 0.917539 0.038762
0.052020 0.917912 0.037080
0.085254 0.918286 0.035398
0.136065 0.918660 0.033716
0.201525 0.919034 0.032034
0.278704 0.919407 0.030353
0.364671 0.919781 0.028671
0.456498 0.920155 0.026989
0.551255 0.920529 0.025307
0.646012 0.920902 0.023625
0.737839 0.921276 0.021943
0.823806 0.921650 0.020261
0.900985 0.922024 0.018579
0.966445 0.922397 0.016898
1.000000 0.922771 0.015216
1.000000 0.923145 0.013534
1.000000 0.923519 0.011852
0.042230 0.967589 0.035460
0.054955 0.967962 0.033778
0.088189 0.968336 0.032096
0.139000 0.968710 0.030414
0.204460 0.969084 0.028733
0.281639 0.969457 0.027051
0.367606 0.969831 0.025369
0.459433 0.970205 0.023687
0.554190 0.970579 0.022005
0.648947 0.970952 0.020323
0.740774 0.971326 0.018641
0.826741 0.971700 0.016959
0.903920 0.972074 0.015277
0.969380 0.972448 0.013596
1.000000 0.972821 0.011914
1.000000 0.973195 0.010232
1.000000 0.973569 0.008550
0.045165 1.000000 0.032158
0.057890 1.000000 0.030476
0.091124 1.000000 0.028794
0.141935 1.000000 0.027113
0.207395 1.000000 0.025431
0.284574 1.000000 0.023749
0.370541 1.000000 0.022067
0.462368 1.000000 0.020385
0.557125 1.000000 0.018703
0.651882 1.000000 0.017021
0.743709 1.000000 0.015339
0.829676 1.000000 0.013658
0.906855 1.000000 0.011976
0.972315 1.000000 0.010294
1.000000 1.000000 0.008612
1.000000 1.000000 0.006930
1.000000 1.000000 0.005248
0.048100 1.000000 0.028856
0.060825 1.000000 0.027174
0.094059 1.000000 0.025493
0.144870 1.000000 0.023811
0.210330 1.000000 0.022129
0.287509 1.000000 0.020447
0.373476 1.000000 0.018765
0.465303 1.000000 0.017083
0.560060 1.000000 0.015401
0.654817 1.000000 0.013719
0.746644 1.000000 0.012037
0.832611 1.000000 0.010356
0.909790 1.000000 0.008674
0.975250 1.000000 0.006992
1.000000 1.000000 0.005310
1.000000 1.000000 0.003628
1.000000 1.000000 0.001946
0.001710 0.000428 0.130361
0.014435 0.000801 0.128680
0.047669 0.001175 0.126998
0.098480 0.001549 0.125316
0.163940 0.001923 0.123634
0.241119 0.002296 0.121952
0.327086 0.002670 0.120270
0.418913 0.003044 0.118588
0.513670 0.003417 0.116906
0.608427 0.003791 0.115225
0.700254 0.004165 0.113543
0.786221 0.004539 0.111861
0.863400 0.004913 0.110179
0.928860 0.005286 0.108497
0.979671 0.005660 0.106815
1.000000 0.006034 0.105133
1.000000 0.006407 0.103451
0.004645 0.012392 0.127060
0.017370 0.012765 0.125378
