Server/IGTracker/desktop_spoofer/luts/Cinematic_Warm.cube
# Cube LUT created for IGTracker
TITLE "Cinematic Warm"
LUT_3D_SIZE 9
0.000000 0.000000 0.040000
0.045959 0.000748 0.036636
0.162230 0.001495 0.033273
0.325376 0.002243 0.029909
0.511960 0.002990 0.026545
0.698544 0.003737 0.023181
0.861690 0.004485 0.019817
0.977961 0.005233 0.016454
1.000000 0.005980 0.013090
0.005870 0.044436 0.033396
0.051829 0.045184 0.030032
0.168100 0.045931 0.026669
0.331246 0.046679 0.023305
0.517830 0.047426 0.019941
0.704414 0.048174 0.016578
0.867560 0.048921 0.013214
0.983831 0.049669 0.009850
1.000000 0.050416 0.006486
0.011740 0.159185 0.026793
0.057699 0.159933 0.023429
0.173970 0.160680 0.020065
0.337116 0.161428 0.016701
0.523700 0.162175 0.013338
0.710284 0.162922 0.009974
0.873430 0.163670 0.006610
0.989701 0.164417 0.003246
1.000000 0.165165 0.000000
0.017610 0.320809 0.020189
0.063569 0.321556 0.016825
0.179840 0.322304 0.013461
0.342986 0.323051 0.010098
0.529570 0.323799 0.006734
0.716154 0.324546 0.003370
0.879300 0.325294 0.000006
0.995571 0.326041 0.000000
1.000000 0.326789 0.000000
0.023480 0.505870 0.013585
0.069439 0.506618 0.010221
0.185710 0.507365 0.006858
0.348856 0.508112 0.003494
0.535440 0.508860 0.000130
0.722024 0.509607 0.000000
0.885170 0.510355 0.000000
1.000000 0.511103 0.000000
1.000000 0.511850 0.000000
0.029350 0.690931 0.006981
0.075309 0.691679 0.003618
0.191580 0.692426 0.000254
0.354726 0.693174 0.000000
0.541310 0.693921 0.000000
0.727894 0.694669 0.000000
0.891040 0.695416 0.000000
1.000000 0.696164 0.000000
1.000000 0.696911 0.000000
0.035220 0.852555 0.000377
0.081179 0.853302 0.000000
0.197450 0.854050 0.000000
0.360596 0.854797 0.000000
0.547180 0.855545 0.000000
0.733764 0.856293 0.000000
0.896910 0.857040 0.000000
1.000000 0.857788 0.000000
1.000000 0.858535 0.000000
0.041090 0.967304 0.000000
0.087049 0.968051 0.000000
0.203320 0.968799 0.000000
0.366466 0.969546 0.000000
0.553050 0.970294 0.000000
0.739634 0.971041 0.000000
0.902780 0.971789 0.000000
1.000000 0.972536 0.000000
1.000000 0.973284 0.000000
0.046960 1.000000 0.000000
0.092919 1.000000 0.000000
0.209190 1.000000 0.000000
0.372336 1.000000 0.000000
0.558920 1.000000 0.000000
0.745504 1.000000 0.000000
0.908650 1.000000 0.000000
1.000000 1.000000 0.000000
1.000000 1.000000 0.000000
0.001140 0.000285 0.081686
0.047099 0.001032 0.078322
0.163370 0.001780 0.074959
0.326516 0.002528 0.071595
0.513100 0.003275 0.068231
0.699684 0.004023 0.064867
0.862830 0.004770 0.061504
0.979101 0.005517 0.058140
1.000000 0.006265 0.054776
0.007010 0.044721 0.075082
0.052969 0.045469 0.071719
0.169240 0.046216 0.068355
0.332386 0.046964 0.064991
0.518970 0.047711 0.061628
0.705554 0.048459 0.058264
0.868700 0.049206 0.054900
0.984971 0.049954 0.051536
1.000000 0.050701 0.048173
0.012880 0.159470 0.068479
0.058839 0.160218 0.065115
0.175110 0.160965 0.061751
0.338256 0.161713 0.058388
0.524840 0.162460 0.055024
0.711424 0.163208 0.051660
0.874570 0.163955 0.048296
0.990841 0.164703 0.044933
1.000000 0.165450 0.041569
0.018750 0.321094 0.061875
0.064709 0.321841 0.058511
0.180980 0.322589 0.055148
0.344126 0.323336 0.051784
0.530710 0.324084 0.048420
0.717294 0.324831 0.045056
0.880440 0.325579 0.041693
0.996711 0.326326 0.038329
1.000000 0.327074 0.034965
0.024620 0.506155 0.055271
0.070579 0.506903 0.051908
0.186850 0.507650 0.048544
0.349996 0.508397 0.045180
0.536580 0.509145 0.041816
0.723164 0.509892 0.038453
0.886310 0.510640 0.035089
1.000000 0.511387 0.031725
1.000000 0.512135 0.028361
0.030490 0.691216 0.048668
0.076449 0.691964 0.045304
0.192720 0.692711 0.041940
0.355866 0.693459 0.038576
0.542450 0.694206 0.035213
0.729034 0.694954 0.031849
0.892180 0.695701 0.028485
1.000000 0.696449 0.025121
1.000000 0.697196 0.021757
0.036360 0.852840 0.042064
0.082319 0.853587 0.038700
0.198590 0.854335 0.035336
0.361736 0.855082 0.031973
0.548320 0.855830 0.028609
0.734904 0.856577 0.025245
0.898050 0.857325 0.021881
1.000000 0.858073 0.018517
1.000000 0.858820 0.015154
0.042230 0.967589 0.035460
0.088189 0.968336 0.032096
0.204460 0.969084 0.028733
0.367606 0.969831 0.025369
0.554190 0.970579 0.022005
0.740774 0.971326 0.018641
0.903920 0.972074 0.015277
1.000000 0.972821 0.011914
1.000000 0.973569 0.008550
0.048100 1.000000 0.028856
0.094059 1.000000 0.025493
0.210330 1.000000 0.022129
0.373476 1.000000 0.018765
0.560060 1.000000 0.015401
0.746644 1.000000 0.012037
0.909790 1.000000 0.008674
1.000000 1.000000 0.005310
1.000000 1.000000 0.001946
0.002280 0.000570 0.193685
0.048239 0.001318 0.190321
0.164510 0.002065 0.186957
0.327656 0.002812 0.183594
0.514240 0.003560 0.180230
0.700824 0.004307 0.176866
0.863970 0.005055 0.173503
0.980241 0.005803 0.170139
1.000000 0.006550 0.166775
0.008150 0.045006 0.187081
0.054109 0.045754 0.183717
0.170380 0.046501 0.180354
0.333526 0.047249 0.176990
0.520110 0.047996 0.173626
0.706694 0.048744 0.170263
0.869840 0.049491 0.166899
0.986111 0.050239 0.163535
1.000000 0.050986 0.160171
0.014020 0.159755 0.180477
0.059979 0.160502 0.177114
0.176250 0.161250 0.173750
0.339396 0.161997 0.170386
0.525980 0.162745 0.167022
0.712564 0.163493 0.163659
0.875710 0.164240 0.160295
0.991981 0.164988 0.156931
1.000000 0.165735 0.153567
0.019890 0.321379 0.173874
0.065849 0.322126 0.170510
0.182120 0.322874 0.167146
0.345266 0.323621 0.163782
0.531850 0.324369 0.160419
0.718434 0.325116 0.157055
0.881580 0.325864 0.153691
0.997851 0.326611 0.150328
1.000000 0.327359 0.146964
0.025760 0.506440 0.167270
0.071719 0.507188 0.163906
0.187990 0.507935 0.160543
0.351136 0.508683 0.157179
0.537720 0.509430 0.153815
0.724304 0.510177 0.150451
0.887450 0.510925 0.147088
1.000000 0.511672 0.143724
1.000000 0.512420 0.140360
0.031630 0.691501 0.160666
0.077589 0.692249 0.157303
0.193860 0.692996 0.153939
0.357006 0.693744 0.150575
0.543590 0.694491 0.147211
0.730174 0.695239 0.143848
0.893320 0.695986 0.140484
1.000000 0.696734 0.137120
1.000000 0.697481 0.133756
0.037500 0.853125 0.154062
0.083459 0.853873 0.150699
0.199730 0.854620 0.147335
0.362876 0.855367 0.143971
0.549460 0.856115 0.140607
0.736044 0.856862 0.137244
0.899190 0.857610 0.133880
1.000000 0.858357 0.130516
1.000000 0.859105 0.127153
0.043370 0.967874 0.147459
0.089329 0.968621 0.144095
0.205600 0.969369 0.140731
0.368746 0.970116 0.137368
0.555330 0.970864 0.134004
0.741914 0.971611 0.130640
0.905060 0.972359 0.127276
1.000000 0.973106 0.123912
1.000000 0.973854 0.120549
0.049240 1.000000 0.140855
0.095199 1.000000 0.137491
0.211470 1.000000 0.134128
0.374616 1.000000 0.130764
0.561200 1.000000 0.127400
0.747784 1.000000 0.124036
0.910930 1.000000 0.120672
1.000000 1.000000 0.117309
1.000000 1.000000 0.113945
0.003420 0.000855 0.352559
0.049379 0.001602 0.349195
0.165650 0.002350 0.345831
0.328796 0.003098 0.342468
0.515380 0.003845 0.339104
0.701964 0.004593 0.335740
0.865110 0.005340 0.332376
0.981381 0.006088 0.329012
1.000000 0.006835 0.325649
0.009290 0.045291 0.345955
0.055249 0.046039 0.342591
0.171520 0.046786 0.339227
0.334666 0.047534 0.335864
0.521250 0.048281 0.332500
0.707834 0.049029 0.329136
0.870980 0.049776 0.325772
0.987251 0.050524 0.322409
1.000000 0.051271 0.319045
0.015160 0.160040 0.339351
0.061119 0.160787 0.335987
0.177390 0.161535 0.332624
0.340536 0.162282 0.329260
0.527120 0.163030 0.325896
0.713704 0.163777 0.322532
0.876850 0.164525 0.319169
0.993121 0.165272 0.315805
1.000000 0.166020 0.312441
0.021030 0.321664 0.332747
0.066989 0.322411 0.329384
0.183260 0.323159 0.326020
0.346406 0.323906 0.322656
0.532990 0.324654 0.319292
0.719574 0.325401 0.315929
0.882720 0.326149 0.312565
0.998991 0.326896 0.309201
1.000000 0.327644 0.305838
0.026900 0.506725 0.326144
0.072859 0.507472 0.322780
0.189130 0.508220 0.319416
0.352276 0.508968 0.316053
0.538860 0.509715 0.312689
0.725444 0.510463 0.309325
0.888590 0.511210 0.305961
1.000000 0.511957 0.302598
1.000000 0.512705 0.299234
0.032770 0.691786 0.319540
0.078729 0.692534 0.316176
0.195000 0.693281 0.312812
0.358146 0.694029 0.309449
0.544730 0.694776 0.306085
0.731314 0.695524 0.302721
0.894460 0.696271 0.299358
1.000000 0.697019 0.295994
1.000000 0.697766 0.292630
0.038640 0.853410 0.312936
0.084599 0.854158 0.309573
0.200870 0.854905 0.306209
0.364016 0.855653 0.302845
0.550600 0.856400 0.299481
0.737184 0.857147 0.296118
0.900330 0.857895 0.292754
1.000000 0.858642 0.289390
1.000000 0.859390 0.286026
0.044510 0.968159 0.306333
0.090469 0.968906 0.302969
0.206740 0.969654 0.299605
0.369886 0.970401 0.296241
0.556470 0.971149 0.292878
0.743054 0.971896 0.289514
0.906200 0.972644 0.286150
1.000000 0.973391 0.282786
1.000000 0.974139 0.279422
0.050380 1.000000 0.299729
0.096339 1.000000 0.296365
0.212610 1.000000 0.293001
0.375756 1.000000 0.289638
0.562340 1.000000 0.286274
0.748924 1.000000 0.282910
0.912070 1.000000 0.279546
1.000000 1.000000 0.276182
1.000000 1.000000 0.272819
0.004560 0.001140 0.534870
0.050519 0.001888 0.531506
0.166790 0.002635 0.528142
0.329936 0.003383 0.524779
0.516520 0.004130 0.521415
0.703104 0.004877 0.518051
0.866250 0.005625 0.514688
0.982521 0.006372 0.511324
1.000000 0.007120 0.507960
0.010430 0.045576 0.528266
0.056389 0.046324 0.524903
0.172660 0.047071 0.521539
0.335806 0.047819 0.518175
0.522390 0.048566 0.514811
0.708974 0.049314 0.511448
0.872120 0.050061 0.508084
0.988391 0.050809 0.504720
1.000000 0.051556 0.501356
0.016300 0.160325 0.521663
0.062259 0.161073 0.518299
0.178530 0.161820 0.514935
0.341676 0.162568 0.511571
0.528260 0.163315 0.508207
0.714844 0.164062 0.504844
0.877990 0.164810 0.501480
0.994261 0.165557 0.498116
1.000000 0.166305 0.494753
0.022170 0.321949 0.515059
0.068129 0.322696 0.511695
0.184400 0.323444 0.508331
0.347546 0.324191 0.504968
0.534130 0.324939 0.501604
0.720714 0.325686 0.498240
0.883860 0.326434 0.494876
1.000000 0.327181 0.491513
1.000000 0.327929 0.488149
0.028040 0.507010 0.508455
0.073999 0.507757 0.505091
0.190270 0.508505 0.501727
0.353416 0.509252 0.498364
0.540000 0.510000 0.495000
0.726584 0.510748 0.491636
0.889730 0.511495 0.488273
1.000000 0.512243 0.484909
1.000000 0.512990 0.481545
0.033910 0.692071 0.501851
0.079869 0.692819 0.498488
0.196140 0.693566 0.495124
0.359286 0.694314 0.491760
0.545870 0.695061 0.488396
0.732454 0.695809 0.485032
0.895600 0.696556 0.481669
1.000000 0.697304 0.478305
1.000000 0.698051 0.474941
0.039780 0.853695 0.495248
0.085739 0.854442 0.491884
0.202010 0.855190 0.488520
0.365156 0.855938 0.485156
0.551740 0.856685 0.481792
0.738324 0.857433 0.478429
0.901470 0.858180 0.475065
1.000000 0.858927 0.471701
1.000000 0.859675 0.468337
0.045650 0.968444 0.488644
0.091609 0.969191 0.485280
0.207880 0.969939 0.481916
0.371026 0.970686 0.478552
0.557610 0.971434 0.475189
0.744194 0.972181 0.471825
0.907340 0.972929 0.468461
1.000000 0.973676 0.465097
1.000000 0.974424 0.461734
0.051520 1.000000 0.482040
0.097479 1.000000 0.478676
0.213750 1.000000 0.475312
0.376896 1.000000 0.471949
0.563480 1.000000 0.468585
0.750064 1.000000 0.465221
0.913210 1.000000 0.461857
1.000000 1.000000 0.458494
1.000000 1.000000 0.455130
0.005700 0.001425 0.717181
0.051659 0.002172 0.713817
0.167930 0.002920 0.710454
0.331076 0.003668 0.707090
0.517660 0.004415 0.703726
0.704244 0.005162 0.700362
0.867390 0.005910 0.696999
0.983661 0.006658 0.693635
1.000000 0.007405 0.690271
0.011570 0.045861 0.710577
0.057529 0.046609 0.707214
0.173800 0.047356 0.703850
0.336946 0.048104 0.700486
0.523530 0.048851 0.697122
0.710114 0.049599 0.693759
0.873260 0.050346 0.690395
0.989531 0.051094 0.687031
1.000000 0.051841 0.683667
0.017440 0.160610 0.703974
0.063399 0.161357 0.700610
0.179670 0.162105 0.697246
0.342816 0.162853 0.693883
0.529400 0.163600 0.690519
0.715984 0.164348 0.687155
0.879130 0.165095 0.683791
0.995401 0.165843 0.680428
1.000000 0.166590 0.677064
0.023310 0.322234 0.697370
0.069269 0.322981 0.694006
0.185540 0.323729 0.690643
0.348686 0.324476 0.687279
0.535270 0.325224 0.683915
0.721854 0.325971 0.680551
0.885000 0.326719 0.677188
1.000000 0.327466 0.673824
1.000000 0.328214 0.670460
0.029180 0.507295 0.690766
0.075139 0.508042 0.687403
0.191410 0.508790 0.684039
0.354556 0.509537 0.680675
0.541140 0.510285 0.677311
0.727724 0.511033 0.673948
0.890870 0.511780 0.670584
1.000000 0.512528 0.667220
1.000000 0.513275 0.663856
0.035050 0.692356 0.684163
0.081009 0.693104 0.680799
0.197280 0.693851 0.677435
0.360426 0.694599 0.674071
0.547010 0.695346 0.670708
0.733594 0.696094 0.667344
0.896740 0.696841 0.663980
1.000000 0.697589 0.660616
1.000000 0.698336 0.657253
0.040920 0.853980 0.677559
0.086879 0.854727 0.674195
0.203150 0.855475 0.670831
0.366296 0.856222 0.667467
0.552880 0.856970 0.664104
0.739464 0.857718 0.660740
0.902610 0.858465 0.657376
1.000000 0.859213 0.654012
1.000000 0.859960 0.650649
0.046790 0.968729 0.670955
0.092749 0.969476 0.667591
0.209020 0.970224 0.664228
0.372166 0.970971 0.660864
0.558750 0.971719 0.657500
0.745334 0.972466 0.654136
0.908480 0.973214 0.650772
1.000000 0.973961 0.647409
1.000000 0.974709 0.644045
0.052660 1.000000 0.664351
0.098619 1.000000 0.660988
0.214890 1.000000 0.657624
0.378036 1.000000 0.654260
0.564620 1.000000 0.650896
0.751204 1.000000 0.647532
0.914350 1.000000 0.644169
1.000000 1.000000 0.640805
1.000000 1.000000 0.637441
0.006840 0.001710 0.876055
0.052799 0.002458 0.872691
0.169070 0.003205 0.869328
0.332216 0.003953 0.865964
0.518800 0.004700 0.862600
0.705384 0.005448 0.859236
0.868530 0.006195 0.855873
0.984801 0.006943 0.852509
1.000000 0.007690 0.849145
0.012710 0.046146 0.869451
0.058669 0.046894 0.866088
0.174940 0.047641 0.862724
0.338086 0.048389 0.859360
0.524670 0.049136 0.855996
0.711254 0.049884 0.852633
0.874400 0.050631 0.849269
0.990671 0.051379 0.845905
1.000000 0.052126 0.842541
0.018580 0.160895 0.862847
0.064539 0.161642 0.859484
0.180810 0.162390 0.856120
0.343956 0.163137 0.852756
0.530540 0.163885 0.849392
0.717124 0.164632 0.846029
0.880270 0.165380 0.842665
0.996541 0.166128 0.839301
1.000000 0.166875 0.835938
0.024450 0.322519 0.856244
0.070409 0.323266 0.852880
0.186680 0.324014 0.849516
0.349826 0.324761 0.846153
0.536410 0.325509 0.842789
0.722994 0.326256 0.839425
0.886140 0.327004 0.836061
1.000000 0.327751 0.832698
1.000000 0.328499 0.829334
0.030320 0.507580 0.849640
0.076279 0.508328 0.846276
0.192550 0.509075 0.842913
0.355696 0.509822 0.839549
0.542280 0.510570 0.836185
0.728864 0.511317 0.832821
0.892010 0.512065 0.829458
1.000000 0.512813 0.826094
1.000000 0.513560 0.822730
0.036190 0.692641 0.843036
0.082149 0.693389 0.839673
0.198420 0.694136 0.836309
0.361566 0.694884 0.832945
0.548150 0.695631 0.829581
0.734734 0.696379 0.826218
0.897880 0.697126 0.822854
1.000000 0.697874 0.819490
1.000000 0.698621 0.816126
0.042060 0.854265 0.836433
0.088019 0.855012 0.833069
0.204290 0.855760 0.829705
0.367436 0.856507 0.826341
0.554020 0.857255 0.822977
0.740604 0.858003 0.819614
0.903750 0.858750 0.816250
1.000000 0.859498 0.812886
1.000000 0.860245 0.809522
0.047930 0.969014 0.829829
0.093889 0.969761 0.826465
0.210160 0.970509 0.823101
0.373306 0.971256 0.819737
0.559890 0.972004 0.816374
0.746474 0.972751 0.813010
0.909620 0.973499 0.809646
1.000000 0.974246 0.806282
1.000000 0.974994 0.802919
0.053800 1.000000 0.823225
0.099759 1.000000 0.819861
0.216030 1.000000 0.816497
0.379176 1.000000 0.813134
0.565760 1.000000 0.809770
0.752344 1.000000 0.806406
0.915490 1.000000 0.803042
1.000000 1.000000 0.799679
1.000000 1.000000 0.796315
0.007980 0.001995 0.988054
0.053939 0.002743 0.984690
0.170210 0.003490 0.981326
0.333356 0.004237 0.977963
0.519940 0.004985 0.974599
0.706524 0.005733 0.971235
0.869670 0.006480 0.967871
0.985941 0.007228 0.964508
1.000000 0.007975 0.961144
0.013850 0.046431 0.981450
0.059809 0.047179 0.978086
0.176080 0.047926 0.974723
0.339226 0.048674 0.971359
0.525810 0.049421 0.967995
0.712394 0.050169 0.964631
0.875540 0.050916 0.961268
0.991811 0.051664 0.957904
1.000000 0.052411 0.954540
0.019720 0.161180 0.974846
0.065679 0.161928 0.971483
0.181950 0.162675 0.968119
0.345096 0.163422 0.964755
0.531680 0.164170 0.961391
0.718264 0.164917 0.958028
0.881410 0.165665 0.954664
0.997681 0.166412 0.951300
1.000000 0.167160 0.947936
0.025590 0.322804 0.968243
0.071549 0.323551 0.964879
0.187820 0.324299 0.961515
0.350966 0.325046 0.958151
0.537550 0.325794 0.954788
0.724134 0.326541 0.951424
0.887280 0.327289 0.948060
1.000000 0.328036 0.944696
1.000000 0.328784 0.941332
0.031460 0.507865 0.961639
0.077419 0.508613 0.958275
0.193690 0.509360 0.954911
0.356836 0.510108 0.951548
0.543420 0.510855 0.948184
0.730004 0.511602 0.944820
0.893150 0.512350 0.941456
1.000000 0.513097 0.938092
1.000000 0.513845 0.934729
0.037330 0.692926 0.955035
0.083289 0.693674 0.951671
0.199560 0.694421 0.948308
0.362706 0.695169 0.944944
0.549290 0.695916 0.941580
0.735874 0.696664 0.938216
0.899020 0.697411 0.934852
1.000000 0.698159 0.931489
1.000000 0.698906 0.928125
0.043200 0.854550 0.948431
0.089159 0.855298 0.945067
0.205430 0.856045 0.941704
0.368576 0.856792 0.938340
0.555160 0.857540 0.934976
0.741744 0.858287 0.931612
0.904890 0.859035 0.928249
1.000000 0.859783 0.924885
1.000000 0.860530 0.921521
0.049070 0.969299 0.941827
0.095029 0.970046 0.938464
0.211300 0.970794 0.935100
0.374446 0.971541 0.931736
0.561030 0.972289 0.928372
0.747614 0.973036 0.925009
0.910760 0.973784 0.921645
1.000000 0.974531 0.918281
1.000000 0.975279 0.914917
0.054940 1.000000 0.935224
0.100899 1.000000 0.931860
0.217170 1.000000 0.928496
0.380316 1.000000 0.925133
0.566900 1.000000 0.921769
0.753484 1.000000 0.918405
0.916630 1.000000 0.915041
1.000000 1.000000 0.911678
1.000000 1.000000 0.908314
0.009120 0.002280 1.000000
0.055079 0.003028 1.000000
0.171350 0.003775 1.000000
0.334496 0.004523 1.000000
0.521080 0.005270 1.000000
0.707664 0.006018 1.000000
0.870810 0.006765 1.000000
0.987081 0.007513 1.000000
1.000000 0.008260 1.000000
0.014990 0.046716 1.000000
0.060949 0.047464 1.000000
0.177220 0.048211 1.000000
0.340366 0.048959 1.000000
0.526950 0.049706 1.000000
0.713534 0.050454 1.000000
0.876680 0.051201 1.000000
0.992951 0.051949 0.999590
1.000000 0.052696 0.996226
0.020860 0.161465 1.000000
0.066819 0.162213 1.000000
0.183090 0.162960 1.000000
0.346236 0.163708 1.000000
0.532820 0.164455 1.000000
0.719404 0.165203 0.999714
0.882550 0.165950 0.996350
0.998821 0.166697 0.992986
1.000000 0.167445 0.989622
0.026730 0.323089 1.000000
0.072689 0.323836 1.000000
0.188960 0.324584 1.000000
0.352106 0.325331 0.999838
0.538690 0.326079 0.996474
0.725274 0.326826 0.993110
0.888420 0.327574 0.989746
1.000000 0.328321 0.986383
1.000000 0.329069 0.983019
0.032600 0.508150 1.000000
0.078559 0.508898 0.999961
0.194830 0.509645 0.996598
0.357976 0.510393 0.993234
0.544560 0.511140 0.989870
0.731144 0.511888 0.986506
0.894290 0.512635 0.983143
1.000000 0.513382 0.979779
1.000000 0.514130 0.976415
0.038470 0.693211 0.996721
0.084429 0.693959 0.993358
0.200700 0.694706 0.989994
0.363846 0.695454 0.986630
0.550430 0.696201 0.983266
0.737014 0.696949 0.979903
0.900160 0.697696 0.976539
1.000000 0.698444 0.973175
1.000000 0.699191 0.969811
0.044340 0.854835 0.990117
0.090299 0.855583 0.986754
0.206570 0.856330 0.983390
0.369716 0.857078 0.980026
0.556300 0.857825 0.976662
0.742884 0.858572 0.973299
0.906030 0.859320 0.969935
1.000000 0.860067 0.966571
1.000000 0.860815 0.963207
0.050210 0.969584 0.983514
0.096169 0.970331 0.980150
0.212440 0.971079 0.976786
0.375586 0.971826 0.973423
0.562170 0.972574 0.970059
0.748754 0.973321 0.966695
0.911900 0.974069 0.963331
1.000000 0.974816 0.959968
1.000000 0.975564 0.956604
0.056080 1.000000 0.976910
0.102039 1.000000 0.973546
0.218310 1.000000 0.970183
0.381456 1.000000 0.966819
0.568040 1.000000 0.963455
0.754624 1.000000 0.960091
0.917770 1.000000 0.956728
1.000000 1.000000 0.953364
1.000000 1.000000 0.950000
