Server/IGTracker/desktop_spoofer/luts/Moody_Contrast.cube
# Cube LUT created for IGTracker
TITLE "Moody Contrast"
LUT_3D_SIZE 9
0.000000 0.000000 0.000000
0.081671 0.003737 0.003737
0.186519 0.007475 0.007475
0.302465 0.011213 0.011213
0.426285 0.014950 0.014950
0.556323 0.018687 0.018687
0.691547 0.022425 0.022425
0.831247 0.026163 0.026163
0.974900 0.029900 0.029900
0.007337 0.085271 0.007337
0.089008 0.089008 0.011075
0.193857 0.092746 0.014813
0.309802 0.096483 0.018550
0.433623 0.100221 0.022287
0.563660 0.103958 0.026025
0.698885 0.107696 0.029762
0.838585 0.111433 0.033500
0.982238 0.115171 0.037237
0.014675 0.193719 0.014675
0.096346 0.197457 0.018412
0.201194 0.201194 0.022150
0.317140 0.204932 0.025887
0.440960 0.208669 0.029625
0.570998 0.212407 0.033362
0.706222 0.216144 0.037100
0.845922 0.219882 0.040837
0.989575 0.223619 0.044575
0.022012 0.313265 0.022012
0.103683 0.317002 0.025750
0.208532 0.320740 0.029487
0.324477 0.324477 0.033225
0.448298 0.328215 0.036963
0.578335 0.331952 0.040700
0.713560 0.335690 0.044437
0.853260 0.339427 0.048175
0.996913 0.343165 0.051912
0.029350 0.440685 0.029350
0.111021 0.444423 0.033087
0.215869 0.448160 0.036825
0.331815 0.451898 0.040563
0.455635 0.455635 0.044300
0.585673 0.459373 0.048038
0.720897 0.463110 0.051775
0.860597 0.466848 0.055512
1.000000 0.470585 0.059250
0.036687 0.574323 0.036687
0.118358 0.578060 0.040425
0.223207 0.581798 0.044162
0.339152 0.585535 0.047900
0.462973 0.589273 0.051638
0.593010 0.593010 0.055375
0.728235 0.596748 0.059113
0.867935 0.600485 0.062850
1.000000 0.604223 0.066588
0.044025 0.713147 0.044025
0.125696 0.716885 0.047762
0.230544 0.720622 0.051500
0.346490 0.724360 0.055237
0.470310 0.728097 0.058975
0.600348 0.731835 0.062712
0.735572 0.735572 0.066450
0.875272 0.739310 0.070187
1.000000 0.743047 0.073925
0.051362 0.856447 0.051362
0.133033 0.860185 0.055100
0.237882 0.863922 0.058837
0.353827 0.867660 0.062575
0.477648 0.871397 0.066312
0.607685 0.875135 0.070050
0.742910 0.878872 0.073788
0.882610 0.882610 0.077525
1.000000 0.886347 0.081263
0.058700 1.000000 0.058700
0.140371 1.000000 0.062438
0.245219 1.000000 0.066175
0.361165 1.000000 0.069912
0.484985 1.000000 0.073650
0.615023 1.000000 0.077387
0.750247 1.000000 0.081125
0.889947 1.000000 0.084862
1.000000 1.000000 0.088600
0.001425 0.001425 0.081585
0.083096 0.005163 0.085323
0.187944 0.008900 0.089060
0.303890 0.012637 0.092798
0.427710 0.016375 0.096535
0.557748 0.020113 0.100273
0.692972 0.023850 0.104010
0.832672 0.027587 0.107748
0.976325 0.031325 0.111485
0.008762 0.086696 0.088923
0.090433 0.090433 0.092660
0.195282 0.094171 0.096398
0.311227 0.097908 0.100135
0.435048 0.101646 0.103873
0.565085 0.105383 0.107610
0.700310 0.109121 0.111348
0.840010 0.112858 0.115085
0.983663 0.116596 0.118823
0.016100 0.195144 0.096260
0.097771 0.198882 0.099998
0.202619 0.202619 0.103735
0.318565 0.206357 0.107473
0.442385 0.210094 0.111210
0.572423 0.213832 0.114948
0.707647 0.217569 0.118685
0.847347 0.221307 0.122423
0.991000 0.225044 0.126160
0.023438 0.314690 0.103598
0.105108 0.318427 0.107335
0.209957 0.322165 0.111073
0.325902 0.325902 0.114810
0.449723 0.329640 0.118548
0.579760 0.333377 0.122285
0.714985 0.337115 0.126023
0.854685 0.340852 0.129760
0.998338 0.344590 0.133498
0.030775 0.442110 0.110935
0.112446 0.445848 0.114673
0.217294 0.449585 0.118410
0.333240 0.453323 0.122148
0.457060 0.457060 0.125885
0.587098 0.460798 0.129623
0.722322 0.464535 0.133360
0.862022 0.468273 0.137098
1.000000 0.472010 0.140835
0.038112 0.575748 0.118273
0.119783 0.579485 0.122010
0.224632 0.583223 0.125748
0.340577 0.586960 0.129485
0.464398 0.590698 0.133223
0.594435 0.594435 0.136960
0.729660 0.598173 0.140698
0.869360 0.601910 0.144435
1.000000 0.605648 0.148173
0.045450 0.714572 0.125610
0.127121 0.718310 0.129348
0.231969 0.722047 0.133085
0.347915 0.725785 0.136823
0.471735 0.729522 0.140560
0.601773 0.733260 0.144298
0.736997 0.736997 0.148035
0.876697 0.740735 0.151773
1.000000 0.744472 0.155510
0.052787 0.857872 0.132948
0.134458 0.861610 0.136685
0.239307 0.865347 0.140423
0.355252 0.869085 0.144160
0.479073 0.872822 0.147898
0.609110 0.876560 0.151635
0.744335 0.880297 0.155373
0.884035 0.884035 0.159110
1.000000 0.887772 0.162848
0.060125 1.000000 0.140285
0.141796 1.000000 0.144023
0.246644 1.000000 0.147760
0.362590 1.000000 0.151498
0.486410 1.000000 0.155235
0.616448 1.000000 0.158973
0.751672 1.000000 0.162710
0.891372 1.000000 0.166448
1.000000 1.000000 0.170185
0.002850 0.002850 0.187010
0.084521 0.006587 0.190747
0.189369 0.010325 0.194485
0.305315 0.014063 0.198222
0.429135 0.017800 0.201960
0.559173 0.021537 0.205697
0.694397 0.025275 0.209435
0.834097 0.029012 0.213172
0.977750 0.032750 0.216910
0.010188 0.088121 0.194347
0.091858 0.091858 0.198085
0.196707 0.095596 0.201822
0.312652 0.099333 0.205560
0.436473 0.103071 0.209297
0.566510 0.106808 0.213035
0.701735 0.110546 0.216772
0.841435 0.114283 0.220510
0.985088 0.118021 0.224247
0.017525 0.196569 0.201685
0.099196 0.200307 0.205422
0.204044 0.204044 0.209160
0.319990 0.207782 0.212897
0.443810 0.211519 0.216635
0.573848 0.215257 0.220372
0.709072 0.218994 0.224110
0.848772 0.222732 0.227847
0.992425 0.226469 0.231585
0.024862 0.316115 0.209022
0.106533 0.319852 0.212760
0.211382 0.323590 0.216497
0.327327 0.327327 0.220235
0.451148 0.331065 0.223972
0.581185 0.334802 0.227710
0.716410 0.338540 0.231447
0.856110 0.342277 0.235185
0.999763 0.346015 0.238922
0.032200 0.443535 0.216360
0.113871 0.447273 0.220097
0.218719 0.451010 0.223835
0.334665 0.454748 0.227572
0.458485 0.458485 0.231310
0.588523 0.462223 0.235047
0.723747 0.465960 0.238785
0.863447 0.469698 0.242522
1.000000 0.473435 0.246260
0.039538 0.577173 0.223697
0.121208 0.580910 0.227435
0.226057 0.584648 0.231172
0.342002 0.588385 0.234910
0.465823 0.592123 0.238647
0.595860 0.595860 0.242385
0.731085 0.599598 0.246122
0.870785 0.603335 0.249860
1.000000 0.607073 0.253597
0.046875 0.715997 0.231035
0.128546 0.719735 0.234772
0.233394 0.723472 0.238510
0.349340 0.727210 0.242247
0.473160 0.730947 0.245985
0.603198 0.734685 0.249722
0.738422 0.738422 0.253460
0.878122 0.742160 0.257197
1.000000 0.745897 0.260935
0.054212 0.859297 0.238372
0.135883 0.863035 0.242110
0.240732 0.866772 0.245847
0.356677 0.870510 0.249585
0.480498 0.874247 0.253322
0.610535 0.877985 0.257060
0.745760 0.881722 0.260797
0.885460 0.885460 0.264535
1.000000 0.889197 0.268272
0.061550 1.000000 0.245710
0.143221 1.000000 0.249447
0.248069 1.000000 0.253185
0.364015 1.000000 0.256922
0.487835 1.000000 0.260660
0.617873 1.000000 0.264397
0.753097 1.000000 0.268135
0.892797 1.000000 0.271872
1.000000 1.000000 0.275610
0.004275 0.004275 0.303849
0.085946 0.008012 0.307586
0.190794 0.011750 0.311324
0.306740 0.015487 0.315061
0.430560 0.019225 0.318799
0.560598 0.022962 0.322536
0.695822 0.026700 0.326274
0.835522 0.030438 0.330011
0.979175 0.034175 0.333749
0.011612 0.089546 0.311186
0.093283 0.093283 0.314924
0.198132 0.097021 0.318661
0.314077 0.100758 0.322399
0.437898 0.104496 0.326136
0.567935 0.108233 0.329874
0.703160 0.111971 0.333611
0.842860 0.115708 0.337349
0.986513 0.119446 0.341086
0.018950 0.197994 0.318524
0.100621 0.201732 0.322261
0.205469 0.205469 0.325999
0.321415 0.209207 0.329736
0.445235 0.212944 0.333474
0.575273 0.216682 0.337211
0.710497 0.220419 0.340949
0.850197 0.224157 0.344686
0.993850 0.227894 0.348424
0.026287 0.317540 0.325861
0.107958 0.321277 0.329599
0.212807 0.325015 0.333336
0.328752 0.328752 0.337074
0.452573 0.332490 0.340811
0.582610 0.336227 0.344549
0.717835 0.339965 0.348286
0.857535 0.343702 0.352024
1.000000 0.347440 0.355761
0.033625 0.444960 0.333199
0.115296 0.448698 0.336936
0.220144 0.452435 0.340674
0.336090 0.456173 0.344411
0.459910 0.459910 0.348149
0.589948 0.463648 0.351886
0.725172 0.467385 0.355624
0.864872 0.471123 0.359361
1.000000 0.474860 0.363099
0.040963 0.578598 0.340536
0.122633 0.582335 0.344274
0.227482 0.586073 0.348011
0.343427 0.589810 0.351749
0.467248 0.593548 0.355486
0.597285 0.597285 0.359224
0.732510 0.601023 0.362961
0.872210 0.604760 0.366699
1.000000 0.608498 0.370436
0.048300 0.717422 0.347874
0.129971 0.721160 0.351611
0.234819 0.724897 0.355349
0.350765 0.728635 0.359086
0.474585 0.732372 0.362824
0.604623 0.736110 0.366561
0.739847 0.739847 0.370299
0.879547 0.743585 0.374036
1.000000 0.747322 0.377774
0.055638 0.860722 0.355211
0.137308 0.864460 0.358949
0.242157 0.868197 0.362686
0.358102 0.871935 0.366424
0.481923 0.875672 0.370161
0.611960 0.879410 0.373899
0.747185 0.883147 0.377636
0.886885 0.886885 0.381374
1.000000 0.890622 0.385111
0.062975 1.000000 0.362549
0.144646 1.000000 0.366286
0.249494 1.000000 0.370024
0.365440 1.000000 0.373761
0.489260 1.000000 0.377499
0.619298 1.000000 0.381236
0.754522 1.000000 0.384974
0.894222 1.000000 0.388711
1.000000 1.000000 0.392449
0.005700 0.005700 0.428788
0.087371 0.009438 0.432525
0.192219 0.013175 0.436263
0.308165 0.016912 0.440000
0.431985 0.020650 0.443738
0.562023 0.024388 0.447475
0.697247 0.028125 0.451213
0.836947 0.031863 0.454950
0.980600 0.035600 0.458688
0.013037 0.090971 0.436125
0.094708 0.094708 0.439863
0.199557 0.098446 0.443600
0.315502 0.102183 0.447338
0.439323 0.105921 0.451075
0.569360 0.109658 0.454813
0.704585 0.113396 0.458550
0.844285 0.117133 0.462288
0.987937 0.120871 0.466025
0.020375 0.199419 0.443463
0.102046 0.203157 0.447200
0.206894 0.206894 0.450938
0.322840 0.210632 0.454675
0.446660 0.214369 0.458413
0.576698 0.218107 0.462150
0.711922 0.221844 0.465888
0.851622 0.225582 0.469625
0.995275 0.229319 0.473363
0.027713 0.318965 0.450800
0.109383 0.322702 0.454538
0.214232 0.326440 0.458275
0.330177 0.330177 0.462013
0.453998 0.333915 0.465750
0.584035 0.337652 0.469488
0.719260 0.341390 0.473225
0.858960 0.345127 0.476963
1.000000 0.348865 0.480700
0.035050 0.446385 0.458138
0.116721 0.450123 0.461875
0.221569 0.453860 0.465613
0.337515 0.457598 0.469350
0.461335 0.461335 0.473088
0.591373 0.465073 0.476825
0.726597 0.468810 0.480563
0.866297 0.472548 0.484300
1.000000 0.476285 0.488038
0.042387 0.580023 0.465475
0.124058 0.583760 0.469213
0.228907 0.587498 0.472950
0.344852 0.591235 0.476688
0.468673 0.594973 0.480425
0.598710 0.598710 0.484163
0.733935 0.602448 0.487900
0.873635 0.606185 0.491638
1.000000 0.609923 0.495375
0.049725 0.718847 0.472813
0.131396 0.722585 0.476550
0.236244 0.726322 0.480288
0.352190 0.730060 0.484025
0.476010 0.733797 0.487763
0.606048 0.737535 0.491500
0.741272 0.741272 0.495238
0.880972 0.745010 0.498975
1.000000 0.748747 0.502713
0.057063 0.862147 0.480150
0.138733 0.865885 0.483888
0.243582 0.869622 0.487625
0.359527 0.873360 0.491363
0.483348 0.877097 0.495100
0.613385 0.880835 0.498838
0.748610 0.884572 0.502575
0.888310 0.888310 0.506313
1.000000 0.892047 0.510050
0.064400 1.000000 0.487488
0.146071 1.000000 0.491225
0.250919 1.000000 0.494963
0.366865 1.000000 0.498700
0.490685 1.000000 0.502438
0.620723 1.000000 0.506175
0.755947 1.000000 0.509913
0.895647 1.000000 0.513650
1.000000 1.000000 0.517388
0.007125 0.007125 0.560121
0.088796 0.010862 0.563859
0.193644 0.014600 0.567596
0.309590 0.018338 0.571334
0.433410 0.022075 0.575071
0.563448 0.025812 0.578809
0.698672 0.029550 0.582546
0.838372 0.033287 0.586284
0.982025 0.037025 0.590021
0.014462 0.092396 0.567459
0.096133 0.096133 0.571196
0.200982 0.099871 0.574934
0.316927 0.103608 0.578671
0.440748 0.107346 0.582409
0.570785 0.111083 0.586146
0.706010 0.114821 0.589884
0.845710 0.118558 0.593621
0.989363 0.122296 0.597359
0.021800 0.200844 0.574796
0.103471 0.204582 0.578534
0.208319 0.208319 0.582271
0.324265 0.212057 0.586009
0.448085 0.215794 0.589746
0.578123 0.219532 0.593484
0.713347 0.223269 0.597221
0.853047 0.227007 0.600959
0.996700 0.230744 0.604696
0.029137 0.320390 0.582134
0.110808 0.324127 0.585871
0.215657 0.327865 0.589609
0.331602 0.331602 0.593346
0.455423 0.335340 0.597084
0.585460 0.339077 0.600821
0.720685 0.342815 0.604559
0.860385 0.346552 0.608296
1.000000 0.350290 0.612034
0.036475 0.447810 0.589471
0.118146 0.451548 0.593209
0.222994 0.455285 0.596946
0.338940 0.459023 0.600684
0.462760 0.462760 0.604421
0.592798 0.466498 0.608159
0.728022 0.470235 0.611896
0.867722 0.473973 0.615634
1.000000 0.477710 0.619371
0.043812 0.581448 0.596809
0.125483 0.585185 0.600546
0.230332 0.588923 0.604284
0.346277 0.592660 0.608021
0.470098 0.596398 0.611759
0.600135 0.600135 0.615496
0.735360 0.603873 0.619234
0.875060 0.607610 0.622971
1.000000 0.611348 0.626709
0.051150 0.720272 0.604146
0.132821 0.724010 0.607884
0.237669 0.727747 0.611621
0.353615 0.731485 0.615359
0.477435 0.735222 0.619096
0.607473 0.738960 0.622834
0.742697 0.742697 0.626571
0.882397 0.746435 0.630309
1.000000 0.750172 0.634046
0.058488 0.863572 0.611484
0.140158 0.867310 0.615221
0.245007 0.871047 0.618959
0.360952 0.874785 0.622696
0.484773 0.878522 0.626434
0.614810 0.882260 0.630171
0.750035 0.885997 0.633909
0.889735 0.889735 0.637646
1.000000 0.893472 0.641384
0.065825 1.000000 0.618821
0.147496 1.000000 0.622559
0.252344 1.000000 0.626296
0.368290 1.000000 0.630034
0.492110 1.000000 0.633771
0.622148 1.000000 0.637509
0.757372 1.000000 0.641246
0.897072 1.000000 0.644984
1.000000 1.000000 0.648721
0.008550 0.008550 0.696790
0.090221 0.012287 0.700527
0.195069 0.016025 0.704265
0.311015 0.019762 0.708002
0.434835 0.023500 0.711740
0.564873 0.027237 0.715477
0.700097 0.030975 0.719215
0.839797 0.034712 0.722952
0.983450 0.038450 0.726690
0.015887 0.093821 0.704127
0.097558 0.097558 0.707865
0.202407 0.101296 0.711602
0.318352 0.105033 0.715340
0.442173 0.108771 0.719077
0.572210 0.112508 0.722815
0.707435 0.116246 0.726552
0.847135 0.119983 0.730290
0.990788 0.123721 0.734027
0.023225 0.202269 0.711465
0.104896 0.206007 0.715202
0.209744 0.209744 0.718940
0.325690 0.213482 0.722677
0.449510 0.217219 0.726415
0.579548 0.220957 0.730152
0.714772 0.224694 0.733890
0.854472 0.228432 0.737627
0.998125 0.232169 0.741365
0.030562 0.321815 0.718802
0.112233 0.325552 0.722540
0.217082 0.329290 0.726277
0.333027 0.333027 0.730015
0.456848 0.336765 0.733752
0.586885 0.340502 0.737490
0.722110 0.344240 0.741227
0.861810 0.347977 0.744965
1.000000 0.351715 0.748702
0.037900 0.449235 0.726140
0.119571 0.452973 0.729877
0.224419 0.456710 0.733615
0.340365 0.460448 0.737352
0.464185 0.464185 0.741090
0.594223 0.467923 0.744827
0.729447 0.471660 0.748565
0.869147 0.475398 0.752302
1.000000 0.479135 0.756040
0.045237 0.582873 0.733477
0.126908 0.586610 0.737215
0.231757 0.590348 0.740952
0.347702 0.594085 0.744690
0.471523 0.597823 0.748427
0.601560 0.601560 0.752165
0.736785 0.605298 0.755902
0.876485 0.609035 0.759640
1.000000 0.612773 0.763377
0.052575 0.721697 0.740815
0.134246 0.725435 0.744552
0.239094 0.729172 0.748290
0.355040 0.732910 0.752027
0.478860 0.736647 0.755765
0.608898 0.740385 0.759502
0.744122 0.744122 0.763240
0.883822 0.747860 0.766977
1.000000 0.751597 0.770715
0.059913 0.864997 0.748152
0.141583 0.868735 0.751890
0.246432 0.872472 0.755627
0.362377 0.876210 0.759365
0.486198 0.879947 0.763102
0.616235 0.883685 0.766840
0.751460 0.887422 0.770577
0.891160 0.891160 0.774315
1.000000 0.894897 0.778052
0.067250 1.000000 0.755490
0.148921 1.000000 0.759227
0.253769 1.000000 0.762965
0.369715 1.000000 0.766702
0.493535 1.000000 0.770440
0.623573 1.000000 0.774177
0.758797 1.000000 0.777915
0.898497 1.000000 0.781652
1.000000 1.000000 0.785390
0.009975 0.009975 0.838062
0.091646 0.013713 0.841799
0.196494 0.017450 0.845537
0.312440 0.021187 0.849274
0.436260 0.024925 0.853012
0.566298 0.028662 0.856749
0.701522 0.032400 0.860487
0.841222 0.036137 0.864224
0.984875 0.039875 0.867962
0.017313 0.095246 0.845399
0.098983 0.098983 0.849137
0.203832 0.102721 0.852874
0.319777 0.106458 0.856612
0.443598 0.110196 0.860349
0.573635 0.113933 0.864087
0.708860 0.117671 0.867824
0.848560 0.121408 0.871562
0.992213 0.125146 0.875299
0.024650 0.203694 0.852737
0.106321 0.207432 0.856474
0.211169 0.211169 0.860212
0.327115 0.214907 0.863949
0.450935 0.218644 0.867687
0.580973 0.222382 0.871424
0.716197 0.226119 0.875162
0.855897 0.229857 0.878899
0.999550 0.233594 0.882637
0.031988 0.323240 0.860074
0.113658 0.326977 0.863812
0.218507 0.330715 0.867549
0.334452 0.334452 0.871287
0.458273 0.338190 0.875024
0.588310 0.341927 0.878762
0.723535 0.345665 0.882499
0.863235 0.349402 0.886237
1.000000 0.353140 0.889974
0.039325 0.450660 0.867412
0.120996 0.454398 0.871149
0.225844 0.458135 0.874887
0.341790 0.461873 0.878624
0.465610 0.465610 0.882362
0.595648 0.469348 0.886099
0.730872 0.473085 0.889837
0.870572 0.476823 0.893574
1.000000 0.480560 0.897312
0.046662 0.584298 0.874749
0.128333 0.588035 0.878487
0.233182 0.591773 0.882224
0.349127 0.595510 0.885962
0.472948 0.599248 0.889699
0.602985 0.602985 0.893437
0.738210 0.606723 0.897174
0.877910 0.610460 0.900912
1.000000 0.614198 0.904649
0.054000 0.723122 0.882087
0.135671 0.726860 0.885824
0.240519 0.730597 0.889562
0.356465 0.734335 0.893299
0.480285 0.738072 0.897037
0.610323 0.741810 0.900774
0.745547 0.745547 0.904512
0.885247 0.749285 0.908249
1.000000 0.753022 0.911987
0.061337 0.866422 0.889424
0.143008 0.870160 0.893162
0.247857 0.873897 0.896899
0.363802 0.877635 0.900637
0.487623 0.881372 0.904374
0.617660 0.885110 0.908112
0.752885 0.888847 0.911849
0.892585 0.892585 0.915587
1.000000 0.896322 0.919324
0.068675 1.000000 0.896762
0.150346 1.000000 0.900499
0.255194 1.000000 0.904237
0.371140 1.000000 0.907974
0.494960 1.000000 0.911712
0.624998 1.000000 0.915449
0.760222 1.000000 0.919187
0.899922 1.000000 0.922924
1.000000 1.000000 0.926662
0.011400 0.011400 0.983400
0.093071 0.015137 0.987138
0.197919 0.018875 0.990875
0.313865 0.022613 0.994613
0.437685 0.026350 0.998350
0.567723 0.030087 1.000000
0.702947 0.033825 1.000000
0.842647 0.037562 1.000000
0.986300 0.041300 1.000000
0.018737 0.096671 0.990738
0.100408 0.100408 0.994475
0.205257 0.104146 0.998213
0.321202 0.107883 1.000000
0.445023 0.111621 1.000000
0.575060 0.115358 1.000000
0.710285 0.119096 1.000000
0.849985 0.122833 1.000000
0.993638 0.126571 1.000000
0.026075 0.205119 0.998075
0.107746 0.208857 1.000000
0.212594 0.212594 1.000000
0.328540 0.216332 1.000000
0.452360 0.220069 1.000000
0.582398 0.223807 1.000000
0.717622 0.227544 1.000000
0.857322 0.231282 1.000000
1.000000 0.235019 1.000000
0.033413 0.324665 1.000000
0.115083 0.328402 1.000000
0.219932 0.332140 1.000000
0.335877 0.335877 1.000000
0.459698 0.339615 1.000000
0.589735 0.343352 1.000000
0.724960 0.347090 1.000000
0.864660 0.350827 1.000000
1.000000 0.354565 1.000000
0.040750 0.452085 1.000000
0.122421 0.455823 1.000000
0.227269 0.459560 1.000000
0.343215 0.463298 1.000000
0.467035 0.467035 1.000000
0.597073 0.470773 1.000000
0.732297 0.474510 1.000000
0.871997 0.478248 1.000000
1.000000 0.481985 1.000000
0.048088 0.585723 1.000000
0.129758 0.589460 1.000000
0.234607 0.593198 1.000000
0.350552 0.596935 1.000000
0.474373 0.600673 1.000000
0.604410 0.604410 1.000000
0.739635 0.608148 1.000000
0.879335 0.611885 1.000000
1.000000 0.615623 1.000000
0.055425 0.724547 1.000000
0.137096 0.728285 1.000000
0.241944 0.732022 1.000000
0.357890 0.735760 1.000000
0.481710 0.739497 1.000000
0.611748 0.743235 1.000000
0.746972 0.746972 1.000000
0.886672 0.750710 1.000000
1.000000 0.754447 1.000000
0.062762 0.867847 1.000000
0.144433 0.871585 1.000000
0.249282 0.875322 1.000000
0.365227 0.879060 1.000000
0.489048 0.882797 1.000000
0.619085 0.886535 1.000000
0.754310 0.890272 1.000000
0.894010 0.894010 1.000000
1.000000 0.897747 1.000000
0.070100 1.000000 1.000000
0.151771 1.000000 1.000000
0.256619 1.000000 1.000000
0.372565 1.000000 1.000000
0.496385 1.000000 1.000000
0.626423 1.000000 1.000000
0.761647 1.000000 1.000000
0.901347 1.000000 1.000000
1.000000 1.000000 1.000000
