Server/IGTracker/desktop_spoofer/luts/Moody_Contrast.cube
# Cube LUT created for IGTracker
TITLE "Moody Contrast"
LUT_3D_SIZE 17
0.000000 0.000000 0.000000
0.035791 0.001869 0.001869
0.081671 0.003737 0.003737
0.132381 0.005606 0.005606
0.186519 0.007475 0.007475
0.243363 0.009344 0.009344
0.302465 0.011213 0.011213
0.363515 0.013081 0.013081
0.426285 0.014950 0.014950
0.490601 0.016819 0.016819
0.556323 0.018687 0.018687
0.623337 0.020556 0.020556
0.691547 0.022425 0.022425
0.760874 0.024294 0.024294
0.831247 0.026163 0.026163
0.902607 0.028031 0.028031
0.974900 0.029900 0.029900
0.003669 0.037591 0.003669
0.039460 0.039460 0.005538
0.085340 0.041329 0.007406
0.136050 0.043197 0.009275
0.190188 0.045066 0.011144
0.247032 0.046935 0.013012
0.306134 0.048804 0.014881
0.367183 0.050672 0.016750
0.429954 0.052541 0.018619
0.494270 0.054410 0.020487
0.559992 0.056279 0.022356
0.627005 0.058147 0.024225
0.695216 0.060016 0.026094
0.764542 0.061885 0.027963
0.834916 0.063754 0.029831
0.906276 0.065622 0.031700
0.978569 0.067491 0.033569
0.007337 0.085271 0.007337
0.043129 0.087140 0.009206
0.089008 0.089008 0.011075
0.139719 0.090877 0.012944
0.193857 0.092746 0.014813
0.250701 0.094615 0.016681
0.309802 0.096483 0.018550
0.370852 0.098352 0.020419
0.433623 0.100221 0.022287
0.497939 0.102090 0.024156
0.563660 0.103958 0.026025
0.630674 0.105827 0.027894
0.698885 0.107696 0.029762
0.768211 0.109565 0.031631
0.838585 0.111433 0.033500
0.909944 0.113302 0.035369
0.982238 0.115171 0.037237
0.011006 0.137781 0.011006
0.046797 0.139650 0.012875
0.092677 0.141519 0.014744
0.143387 0.143387 0.016613
0.197525 0.145256 0.018481
0.254369 0.147125 0.020350
0.313471 0.148994 0.022219
0.374521 0.150862 0.024087
0.437291 0.152731 0.025956
0.501607 0.154600 0.027825
0.567329 0.156469 0.029694
0.634343 0.158337 0.031562
0.702553 0.160206 0.033431
0.771880 0.162075 0.035300
0.842253 0.163944 0.037169
0.913613 0.165812 0.039038
0.985906 0.167681 0.040906
0.014675 0.193719 0.014675
0.050466 0.195588 0.016544
0.096346 0.197457 0.018412
0.147056 0.199325 0.020281
0.201194 0.201194 0.022150
0.258038 0.203063 0.024019
0.317140 0.204932 0.025887
0.378190 0.206800 0.027756
0.440960 0.208669 0.029625
0.505276 0.210538 0.031494
0.570998 0.212407 0.033362
0.638012 0.214275 0.035231
0.706222 0.216144 0.037100
0.775549 0.218013 0.038969
0.845922 0.219882 0.040837
0.917282 0.221750 0.042706
0.989575 0.223619 0.044575
0.018344 0.252363 0.018344
0.054135 0.254232 0.020212
0.100015 0.256101 0.022081
0.150725 0.257969 0.023950
0.204863 0.259838 0.025819
0.261707 0.261707 0.027688
0.320809 0.263576 0.029556
0.381858 0.265444 0.031425
0.444629 0.267313 0.033294
0.508945 0.269182 0.035162
0.574667 0.271051 0.037031
0.641680 0.272919 0.038900
0.709891 0.274788 0.040769
0.779217 0.276657 0.042637
0.849591 0.278526 0.044506
0.920951 0.280394 0.046375
0.993244 0.282263 0.048244
0.022012 0.313265 0.022012
0.057804 0.315134 0.023881
0.103683 0.317002 0.025750
0.154394 0.318871 0.027619
0.208532 0.320740 0.029487
0.265376 0.322609 0.031356
0.324477 0.324477 0.033225
0.385527 0.326346 0.035094
0.448298 0.328215 0.036963
0.512614 0.330084 0.038831
0.578335 0.331952 0.040700
0.645349 0.333821 0.042569
0.713560 0.335690 0.044437
0.782886 0.337559 0.046306
0.853260 0.339427 0.048175
0.924619 0.341296 0.050044
0.996913 0.343165 0.051912
0.025681 0.376115 0.025681
0.061472 0.377983 0.027550
0.107352 0.379852 0.029419
0.158062 0.381721 0.031287
0.212200 0.383590 0.033156
0.269044 0.385458 0.035025
0.328146 0.387327 0.036894
0.389196 0.389196 0.038762
0.451966 0.391065 0.040631
0.516282 0.392933 0.042500
0.582004 0.394802 0.044369
0.649018 0.396671 0.046237
0.717228 0.398540 0.048106
0.786555 0.400408 0.049975
0.856928 0.402277 0.051844
0.928288 0.404146 0.053712
1.000000 0.406015 0.055581
0.029350 0.440685 0.029350
0.065141 0.442554 0.031219
0.111021 0.444423 0.033087
0.161731 0.446291 0.034956
0.215869 0.448160 0.036825
0.272713 0.450029 0.038694
0.331815 0.451898 0.040563
0.392865 0.453766 0.042431
0.455635 0.455635 0.044300
0.519951 0.457504 0.046169
0.585673 0.459373 0.048038
0.652687 0.461241 0.049906
0.720897 0.463110 0.051775
0.790224 0.464979 0.053644
0.860597 0.466848 0.055512
0.931957 0.468716 0.057381
1.000000 0.470585 0.059250
0.033019 0.506801 0.033019
0.068810 0.508670 0.034888
0.114690 0.510539 0.036756
0.165400 0.512407 0.038625
0.219538 0.514276 0.040494
0.276382 0.516145 0.042362
0.335484 0.518014 0.044231
0.396533 0.519882 0.046100
0.459304 0.521751 0.047969
0.523620 0.523620 0.049837
0.589342 0.525489 0.051706
0.656355 0.527357 0.053575
0.724566 0.529226 0.055444
0.793892 0.531095 0.057312
0.864266 0.532964 0.059181
0.935626 0.534832 0.061050
1.000000 0.536701 0.062919
0.036687 0.574323 0.036687
0.072479 0.576192 0.038556
0.118358 0.578060 0.040425
0.169069 0.579929 0.042294
0.223207 0.581798 0.044162
0.280051 0.583667 0.046031
0.339152 0.585535 0.047900
0.400202 0.587404 0.049769
0.462973 0.589273 0.051638
0.527289 0.591142 0.053506
0.593010 0.593010 0.055375
0.660024 0.594879 0.057244
0.728235 0.596748 0.059113
0.797561 0.598617 0.060981
0.867935 0.600485 0.062850
0.939294 0.602354 0.064719
1.000000 0.604223 0.066588
0.040356 0.643137 0.040356
0.076147 0.645005 0.042225
0.122027 0.646874 0.044094
0.172737 0.648743 0.045963
0.226875 0.650612 0.047831
0.283719 0.652480 0.049700
0.342821 0.654349 0.051569
0.403871 0.656218 0.053437
0.466641 0.658087 0.055306
0.530957 0.659955 0.057175
0.596679 0.661824 0.059044
0.663693 0.663693 0.060912
0.731903 0.665562 0.062781
0.801230 0.667430 0.064650
0.871603 0.669299 0.066519
0.942963 0.671168 0.068387
1.000000 0.673037 0.070256
0.044025 0.713147 0.044025
0.079816 0.715016 0.045894
0.125696 0.716885 0.047762
0.176406 0.718753 0.049631
0.230544 0.720622 0.051500
0.287388 0.722491 0.053369
0.346490 0.724360 0.055237
0.407540 0.726228 0.057106
0.470310 0.728097 0.058975
0.534626 0.729966 0.060844
0.600348 0.731835 0.062712
0.667362 0.733703 0.064581
0.735572 0.735572 0.066450
0.804899 0.737441 0.068319
0.875272 0.739310 0.070187
0.946632 0.741178 0.072056
1.000000 0.743047 0.073925
0.047694 0.784274 0.047694
0.083485 0.786142 0.049563
0.129365 0.788011 0.051431
0.180075 0.789880 0.053300
0.234213 0.791749 0.055169
0.291057 0.793617 0.057037
0.350159 0.795486 0.058906
0.411208 0.797355 0.060775
0.473979 0.799224 0.062644
0.538295 0.801092 0.064512
0.604017 0.802961 0.066381
0.671030 0.804830 0.068250
0.739241 0.806699 0.070119
0.808567 0.808567 0.071987
0.878941 0.810436 0.073856
0.950301 0.812305 0.075725
1.000000 0.814174 0.077594
0.051362 0.856447 0.051362
0.087154 0.858316 0.053231
0.133033 0.860185 0.055100
0.183744 0.862053 0.056969
0.237882 0.863922 0.058837
0.294726 0.865791 0.060706
0.353827 0.867660 0.062575
0.414877 0.869528 0.064444
0.477648 0.871397 0.066312
0.541964 0.873266 0.068181
0.607685 0.875135 0.070050
0.674699 0.877003 0.071919
0.742910 0.878872 0.073788
0.812236 0.880741 0.075656
0.882610 0.882610 0.077525
0.953969 0.884478 0.079394
1.000000 0.886347 0.081263
0.055031 0.929607 0.055031
0.090822 0.931476 0.056900
0.136702 0.933344 0.058769
0.187412 0.935213 0.060638
0.241550 0.937082 0.062506
0.298394 0.938951 0.064375
0.357496 0.940819 0.066244
0.418546 0.942688 0.068113
0.481316 0.944557 0.069981
0.545632 0.946426 0.071850
0.611354 0.948294 0.073719
0.678368 0.950163 0.075588
0.746578 0.952032 0.077456
0.815905 0.953901 0.079325
0.886278 0.955769 0.081194
0.957638 0.957638 0.083062
1.000000 0.959507 0.084931
0.058700 1.000000 0.058700
0.094491 1.000000 0.060569
0.140371 1.000000 0.062438
0.191081 1.000000 0.064306
0.245219 1.000000 0.066175
0.302063 1.000000 0.068044
0.361165 1.000000 0.069912
0.422215 1.000000 0.071781
0.484985 1.000000 0.073650
0.549301 1.000000 0.075519
0.615023 1.000000 0.077387
0.682037 1.000000 0.079256
0.750247 1.000000 0.081125
0.819574 1.000000 0.082994
0.889947 1.000000 0.084862
0.961307 1.000000 0.086731
1.000000 1.000000 0.088600
0.000712 0.000712 0.035604
0.036504 0.002581 0.037473
0.082383 0.004450 0.039342
0.133094 0.006319 0.041210
0.187232 0.008188 0.043079
0.244076 0.010056 0.044948
0.303177 0.011925 0.046817
0.364227 0.013794 0.048685
0.426998 0.015662 0.050554
0.491314 0.017531 0.052423
0.557035 0.019400 0.054292
0.624049 0.021269 0.056160
0.692260 0.023138 0.058029
0.761586 0.025006 0.059898
0.831960 0.026875 0.061767
0.903319 0.028744 0.063635
0.975613 0.030612 0.065504
0.004381 0.038304 0.039273
0.040172 0.040172 0.041142
0.086052 0.042041 0.043010
0.136762 0.043910 0.044879
0.190900 0.045779 0.046748
0.247744 0.047647 0.048617
0.306846 0.049516 0.050485
0.367896 0.051385 0.052354
0.430666 0.053254 0.054223
0.494982 0.055122 0.056092
0.560704 0.056991 0.057960
0.627718 0.058860 0.059829
0.695928 0.060729 0.061698
0.765255 0.062597 0.063567
0.835628 0.064466 0.065435
0.906988 0.066335 0.067304
0.979281 0.068204 0.069173
0.008050 0.085983 0.042942
0.043841 0.087852 0.044810
0.089721 0.089721 0.046679
0.140431 0.091590 0.048548
0.194569 0.093458 0.050417
0.251413 0.095327 0.052285
0.310515 0.097196 0.054154
0.371565 0.099065 0.056023
0.434335 0.100933 0.057892
0.498651 0.102802 0.059760
0.564373 0.104671 0.061629
0.631387 0.106540 0.063498
0.699597 0.108408 0.065367
0.768924 0.110277 0.067235
0.839297 0.112146 0.069104
0.910657 0.114015 0.070973
0.982950 0.115883 0.072842
0.011719 0.138494 0.046610
0.047510 0.140362 0.048479
0.093390 0.142231 0.050348
0.144100 0.144100 0.052217
0.198238 0.145969 0.054085
0.255082 0.147837 0.055954
0.314184 0.149706 0.057823
0.375233 0.151575 0.059692
0.438004 0.153444 0.061560
0.502320 0.155312 0.063429
0.568042 0.157181 0.065298
0.635055 0.159050 0.067167
0.703266 0.160919 0.069035
0.772592 0.162787 0.070904
0.842966 0.164656 0.072773
0.914326 0.166525 0.074642
0.986619 0.168394 0.076510
0.015387 0.194432 0.050279
0.051179 0.196300 0.052148
0.097058 0.198169 0.054017
0.147769 0.200038 0.055885
0.201907 0.201907 0.057754
0.258751 0.203775 0.059623
0.317852 0.205644 0.061492
0.378902 0.207513 0.063360
0.441673 0.209382 0.065229
0.505989 0.211250 0.067098
0.571710 0.213119 0.068967
0.638724 0.214988 0.070835
0.706935 0.216857 0.072704
0.776261 0.218725 0.074573
0.846635 0.220594 0.076442
0.917994 0.222463 0.078310
0.990288 0.224332 0.080179
0.019056 0.253076 0.053948
0.054847 0.254944 0.055817
0.100727 0.256813 0.057685
0.151437 0.258682 0.059554
0.205575 0.260551 0.061423
0.262419 0.262419 0.063292
0.321521 0.264288 0.065160
0.382571 0.266157 0.067029
0.445341 0.268026 0.068898
0.509657 0.269894 0.070767
0.575379 0.271763 0.072635
0.642393 0.273632 0.074504
0.710603 0.275501 0.076373
0.779930 0.277369 0.078242
0.850303 0.279238 0.080110
0.921663 0.281107 0.081979
0.993956 0.282976 0.083848
0.022725 0.313977 0.057617
0.058516 0.315846 0.059485
0.104396 0.317715 0.061354
0.155106 0.319584 0.063223
0.209244 0.321452 0.065092
0.266088 0.323321 0.066960
0.325190 0.325190 0.068829
0.386240 0.327059 0.070698
0.449010 0.328927 0.072567
0.513326 0.330796 0.074435
0.579048 0.332665 0.076304
0.646062 0.334534 0.078173
0.714272 0.336402 0.080042
0.783599 0.338271 0.081910
0.853972 0.340140 0.083779
0.925332 0.342009 0.085648
0.997625 0.343877 0.087517
0.026394 0.376827 0.061285
0.062185 0.378696 0.063154
0.108065 0.380565 0.065023
0.158775 0.382433 0.066892
0.212913 0.384302 0.068760
0.269757 0.386171 0.070629
0.328859 0.388040 0.072498
0.389908 0.389908 0.074367
0.452679 0.391777 0.076235
0.516995 0.393646 0.078104
0.582717 0.395515 0.079973
0.649730 0.397383 0.081842
0.717941 0.399252 0.083710
0.787267 0.401121 0.085579
0.857641 0.402990 0.087448
0.929001 0.404858 0.089317
1.000000 0.406727 0.091185
0.030062 0.441398 0.064954
0.065854 0.443266 0.066823
0.111733 0.445135 0.068692
0.162444 0.447004 0.070560
0.216582 0.448873 0.072429
0.273426 0.450741 0.074298
0.332527 0.452610 0.076167
0.393577 0.454479 0.078035
0.456348 0.456348 0.079904
0.520664 0.458216 0.081773
0.586385 0.460085 0.083642
0.653399 0.461954 0.085510
0.721610 0.463823 0.087379
0.790936 0.465691 0.089248
0.861310 0.467560 0.091117
0.932669 0.469429 0.092985
1.000000 0.471298 0.094854
0.033731 0.507514 0.068623
0.069522 0.509382 0.070492
0.115402 0.511251 0.072360
0.166112 0.513120 0.074229
0.220250 0.514989 0.076098
0.277094 0.516857 0.077967
0.336196 0.518726 0.079835
0.397246 0.520595 0.081704
0.460016 0.522464 0.083573
0.524332 0.524332 0.085442
0.590054 0.526201 0.087310
0.657068 0.528070 0.089179
0.725278 0.529939 0.091048
0.794605 0.531807 0.092917
0.864978 0.533676 0.094785
0.936338 0.535545 0.096654
1.000000 0.537414 0.098523
0.037400 0.575035 0.072292
0.073191 0.576904 0.074160
0.119071 0.578773 0.076029
0.169781 0.580642 0.077898
0.223919 0.582510 0.079767
0.280763 0.584379 0.081635
0.339865 0.586248 0.083504
0.400915 0.588117 0.085373
0.463685 0.589985 0.087242
0.528001 0.591854 0.089110
0.593723 0.593723 0.090979
0.660737 0.595592 0.092848
0.728947 0.597460 0.094717
0.798274 0.599329 0.096585
0.868647 0.601198 0.098454
0.940007 0.603067 0.100323
1.000000 0.604935 0.102192
0.041069 0.643849 0.075960
0.076860 0.645718 0.077829
0.122740 0.647587 0.079698
0.173450 0.649455 0.081567
0.227588 0.651324 0.083435
0.284432 0.653193 0.085304
0.343534 0.655062 0.087173
0.404583 0.656930 0.089042
0.467354 0.658799 0.090910
0.531670 0.660668 0.092779
0.597392 0.662537 0.094648
0.664405 0.664405 0.096517
0.732616 0.666274 0.098385
0.801942 0.668143 0.100254
0.872316 0.670012 0.102123
0.943676 0.671880 0.103992
1.000000 0.673749 0.105860
0.044737 0.713860 0.079629
0.080529 0.715728 0.081498
0.126408 0.717597 0.083367
0.177119 0.719466 0.085235
0.231257 0.721335 0.087104
0.288101 0.723203 0.088973
0.347202 0.725072 0.090842
0.408252 0.726941 0.092710
0.471023 0.728810 0.094579
0.535339 0.730678 0.096448
0.601060 0.732547 0.098317
0.668074 0.734416 0.100185
0.736285 0.736285 0.102054
0.805611 0.738153 0.103923
0.875985 0.740022 0.105792
0.947344 0.741891 0.107660
1.000000 0.743760 0.109529
0.048406 0.784986 0.083298
0.084197 0.786855 0.085167
0.130077 0.788724 0.087035
0.180787 0.790592 0.088904
0.234925 0.792461 0.090773
0.291769 0.794330 0.092642
0.350871 0.796199 0.094510
0.411921 0.798067 0.096379
0.474691 0.799936 0.098248
0.539007 0.801805 0.100117
0.604729 0.803674 0.101985
0.671743 0.805542 0.103854
0.739953 0.807411 0.105723
0.809280 0.809280 0.107592
0.879653 0.811149 0.109460
0.951013 0.813017 0.111329
1.000000 0.814886 0.113198
0.052075 0.857160 0.086967
0.087866 0.859028 0.088835
0.133746 0.860897 0.090704
0.184456 0.862766 0.092573
0.238594 0.864635 0.094442
0.295438 0.866503 0.096310
0.354540 0.868372 0.098179
0.415590 0.870241 0.100048
0.478360 0.872110 0.101917
0.542676 0.873978 0.103785
0.608398 0.875847 0.105654
0.675412 0.877716 0.107523
0.743622 0.879585 0.109392
0.812949 0.881453 0.111260
0.883322 0.883322 0.113129
0.954682 0.885191 0.114998
1.000000 0.887060 0.116867
0.055744 0.930319 0.090635
0.091535 0.932188 0.092504
0.137415 0.934057 0.094373
0.188125 0.935926 0.096242
0.242263 0.937794 0.098110
0.299107 0.939663 0.099979
0.358209 0.941532 0.101848
0.419258 0.943401 0.103717
0.482029 0.945269 0.105585
0.546345 0.947138 0.107454
0.612067 0.949007 0.109323
0.679080 0.950876 0.111192
0.747291 0.952744 0.113060
0.816617 0.954613 0.114929
0.886991 0.956482 0.116798
0.958351 0.958351 0.118667
1.000000 0.960219 0.120535
0.059412 1.000000 0.094304
0.095204 1.000000 0.096173
0.141083 1.000000 0.098042
0.191794 1.000000 0.099910
0.245932 1.000000 0.101779
0.302776 1.000000 0.103648
0.361877 1.000000 0.105517
0.422927 1.000000 0.107385
0.485698 1.000000 0.109254
0.550014 1.000000 0.111123
0.615735 1.000000 0.112992
0.682749 1.000000 0.114860
0.750960 1.000000 0.116729
0.820286 1.000000 0.118598
0.890660 1.000000 0.120467
0.962019 1.000000 0.122335
1.000000 1.000000 0.124204
0.001425 0.001425 0.081585
0.037216 0.003294 0.083454
0.083096 0.005163 0.085323
0.133806 0.007031 0.087191
0.187944 0.008900 0.089060
0.244788 0.010769 0.090929
0.303890 0.012637 0.092798
0.364940 0.014506 0.094666
0.427710 0.016375 0.096535
0.492026 0.018244 0.098404
0.557748 0.020113 0.100273
0.624762 0.021981 0.102141
0.692972 0.023850 0.104010
0.762299 0.025719 0.105879
0.832672 0.027587 0.107748
0.904032 0.029456 0.109616
0.976325 0.031325 0.111485
0.005094 0.039016 0.085254
0.040885 0.040885 0.087123
0.086765 0.042754 0.088991
0.137475 0.044622 0.090860
0.191613 0.046491 0.092729
0.248457 0.048360 0.094598
0.307559 0.050229 0.096466
0.368608 0.052097 0.098335
0.431379 0.053966 0.100204
0.495695 0.055835 0.102073
0.561417 0.057704 0.103941
0.628430 0.059572 0.105810
0.696641 0.061441 0.107679
0.765967 0.063310 0.109548
0.836341 0.065179 0.111416
0.907701 0.067047 0.113285
0.979994 0.068916 0.115154
0.008762 0.086696 0.088923
0.044554 0.088565 0.090791
0.090433 0.090433 0.092660
0.141144 0.092302 0.094529
0.195282 0.094171 0.096398
0.252126 0.096040 0.098266
0.311227 0.097908 0.100135
0.372277 0.099777 0.102004
0.435048 0.101646 0.103873
0.499364 0.103515 0.105741
0.565085 0.105383 0.107610
0.632099 0.107252 0.109479
0.700310 0.109121 0.111348
0.769636 0.110990 0.113216
0.840010 0.112858 0.115085
0.911369 0.114727 0.116954
0.983663 0.116596 0.118823
0.012431 0.139206 0.092591
0.048222 0.141075 0.094460
0.094102 0.142944 0.096329
0.144812 0.144812 0.098198
0.198950 0.146681 0.100066
0.255794 0.148550 0.101935
0.314896 0.150419 0.103804
0.375946 0.152287 0.105673
0.438716 0.154156 0.107541
0.503032 0.156025 0.109410
0.568754 0.157894 0.111279
0.635768 0.159762 0.113148
0.703978 0.161631 0.115016
0.773305 0.163500 0.116885
0.843678 0.165369 0.118754
0.915038 0.167237 0.120623
0.987331 0.169106 0.122491
0.016100 0.195144 0.096260
0.051891 0.197013 0.098129
0.097771 0.198882 0.099998
0.148481 0.200750 0.101866
0.202619 0.202619 0.103735
0.259463 0.204488 0.105604
0.318565 0.206357 0.107473
0.379615 0.208225 0.109341
0.442385 0.210094 0.111210
0.506701 0.211963 0.113079
0.572423 0.213832 0.114948
0.639437 0.215700 0.116816
0.707647 0.217569 0.118685
0.776974 0.219438 0.120554
0.847347 0.221307 0.122423
0.918707 0.223175 0.124291
0.991000 0.225044 0.126160
0.019769 0.253788 0.099929
0.055560 0.255657 0.101798
0.101440 0.257526 0.103666
0.152150 0.259394 0.105535
0.206288 0.261263 0.107404
0.263132 0.263132 0.109273
0.322234 0.265001 0.111141
0.383283 0.266869 0.113010
0.446054 0.268738 0.114879
0.510370 0.270607 0.116748
0.576092 0.272476 0.118616
0.643105 0.274344 0.120485
0.711316 0.276213 0.122354
0.780642 0.278082 0.124223
0.851016 0.279951 0.126091
0.922376 0.281819 0.127960
0.994669 0.283688 0.129829
0.023438 0.314690 0.103598
0.059229 0.316559 0.105466
0.105108 0.318427 0.107335
0.155819 0.320296 0.109204
0.209957 0.322165 0.111073
0.266801 0.324034 0.112941
0.325902 0.325902 0.114810
0.386952 0.327771 0.116679
0.449723 0.329640 0.118548
0.514039 0.331509 0.120416
0.579760 0.333377 0.122285
0.646774 0.335246 0.124154
0.714985 0.337115 0.126023
0.784311 0.338984 0.127891
0.854685 0.340852 0.129760
0.926044 0.342721 0.131629
0.998338 0.344590 0.133498
0.027106 0.377540 0.107266
0.062897 0.379408 0.109135
0.108777 0.381277 0.111004
0.159487 0.383146 0.112873
0.213625 0.385015 0.114741
0.270469 0.386883 0.116610
0.329571 0.388752 0.118479
0.390621 0.390621 0.120348
0.453391 0.392490 0.122216
0.517707 0.394358 0.124085
0.583429 0.396227 0.125954
0.650443 0.398096 0.127823
0.718653 0.399965 0.129691
0.787980 0.401833 0.131560
0.858353 0.403702 0.133429
0.929713 0.405571 0.135298
1.000000 0.407440 0.137166
0.030775 0.442110 0.110935
0.066566 0.443979 0.112804
0.112446 0.445848 0.114673
0.163156 0.447716 0.116541
0.217294 0.449585 0.118410
0.274138 0.451454 0.120279
0.333240 0.453323 0.122148
0.394290 0.455191 0.124016
0.457060 0.457060 0.125885
0.521376 0.458929 0.127754
0.587098 0.460798 0.129623
0.654112 0.462666 0.131491
0.722322 0.464535 0.133360
0.791649 0.466404 0.135229
0.862022 0.468273 0.137098
0.933382 0.470141 0.138966
1.000000 0.472010 0.140835
0.034444 0.508226 0.114604
0.070235 0.510095 0.116473
0.116115 0.511964 0.118341
0.166825 0.513832 0.120210
0.220963 0.515701 0.122079
0.277807 0.517570 0.123948
0.336909 0.519439 0.125816
0.397958 0.521307 0.127685
0.460729 0.523176 0.129554
0.525045 0.525045 0.131423
0.590767 0.526914 0.133291
0.657780 0.528782 0.135160
0.725991 0.530651 0.137029
0.795317 0.532520 0.138898
0.865691 0.534389 0.140766
0.937051 0.536257 0.142635
1.000000 0.538126 0.144504
0.038112 0.575748 0.118273
0.073904 0.577617 0.120141
0.119783 0.579485 0.122010
0.170494 0.581354 0.123879
0.224632 0.583223 0.125748
0.281476 0.585092 0.127616
0.340577 0.586960 0.129485
0.401627 0.588829 0.131354
0.464398 0.590698 0.133223
0.528714 0.592567 0.135091
0.594435 0.594435 0.136960
0.661449 0.596304 0.138829
0.729660 0.598173 0.140698
0.798986 0.600042 0.142566
0.869360 0.601910 0.144435
0.940719 0.603779 0.146304
1.000000 0.605648 0.148173
0.041781 0.644562 0.121941
0.077572 0.646430 0.123810
0.123452 0.648299 0.125679
0.174162 0.650168 0.127548
0.228300 0.652037 0.129416
0.285144 0.653905 0.131285
0.344246 0.655774 0.133154
0.405296 0.657643 0.135023
0.468066 0.659512 0.136891
0.532382 0.661380 0.138760
0.598104 0.663249 0.140629
0.665118 0.665118 0.142498
0.733328 0.666987 0.144366
0.802655 0.668855 0.146235
0.873028 0.670724 0.148104
0.944388 0.672593 0.149973
1.000000 0.674462 0.151841
0.045450 0.714572 0.125610
0.081241 0.716441 0.127479
0.127121 0.718310 0.129348
0.177831 0.720178 0.131216
0.231969 0.722047 0.133085
0.288813 0.723916 0.134954
0.347915 0.725785 0.136823
0.408965 0.727653 0.138691
0.471735 0.729522 0.140560
0.536051 0.731391 0.142429
0.601773 0.733260 0.144298
0.668787 0.735128 0.146166
0.736997 0.736997 0.148035
0.806324 0.738866 0.149904
0.876697 0.740735 0.151773
0.948057 0.742603 0.153641
1.000000 0.744472 0.155510
0.049119 0.785699 0.129279
0.084910 0.787567 0.131148
0.130790 0.789436 0.133016
0.181500 0.791305 0.134885
0.235638 0.793174 0.136754
0.292482 0.795042 0.138623
0.351584 0.796911 0.140491
0.412633 0.798780 0.142360
0.475404 0.800649 0.144229
0.539720 0.802517 0.146098
0.605442 0.804386 0.147966
0.672455 0.806255 0.149835
0.740666 0.808124 0.151704
0.809992 0.809992 0.153573
0.880366 0.811861 0.155441
0.951726 0.813730 0.157310
1.000000 0.815599 0.159179
0.052787 0.857872 0.132948
0.088579 0.859741 0.134816
0.134458 0.861610 0.136685
0.185169 0.863478 0.138554
0.239307 0.865347 0.140423
0.296151 0.867216 0.142291
0.355252 0.869085 0.144160
0.416302 0.870953 0.146029
0.479073 0.872822 0.147898
0.543389 0.874691 0.149766
0.609110 0.876560 0.151635
0.676124 0.878428 0.153504
0.744335 0.880297 0.155373
0.813661 0.882166 0.157241
0.884035 0.884035 0.159110
0.955394 0.885903 0.160979
1.000000 0.887772 0.162848
0.056456 0.931032 0.136616
0.092247 0.932901 0.138485
0.138127 0.934769 0.140354
0.188837 0.936638 0.142223
0.242975 0.938507 0.144091
0.299819 0.940376 0.145960
0.358921 0.942244 0.147829
0.419971 0.944113 0.149698
0.482741 0.945982 0.151566
0.547057 0.947851 0.153435
0.612779 0.949719 0.155304
0.679793 0.951588 0.157173
0.748003 0.953457 0.159041
0.817330 0.955326 0.160910
0.887703 0.957194 0.162779
0.959063 0.959063 0.164648
1.000000 0.960932 0.166516
0.060125 1.000000 0.140285
0.095916 1.000000 0.142154
0.141796 1.000000 0.144023
0.192506 1.000000 0.145891
0.246644 1.000000 0.147760
0.303488 1.000000 0.149629
0.362590 1.000000 0.151498
0.423640 1.000000 0.153366
0.486410 1.000000 0.155235
0.550726 1.000000 0.157104
0.616448 1.000000 0.158973
0.683462 1.000000 0.160841
0.751672 1.000000 0.162710
0.820999 1.000000 0.164579
0.891372 1.000000 0.166448
0.962732 1.000000 0.168316
1.000000 1.000000 0.170185
0.002138 0.002138 0.132535
0.037929 0.004006 0.134403
0.083808 0.005875 0.136272
0.134519 0.007744 0.138141
0.188657 0.009612 0.140010
0.245501 0.011481 0.141878
0.304602 0.013350 0.143747
0.365652 0.015219 0.145616
0.428423 0.017088 0.147485
0.492739 0.018956 0.149353
0.558460 0.020825 0.151222
0.625474 0.022694 0.153091
0.693685 0.024562 0.154960
0.763011 0.026431 0.156828
0.833385 0.028300 0.158697
0.904744 0.030169 0.160566
0.977038 0.032037 0.162435
0.005806 0.039729 0.136203
0.041597 0.041597 0.138072
