Server/IGTracker/desktop_spoofer/luts/Moody_Contrast.cube
# Cube LUT created for IGTracker
TITLE "Moody Contrast"
LUT_3D_SIZE 5
0.000000 0.000000 0.000000
0.186519 0.007475 0.007475
0.426285 0.014950 0.014950
0.691547 0.022425 0.022425
0.974900 0.029900 0.029900
0.014675 0.193719 0.014675
0.201194 0.201194 0.022150
0.440960 0.208669 0.029625
0.706222 0.216144 0.037100
0.989575 0.223619 0.044575
0.029350 0.440685 0.029350
0.215869 0.448160 0.036825
0.455635 0.455635 0.044300
0.720897 0.463110 0.051775
1.000000 0.470585 0.059250
0.044025 0.713147 0.044025
0.230544 0.720622 0.051500
0.470310 0.728097 0.058975
0.735572 0.735572 0.066450
1.000000 0.743047 0.073925
0.058700 1.000000 0.058700
0.245219 1.000000 0.066175
0.484985 1.000000 0.073650
0.750247 1.000000 0.081125
1.000000 1.000000 0.088600
0.002850 0.002850 0.187010
0.189369 0.010325 0.194485
0.429135 0.017800 0.201960
0.694397 0.025275 0.209435
0.977750 0.032750 0.216910
0.017525 0.196569 0.201685
0.204044 0.204044 0.209160
0.443810 0.211519 0.216635
0.709072 0.218994 0.224110
0.992425 0.226469 0.231585
0.032200 0.443535 0.216360
0.218719 0.451010 0.223835
0.458485 0.458485 0.231310
0.723747 0.465960 0.238785
1.000000 0.473435 0.246260
0.046875 0.715997 0.231035
0.233394 0.723472 0.238510
0.473160 0.730947 0.245985
0.738422 0.738422 0.253460
1.000000 0.745897 0.260935
0.061550 1.000000 0.245710
0.248069 1.000000 0.253185
0.487835 1.000000 0.260660
0.753097 1.000000 0.268135
1.000000 1.000000 0.275610
0.005700 0.005700 0.428788
0.192219 0.013175 0.436263
0.431985 0.020650 0.443738
0.697247 0.028125 0.451213
0.980600 0.035600 0.458688
0.020375 0.199419 0.443463
0.206894 0.206894 0.450938
0.446660 0.214369 0.458413
0.711922 0.221844 0.465888
0.995275 0.229319 0.473363
0.035050 0.446385 0.458138
0.221569 0.453860 0.465613
0.461335 0.461335 0.473088
0.726597 0.468810 0.480563
1.000000 0.476285 0.488038
0.049725 0.718847 0.472813
0.236244 0.726322 0.480288
0.476010 0.733797 0.487763
0.741272 0.741272 0.495238
1.000000 0.748747 0.502713
0.064400 1.000000 0.487488
0.250919 1.000000 0.494963
0.490685 1.000000 0.502438
0.755947 1.000000 0.509913
1.000000 1.000000 0.517388
0.008550 0.008550 0.696790
0.195069 0.016025 0.704265
0.434835 0.023500 0.711740
0.700097 0.030975 0.719215
0.983450 0.038450 0.726690
0.023225 0.202269 0.711465
0.209744 0.209744 0.718940
0.449510 0.217219 0.726415
0.714772 0.224694 0.733890
0.998125 0.232169 0.741365
0.037900 0.449235 0.726140
0.224419 0.456710 0.733615
0.464185 0.464185 0.741090
0.729447 0.471660 0.748565
1.000000 0.479135 0.756040
0.052575 0.721697 0.740815
0.239094 0.729172 0.748290
0.478860 0.736647 0.755765
0.744122 0.744122 0.763240
1.000000 0.751597 0.770715
0.067250 1.000000 0.755490
0.253769 1.000000 0.762965
0.493535 1.000000 0.770440
0.758797 1.000000 0.777915
1.000000 1.000000 0.785390
0.011400 0.011400 0.983400
0.197919 0.018875 0.990875
0.437685 0.026350 0.998350
0.702947 0.033825 1.000000
0.986300 0.041300 1.000000
0.026075 0.205119 0.998075
0.212594 0.212594 1.000000
0.452360 0.220069 1.000000
0.717622 0.227544 1.000000
1.000000 0.235019 1.000000
0.040750 0.452085 1.000000
0.227269 0.459560 1.000000
0.467035 0.467035 1.000000
0.732297 0.474510 1.000000
1.000000 0.481985 1.000000
0.055425 0.724547 1.000000
0.241944 0.732022 1.000000
0.481710 0.739497 1.000000
0.746972 0.746972 1.000000
1.000000 0.754447 1.000000
0.070100 1.000000 1.000000
0.256619 1.000000 1.000000
0.496385 1.000000 1.000000
0.761647 1.000000 1.000000
1.000000 1.000000 1.000000
