Server/IGTracker/desktop_spoofer/luts/Vibrant_Pop.cube
# Cube LUT created for IGTracker
TITLE "Vibrant Pop"
LUT_3D_SIZE 17
0.000000 0.000000 0.000000
0.013654 0.000000 0.000000
0.051979 0.000000 0.000000
0.111020 0.000000 0.000000
0.186824 0.000000 0.000000
0.275435 0.000000 0.000000
0.372900 0.000000 0.000000
0.475264 0.000000 0.000000
0.578572 0.000000 0.000000
0.678870 0.000000 0.000000
0.772204 0.000000 0.000000
0.854619 0.000000 0.000000
0.922160 0.000000 0.000000
0.970874 0.000000 0.000000
0.996806 0.000000 0.000000
1.000000 0.000000 0.000000
1.000000 0.000000 0.000000
0.000000 0.012631 0.000000
0.011609 0.011609 0.000000
0.048113 0.010629 0.000000
0.105649 0.009689 0.000000
0.180262 0.008792 0.000000
0.267998 0.007936 0.000000
0.364903 0.007123 0.000000
0.467021 0.006352 0.000000
0.570399 0.005624 0.000000
0.671082 0.004939 0.000000
0.765116 0.004297 0.000000
0.848546 0.003699 0.000000
0.917417 0.003144 0.000000
0.967776 0.002634 0.000000
0.995668 0.002168 0.000000
1.000000 0.001746 0.000000
1.000000 0.001370 0.000000
0.000000 0.048185 0.000000
0.009723 0.046266 0.000000
0.044382 0.044382 0.000000
0.100387 0.042533 0.000000
0.173785 0.040720 0.000000
0.260620 0.038942 0.000000
0.356939 0.037200 0.000000
0.458787 0.035495 0.000000
0.562209 0.033825 0.000000
0.663252 0.032193 0.000000
0.757961 0.030598 0.000000
0.842380 0.029040 0.000000
0.912557 0.027519 0.000000
0.964536 0.026037 0.000000
0.994362 0.024592 0.000000
1.000000 0.023186 0.000000
1.000000 0.021818 0.000000
0.000000 0.103152 0.000000
0.007998 0.100485 0.000000
0.040786 0.097845 0.000000
0.095235 0.095235 0.000000
0.167392 0.092654 0.000000
0.253302 0.090102 0.000000
0.349010 0.087580 0.000000
0.450563 0.085088 0.000000
0.554005 0.082626 0.000000
0.655382 0.080195 0.000000
0.750740 0.077794 0.000000
0.836124 0.075425 0.000000
0.907581 0.073086 0.000000
0.961154 0.070780 0.000000
0.992891 0.068505 0.000000
1.000000 0.066262 0.000000
1.000000 0.064051 0.000000
0.000000 0.174026 0.000000
0.006435 0.170757 0.000000
0.037327 0.167511 0.000000
0.090196 0.164287 0.000000
0.161087 0.161087 0.000000
0.246046 0.157909 0.000000
0.341118 0.154755 0.000000
0.442350 0.151625 0.000000
0.545787 0.148518 0.000000
0.647473 0.145436 0.000000
0.743456 0.142378 0.000000
0.829780 0.139345 0.000000
0.902491 0.136337 0.000000
0.957634 0.133355 0.000000
0.991256 0.130398 0.000000
1.000000 0.127466 0.000000
1.000000 0.124561 0.000000
0.000000 0.257296 0.000000
0.005037 0.253575 0.000000
0.034008 0.249870 0.000000
0.085270 0.246181 0.000000
0.154871 0.242509 0.000000
0.238854 0.238854 0.000000
0.333266 0.235216 0.000000
0.434152 0.231595 0.000000
0.537558 0.227992 0.000000
0.639529 0.224408 0.000000
0.736111 0.220841 0.000000
0.823349 0.217293 0.000000
0.897290 0.213763 0.000000
0.953978 0.210253 0.000000
0.989459 0.206762 0.000000
1.000000 0.203290 0.000000
1.000000 0.199839 0.000000
0.000000 0.349455 0.000000
0.003806 0.345429 0.000000
0.030830 0.341413 0.000000
0.080462 0.337408 0.000000
0.148746 0.333412 0.000000
0.231728 0.329428 0.000000
0.325454 0.325454 0.000000
0.425969 0.321492 0.000000
0.529319 0.317541 0.000000
0.631550 0.313601 0.000000
0.728706 0.309674 0.000000
0.816834 0.305759 0.000000
0.891979 0.301856 0.000000
0.950187 0.297966 0.000000
0.987502 0.294089 0.000000
1.000000 0.290226 0.000000
1.000000 0.286376 0.000000
0.000000 0.446993 0.000000
0.002743 0.442811 0.000000
0.027796 0.438633 0.000000
0.075772 0.434459 0.000000
0.142715 0.430288 0.000000
0.224671 0.426123 0.000000
0.317686 0.421961 0.000000
0.417805 0.417805 0.000000
0.521074 0.413654 0.000000
0.623539 0.409508 0.000000
0.721244 0.405368 0.000000
0.810237 0.401234 0.000000
0.886561 0.397106 0.000000
0.946263 0.392985 0.000000
0.985388 0.388871 0.000000
0.999982 0.384763 0.000000
1.000000 0.380663 0.000000
0.000000 0.546403 0.000000
0.001851 0.542213 0.000000
0.024908 0.538020 0.000000
0.071202 0.533825 0.000000
0.136778 0.529628 0.000000
0.217683 0.525429 0.000000
0.309962 0.521229 0.000000
0.409661 0.517027 0.000000
0.512824 0.512824 0.000000
0.615497 0.508620 0.000000
0.713727 0.504416 0.000000
0.803559 0.500211 0.000000
0.881037 0.496006 0.000000
0.942208 0.491802 0.000000
0.983118 0.487598 0.000000
0.999812 0.483395 0.000000
1.000000 0.479193 0.000000
0.000000 0.644175 0.000000
0.001131 0.640125 0.000000
0.022166 0.636067 0.000000
0.066754 0.631999 0.000000
0.130940 0.627923 0.000000
0.210768 0.623840 0.000000
0.302286 0.619748 0.000000
0.401538 0.615648 0.000000
0.504570 0.611542 0.000000
0.607428 0.607428 0.000000
0.706157 0.603307 0.000000
0.796802 0.599180 0.000000
0.875410 0.595047 0.000000
0.938025 0.590908 0.000000
0.980694 0.586762 0.000000
0.999462 0.582612 0.000000
1.000000 0.578456 0.000000
0.000000 0.736802 0.000000
0.000586 0.733040 0.000000
0.019575 0.729263 0.000000
0.062431 0.725472 0.000000
0.125200 0.721665 0.000000
0.203928 0.717845 0.000000
0.294659 0.714010 0.000000
0.393440 0.710161 0.000000
0.496316 0.706299 0.000000
0.599332 0.702424 0.000000
0.698535 0.698535 0.000000
0.789969 0.694634 0.000000
0.869681 0.690720 0.000000
0.933716 0.686793 0.000000
0.978119 0.682855 0.000000
0.998936 0.678905 0.000000
1.000000 0.674944 0.000000
0.000000 0.820773 0.000000
0.000217 0.817448 0.000000
0.017135 0.814102 0.000000
0.058234 0.810734 0.000000
0.119562 0.807345 0.000000
0.197163 0.803936 0.000000
0.287083 0.800507 0.000000
0.385367 0.797057 0.000000
0.488062 0.793587 0.000000
0.591212 0.790098 0.000000
0.690864 0.786590 0.000000
0.783062 0.783062 0.000000
0.863853 0.779516 0.000000
0.929282 0.775951 0.000000
0.975394 0.772368 0.000000
0.998235 0.768767 0.000000
1.000000 0.765148 0.000000
0.000000 0.892582 0.000000
0.000028 0.889841 0.000000
0.014848 0.887073 0.000000
0.054166 0.884278 0.000000
0.114027 0.881455 0.000000
0.190476 0.878605 0.000000
0.279560 0.875729 0.000000
0.377323 0.872826 0.000000
0.479811 0.869898 0.000000
0.583070 0.866943 0.000000
0.683145 0.863963 0.000000
0.776083 0.860958 0.000000
0.857927 0.857927 0.000000
0.924725 0.854872 0.000000
0.972521 0.851792 0.000000
0.997361 0.848688 0.000000
1.000000 0.845560 0.000000
0.000000 0.948718 0.000000
0.000000 0.946711 0.000000
0.012717 0.944669 0.000000
0.050228 0.942594 0.000000
0.108597 0.940485 0.000000
0.183870 0.938343 0.000000
0.272092 0.936169 0.000000
0.369308 0.933961 0.000000
0.471565 0.931722 0.000000
0.574908 0.929450 0.000000
0.675382 0.927146 0.000000
0.769033 0.924811 0.000000
0.851906 0.922445 0.000000
0.920047 0.920047 0.000000
0.969502 0.917619 0.000000
0.996316 0.915160 0.000000
1.000000 0.912671 0.000000
0.000000 0.985674 0.000000
0.000000 0.984548 0.000000
0.010743 0.983381 0.000000
0.046423 0.982174 0.000000
0.103275 0.980928 0.000000
0.177346 0.979642 0.000000
0.264681 0.978317 0.000000
0.361326 0.976953 0.000000
0.463326 0.975551 0.000000
0.566727 0.974110 0.000000
0.667575 0.972631 0.000000
0.761914 0.971114 0.000000
0.845791 0.969560 0.000000
0.915251 0.967969 0.000000
0.966340 0.966340 0.000000
0.995103 0.964675 0.000000
1.000000 0.962973 0.000000
0.000000 0.999942 0.000000
0.000000 0.999844 0.000000
0.008929 0.999700 0.000000
0.042752 0.999510 0.000000
0.098062 0.999274 0.000000
0.170906 0.998993 0.000000
0.257329 0.998666 0.000000
0.353378 0.998293 0.000000
0.455096 0.997876 0.000000
0.558530 0.997415 0.000000
0.659726 0.996909 0.000000
0.754729 0.996359 0.000000
0.839585 0.995765 0.000000
0.910339 0.995127 0.000000
0.963036 0.994446 0.000000
0.993723 0.993723 0.000000
1.000000 0.992956 0.000000
0.000000 1.000000 0.000000
0.000000 1.000000 0.000000
0.007277 1.000000 0.000000
0.039217 1.000000 0.000000
0.092960 1.000000 0.000000
0.164552 1.000000 0.000000
0.250039 1.000000 0.000000
0.345465 1.000000 0.000000
0.446877 1.000000 0.000000
0.550319 1.000000 0.000000
0.651839 1.000000 0.000000
0.747480 1.000000 0.000000
0.833289 1.000000 0.000000
0.905311 1.000000 0.000000
0.959592 1.000000 0.000000
0.992178 1.000000 0.000000
1.000000 1.000000 0.000000
0.000000 0.000000 0.014331
0.013244 0.000000 0.013244
0.051218 0.000000 0.012199
0.109969 0.000000 0.011194
0.185543 0.000000 0.010231
0.273986 0.000000 0.009309
0.371344 0.000000 0.008429
0.473662 0.000000 0.007591
0.576986 0.000000 0.006796
0.677361 0.000000 0.006043
0.770833 0.000000 0.005333
0.853447 0.000000 0.004666
0.921249 0.000000 0.004042
0.970284 0.000000 0.003462
0.996598 0.000000 0.002926
1.000000 0.000000 0.002434
1.000000 0.000000 0.001986
0.000000 0.012237 0.012237
0.011230 0.011230 0.011230
0.047378 0.010266 0.010266
0.104619 0.009342 0.009342
0.178998 0.008461 0.008461
0.266561 0.007621 0.007621
0.363354 0.006824 0.006824
0.465421 0.006070 0.006070
0.568810 0.005358 0.005358
0.669565 0.004689 0.004689
0.763731 0.004064 0.004064
0.847355 0.003482 0.003482
0.916482 0.002945 0.002945
0.967158 0.002451 0.002451
0.995428 0.002002 0.002002
1.000000 0.001597 0.001597
1.000000 0.001238 0.001238
0.000000 0.047449 0.010300
0.009376 0.045543 0.009376
0.043673 0.043673 0.008493
0.099378 0.041837 0.007652
0.172536 0.040038 0.006853
0.259194 0.038273 0.006097
0.355396 0.036546 0.005383
0.457189 0.034854 0.004713
0.560617 0.033199 0.004086
0.661727 0.031581 0.003503
0.756563 0.029999 0.002964
0.841172 0.028456 0.002468
0.911599 0.026950 0.002018
0.963890 0.025481 0.001611
0.994090 0.024051 0.001250
1.000000 0.022660 0.000934
1.000000 0.021307 0.000664
0.000000 0.102132 0.008524
0.007682 0.099475 0.007682
0.040103 0.096847 0.006881
0.094248 0.094248 0.006124
0.166161 0.091678 0.005409
0.251888 0.089137 0.004737
0.347475 0.086627 0.004109
0.448967 0.084146 0.003524
0.552410 0.081696 0.002983
0.653849 0.079276 0.002486
0.749330 0.076887 0.002033
0.834899 0.074530 0.001626
0.906601 0.072203 0.001263
0.960481 0.069909 0.000945
0.992586 0.067646 0.000673
1.000000 0.065415 0.000447
1.000000 0.063217 0.000266
0.000000 0.172777 0.006910
0.006151 0.169517 0.006151
0.036671 0.166279 0.005434
0.089230 0.163064 0.004761
0.159872 0.159872 0.004131
0.244644 0.156704 0.003544
0.339590 0.153559 0.003002
0.440757 0.150437 0.002503
0.544189 0.147340 0.002049
0.645933 0.144267 0.001640
0.742034 0.141219 0.001275
0.828538 0.138195 0.000956
0.901489 0.135197 0.000682
0.956935 0.132224 0.000454
0.990919 0.129277 0.000272
1.000000 0.126356 0.000136
1.000000 0.123460 0.000047
0.000000 0.255875 0.005460
0.004785 0.252160 0.004785
0.033380 0.248461 0.004153
0.084327 0.244779 0.003565
0.153674 0.241113 0.003021
0.237465 0.237465 0.002521
0.331745 0.233833 0.002065
0.432561 0.230220 0.001654
0.535958 0.226623 0.001288
0.637982 0.223046 0.000967
0.734677 0.219486 0.000691
0.822090 0.215945 0.000462
0.896267 0.212423 0.000278
0.953252 0.208920 0.000140
0.989091 0.205436 0.000049
1.000000 0.201972 0.000005
1.000000 0.198528 0.000000
0.000000 0.347919 0.004176
0.003586 0.343897 0.003586
0.030230 0.339885 0.003040
0.079542 0.335883 0.002539
0.147567 0.331892 0.002081
0.230352 0.327911 0.001668
0.323942 0.323942 0.001301
0.424382 0.319984 0.000978
0.527719 0.316037 0.000701
0.629996 0.312102 0.000469
0.727261 0.308180 0.000284
0.815559 0.304269 0.000144
0.890935 0.300371 0.000052
0.949435 0.296486 0.000005
0.987104 0.292615 0.000000
1.000000 0.288756 0.000000
1.000000 0.284911 0.000000
0.000000 0.445399 0.003060
0.002556 0.441218 0.002556
0.027224 0.437041 0.002097
0.074875 0.432868 0.001683
0.141554 0.428700 0.001313
0.223308 0.424535 0.000989
0.316182 0.420376 0.000710
0.416222 0.416222 0.000477
0.519472 0.412073 0.000290
0.621979 0.407929 0.000149
0.719789 0.403791 0.000054
0.808946 0.399660 0.000006
0.885496 0.395534 0.000000
0.945486 0.391416 0.000000
0.984959 0.387304 0.000000
0.999963 0.383199 0.000000
1.000000 0.379102 0.000000
0.000000 0.544806 0.002113
0.001697 0.540615 0.001697
0.024364 0.536421 0.001326
0.070328 0.532225 0.001000
0.135637 0.528028 0.000720
0.216335 0.523828 0.000485
0.308468 0.519627 0.000296
0.408081 0.515424 0.000153
0.511221 0.511221 0.000057
0.613932 0.507017 0.000007
0.712261 0.502812 0.000000
0.802253 0.498608 0.000000
0.879952 0.494403 0.000000
0.941406 0.490199 0.000000
0.982659 0.485995 0.000000
0.999758 0.481793 0.000000
1.000000 0.477591 0.000000
0.000000 0.642632 0.001339
0.001011 0.638579 0.001011
0.021651 0.634517 0.000729
0.065905 0.630446 0.000493
0.129817 0.626367 0.000302
0.209434 0.622280 0.000157
0.300801 0.618186 0.000059
0.399963 0.614083 0.000008
0.502967 0.609974 0.000000
0.605858 0.605858 0.000000
0.704680 0.601735 0.000000
0.795481 0.597605 0.000000
0.874305 0.593469 0.000000
0.937198 0.589328 0.000000
0.980206 0.585181 0.000000
0.999374 0.581028 0.000000
1.000000 0.576870 0.000000
0.000000 0.735369 0.000739
0.000500 0.731602 0.000500
0.019089 0.727819 0.000308
0.061606 0.724022 0.000162
0.124097 0.720210 0.000062
0.202608 0.716384 0.000009
0.293183 0.712544 0.000000
0.391870 0.708690 0.000000
0.494713 0.704823 0.000000
0.597757 0.700942 0.000000
0.697049 0.697049 0.000000
0.788634 0.693143 0.000000
0.868557 0.689224 0.000000
0.932864 0.685293 0.000000
0.977601 0.681351 0.000000
0.998813 0.677396 0.000000
1.000000 0.673431 0.000000
0.000000 0.819508 0.000314
0.000167 0.816175 0.000167
0.016679 0.812820 0.000065
0.057434 0.809444 0.000010
0.118479 0.806048 0.000000
0.195858 0.802631 0.000000
0.285618 0.799194 0.000000
0.383803 0.795736 0.000000
0.486459 0.792259 0.000000
0.589633 0.788763 0.000000
0.689369 0.785247 0.000000
0.781712 0.781712 0.000000
0.862710 0.778159 0.000000
0.928406 0.774587 0.000000
0.974847 0.770997 0.000000
0.998079 0.767389 0.000000
1.000000 0.763764 0.000000
0.000000 0.891540 0.000068
0.000012 0.888789 0.000012
0.014422 0.886010 0.000000
0.053391 0.883204 0.000000
0.112964 0.880371 0.000000
0.189187 0.877512 0.000000
0.278105 0.874625 0.000000
0.375764 0.871713 0.000000
0.478209 0.868774 0.000000
0.581486 0.865810 0.000000
0.681641 0.862820 0.000000
0.774719 0.859805 0.000000
0.856765 0.856765 0.000000
0.923826 0.853701 0.000000
0.971946 0.850612 0.000000
0.997172 0.847498 0.000000
1.000000 0.844361 0.000000
0.000000 0.947957 0.000000
0.000000 0.945936 0.000000
0.012321 0.943882 0.000000
0.049479 0.941794 0.000000
0.107555 0.939672 0.000000
0.182597 0.937518 0.000000
0.270648 0.935331 0.000000
0.367756 0.933111 0.000000
0.469965 0.930859 0.000000
0.573320 0.928575 0.000000
0.673869 0.926260 0.000000
0.767655 0.923913 0.000000
0.850726 0.921534 0.000000
0.919125 0.919125 0.000000
0.968899 0.916685 0.000000
0.996094 0.914215 0.000000
1.000000 0.911714 0.000000
0.000000 0.985250 0.000000
0.000000 0.984108 0.000000
0.010379 0.982926 0.000000
0.045699 0.981704 0.000000
0.102254 0.980442 0.000000
0.176089 0.979142 0.000000
0.263249 0.977802 0.000000
0.359780 0.976423 0.000000
0.461727 0.975006 0.000000
0.565137 0.973551 0.000000
0.666054 0.972057 0.000000
0.760524 0.970526 0.000000
0.844593 0.968958 0.000000
0.914306 0.967352 0.000000
0.965709 0.965709 0.000000
0.994848 0.964030 0.000000
1.000000 0.962314 0.000000
0.000000 0.999910 0.000000
0.000000 0.999795 0.000000
0.008596 0.999633 0.000000
0.042054 0.999426 0.000000
0.097062 0.999172 0.000000
0.169665 0.998873 0.000000
0.255909 0.998529 0.000000
0.351838 0.998140 0.000000
0.453499 0.997706 0.000000
0.556937 0.997227 0.000000
0.658198 0.996704 0.000000
0.753326 0.996137 0.000000
0.838369 0.995527 0.000000
0.909371 0.994873 0.000000
0.962378 0.994176 0.000000
0.993435 0.993435 0.000000
1.000000 0.992653 0.000000
0.000000 1.000000 0.000000
0.000000 1.000000 0.000000
0.006975 1.000000 0.000000
0.038546 1.000000 0.000000
0.091983 1.000000 0.000000
0.163329 1.000000 0.000000
0.248630 1.000000 0.000000
0.343933 1.000000 0.000000
0.445282 1.000000 0.000000
0.548723 1.000000 0.000000
0.650302 1.000000 0.000000
0.746065 1.000000 0.000000
0.832056 1.000000 0.000000
0.904322 1.000000 0.000000
0.958907 1.000000 0.000000
0.991859 1.000000 0.000000
1.000000 1.000000 0.000000
0.000000 0.000000 0.054482
0.012841 0.000000 0.052455
0.050461 0.000000 0.050461
0.108921 0.000000 0.048502
0.184265 0.000000 0.046578
0.272540 0.000000 0.044688
0.369790 0.000000 0.042833
0.472061 0.000000 0.041014
0.575400 0.000000 0.039231
0.675850 0.000000 0.037483
0.769459 0.000000 0.035772
0.852271 0.000000 0.034096
0.920332 0.000000 0.032458
0.969688 0.000000 0.030857
0.996384 0.000000 0.029293
1.000000 0.000000 0.027766
1.000000 0.000000 0.026277
0.000000 0.011848 0.050534
0.010858 0.010858 0.048574
0.046648 0.009909 0.046648
0.103592 0.009001 0.044757
0.177736 0.008136 0.042901
0.265126 0.007312 0.041081
0.361806 0.006532 0.039296
0.463822 0.005793 0.037547
0.567220 0.005098 0.035834
0.668046 0.004446 0.034157
0.762345 0.003837 0.032518
0.846162 0.003272 0.030915
0.915543 0.002751 0.029349
0.966534 0.002275 0.027821
0.995181 0.001842 0.026331
1.000000 0.001455 0.024879
1.000000 0.001113 0.023465
0.000000 0.046718 0.046718
0.009034 0.044826 0.044826
0.042969 0.042969 0.042969
0.098373 0.041147 0.041147
0.171291 0.039361 0.039361
0.257770 0.037610 0.037610
0.353855 0.035896 0.035896
0.455591 0.034218 0.034218
0.559024 0.032577 0.032577
0.660200 0.030973 0.030973
0.755164 0.029406 0.029406
0.839961 0.027877 0.027877
0.910637 0.026385 0.026385
0.963239 0.024932 0.024932
0.993810 0.023516 0.023516
1.000000 0.022139 0.022139
1.000000 0.020801 0.020801
0.000000 0.101115 0.043036
0.007372 0.098469 0.041213
0.039426 0.095852 0.039426
0.093264 0.093264 0.037674
0.164932 0.090705 0.035959
0.250476 0.088176 0.034280
0.345940 0.085677 0.032637
0.447371 0.083208 0.031032
0.550814 0.080770 0.029463
0.652315 0.078362 0.027933
0.747918 0.075985 0.026439
0.833670 0.073639 0.024984
0.905617 0.071325 0.023567
0.959803 0.069042 0.022189
0.992275 0.066791 0.020850
1.000000 0.064573 0.019549
1.000000 0.062388 0.018288
0.000000 0.171531 0.039491
0.005873 0.168280 0.037738
0.036021 0.165051 0.036021
0.088269 0.161845 0.034341
0.158662 0.158662 0.032697
0.243245 0.155502 0.031090
0.338064 0.152366 0.029520
0.439164 0.149254 0.027988
0.542592 0.146166 0.026494
0.644392 0.143102 0.025037
0.740610 0.140063 0.023619
0.827292 0.137049 0.022239
0.900484 0.134061 0.020898
0.956230 0.131097 0.019596
0.990577 0.128160 0.018334
1.000000 0.125249 0.017111
1.000000 0.122363 0.015927
0.000000 0.254457 0.036084
0.004539 0.250748 0.034402
0.032757 0.247056 0.032757
0.083389 0.243379 0.031149
0.152481 0.239720 0.029577
0.236078 0.236078 0.028044
0.330227 0.232453 0.026548
0.430972 0.228846 0.025090
0.534359 0.225257 0.023670
0.636434 0.221686 0.022289
0.733242 0.218134 0.020947
0.820829 0.214600 0.019643
0.895240 0.211085 0.018379
0.952521 0.207589 0.017155
0.988718 0.204113 0.015970
1.000000 0.200657 0.014826
1.000000 0.197220 0.013721
0.000000 0.346384 0.032817
0.003373 0.342366 0.031207
0.029635 0.338358 0.029635
0.078626 0.334360 0.028100
0.146392 0.330373 0.026602
0.228979 0.326397 0.025143
0.322432 0.322432 0.023722
0.422796 0.318478 0.022339
0.526118 0.314536 0.020996
0.628442 0.310605 0.019691
0.725815 0.306687 0.018425
0.814281 0.302782 0.017199
0.889887 0.298889 0.016013
0.948678 0.295009 0.014867
0.986700 0.291142 0.013761
1.000000 0.287289 0.012696
1.000000 0.283449 0.011672
0.000000 0.443804 0.029692
0.002376 0.439625 0.028155
0.026657 0.435450 0.026657
0.073982 0.431278 0.025196
0.140397 0.427111 0.023774
0.221948 0.422949 0.022390
0.314680 0.418791 0.021044
0.414639 0.414639 0.019738
0.517870 0.410492 0.018471
0.620419 0.406351 0.017244
0.718331 0.402215 0.016056
0.807652 0.398086 0.014908
0.884428 0.393963 0.013801
0.944703 0.389847 0.012735
0.984525 0.385738 0.011709
0.999937 0.381636 0.010724
1.000000 0.377542 0.009781
0.000000 0.543208 0.026711
0.001550 0.539016 0.025249
0.023825 0.534822 0.023825
0.069460 0.530625 0.022440
0.134499 0.526427 0.021093
0.214989 0.522226 0.019785
0.306975 0.518025 0.018517
0.406503 0.513822 0.017288
0.509618 0.509618 0.016099
0.612366 0.505414 0.014950
0.710793 0.501209 0.013841
0.800944 0.497005 0.012773
0.878864 0.492800 0.011746
0.940599 0.488596 0.010760
0.982195 0.484393 0.009815
0.999697 0.480191 0.008912
1.000000 0.475989 0.008050
0.000000 0.641088 0.023877
0.000898 0.637031 0.022490
0.021142 0.632966 0.021142
0.065060 0.628892 0.019833
0.128698 0.624810 0.018563
0.208102 0.620720 0.017333
0.299318 0.616623 0.016142
0.398390 0.612518 0.014991
0.501364 0.608405 0.013881
0.604286 0.604286 0.012812
0.703202 0.600161 0.011783
0.794157 0.596029 0.010795
0.873197 0.591891 0.009849
0.936366 0.587747 0.008944
0.979712 0.583598 0.008081
0.999279 0.579443 0.007261
1.000000 0.575284 0.006482
0.000000 0.733935 0.021191
0.000422 0.730161 0.019880
0.018609 0.726373 0.018609
0.060786 0.722570 0.017377
0.122998 0.718753 0.016185
0.201291 0.714922 0.015033
0.291710 0.711076 0.013921
0.390301 0.707217 0.012850
0.493110 0.703345 0.011820
0.596181 0.699459 0.010831
0.695561 0.695561 0.009883
0.787295 0.691650 0.008977
0.867429 0.687727 0.008112
0.932008 0.683791 0.007290
0.977078 0.679844 0.006510
0.998684 0.675886 0.005773
1.000000 0.671916 0.005079
0.000000 0.818240 0.018655
0.000122 0.814898 0.017422
0.016228 0.811535 0.016228
0.056639 0.808152 0.015075
0.117400 0.804748 0.013962
0.194556 0.801323 0.012889
0.284154 0.797878 0.011857
0.382239 0.794413 0.010866
0.484857 0.790928 0.009917
0.588052 0.787425 0.009009
0.687871 0.783902 0.008143
0.780360 0.780360 0.007320
0.861563 0.776799 0.006538
0.927526 0.773221 0.005800
0.974295 0.769624 0.005104
0.997916 0.766009 0.004451
1.000000 0.762377 0.003842
0.000000 0.890494 0.016271
0.000002 0.887733 0.015116
0.014002 0.884944 0.014002
0.052621 0.882128 0.012928
0.111905 0.879284 0.011894
0.187901 0.876414 0.010902
0.276653 0.873518 0.009951
0.374206 0.870595 0.009042
0.476608 0.867647 0.008174
0.579902 0.864673 0.007349
0.680135 0.861674 0.006566
0.773353 0.858649 0.005826
0.855600 0.855600 0.005129
0.922922 0.852526 0.004475
0.971366 0.849427 0.003864
0.996976 0.846305 0.003297
1.000000 0.843159 0.002774
0.000000 0.947190 0.014042
0.000000 0.945157 0.012966
0.011932 0.943090 0.011932
0.048734 0.940989 0.010938
0.106517 0.938855 0.009985
0.181326 0.936688 0.009075
0.269207 0.934489 0.008206
0.366204 0.932257 0.007379
0.468364 0.929992 0.006594
0.571732 0.927696 0.005853
0.672354 0.925369 0.005154
0.766276 0.923010 0.004498
0.849542 0.920619 0.003886
0.918198 0.918198 0.003317
0.968291 0.915747 0.002793
0.995865 0.913265 0.002312
1.000000 0.910753 0.001876
0.000000 0.984819 0.011969
0.000000 0.983662 0.010974
0.010020 0.982464 0.010020
0.044981 0.981227 0.009107
0.101237 0.979951 0.008237
0.174835 0.978635 0.007408
0.261818 0.977281 0.006622
0.358235 0.975887 0.005879
0.460128 0.974456 0.005179
0.563545 0.972986 0.004521
0.664531 0.971478 0.003907
0.759131 0.969933 0.003337
0.843391 0.968350 0.002811
0.913357 0.966730 0.002329
0.965073 0.965073 0.001892
0.994587 0.963380 0.001499
1.000000 0.961651 0.001151
0.000000 0.999871 0.010054
0.000000 0.999739 0.009140
0.008268 0.999560 0.008268
0.041362 0.999335 0.007438
0.096067 0.999064 0.006651
0.168428 0.998747 0.005906
0.254490 0.998386 0.005204
0.350300 0.997980 0.004545
0.451902 0.997528 0.003929
0.555343 0.997033 0.003357
0.656667 0.996493 0.002830
0.751921 0.995910 0.002346
0.837150 0.995283 0.001907
0.908399 0.994612 0.001513
0.961715 0.993898 0.001163
0.993142 0.993142 0.000859
1.000000 0.992343 0.000601
0.000000 1.000000 0.008299
0.000000 1.000000 0.007468
0.006679 1.000000 0.006679
0.037881 1.000000 0.005932
0.091009 1.000000 0.005229
0.162108 1.000000 0.004568
0.247224 1.000000 0.003951
0.342402 1.000000 0.003378
0.443688 1.000000 0.002848
0.547127 1.000000 0.002363
0.648765 1.000000 0.001922
0.744647 1.000000 0.001526
0.830820 1.000000 0.001175
0.903328 1.000000 0.000869
0.958217 1.000000 0.000609
0.991533 1.000000 0.000395
1.000000 1.000000 0.000226
0.000000 0.000000 0.116196
0.012443 0.000000 0.113396
0.049710 0.000000 0.110623
0.107878 0.000000 0.107878
0.182991 0.000000 0.105161
0.271095 0.000000 0.102472
0.368237 0.000000 0.099811
0.470461 0.000000 0.097179
0.573812 0.000000 0.094576
0.674338 0.000000 0.092003
0.768083 0.000000 0.089458
0.851092 0.000000 0.086944
0.919411 0.000000 0.084460
0.969087 0.000000 0.082005
0.996164 0.000000 0.079582
1.000000 0.000000 0.077189
1.000000 0.000000 0.074827
0.000000 0.011466 0.110724
0.010491 0.010491 0.107978
