Server/IGTracker/desktop_spoofer/luts/Vibrant_Pop.cube
# Cube LUT created for IGTracker
TITLE "Vibrant Pop"
LUT_3D_SIZE 5
0.000000 0.000000 0.000000
0.186824 0.000000 0.000000
0.578572 0.000000 0.000000
0.922160 0.000000 0.000000
1.000000 0.000000 0.000000
0.000000 0.174026 0.000000
0.161087 0.161087 0.000000
0.545787 0.148518 0.000000
0.902491 0.136337 0.000000
1.000000 0.124561 0.000000
0.000000 0.546403 0.000000
0.136778 0.529628 0.000000
0.512824 0.512824 0.000000
0.881037 0.496006 0.000000
1.000000 0.479193 0.000000
0.000000 0.892582 0.000000
0.114027 0.881455 0.000000
0.479811 0.869898 0.000000
0.857927 0.857927 0.000000
1.000000 0.845560 0.000000
0.000000 1.000000 0.000000
0.092960 1.000000 0.000000
0.446877 1.000000 0.000000
0.833289 1.000000 0.000000
1.000000 1.000000 0.000000
0.000000 0.000000 0.195211
0.181720 0.000000 0.181720
0.572225 0.000000 0.168572
0.918486 0.000000 0.155786
1.000000 0.000000 0.143378
0.000000 0.169050 0.169050
0.156250 0.156250 0.156250
0.539395 0.143827 0.143827
0.898460 0.131799 0.131799
1.000000 0.120181 0.120181
0.000000 0.540012 0.144277
0.132234 0.523224 0.132234
0.506412 0.506412 0.120601
0.876675 0.489594 0.109395
1.000000 0.472787 0.098634
0.000000 0.888391 0.121022
0.109800 0.877098 0.109800
0.473405 0.865382 0.099022
0.853258 0.853258 0.088704
1.000000 0.840744 0.078864
0.000000 1.000000 0.099410
0.089075 1.000000 0.089075
0.440501 1.000000 0.079217
0.828338 1.000000 0.069853
1.000000 1.000000 0.060999
0.000000 0.000000 0.599088
0.176665 0.000000 0.582519
0.565867 0.000000 0.565867
0.914741 0.000000 0.549148
1.000000 0.000000 0.532380
0.000000 0.164126 0.566481
0.151468 0.151468 0.549764
0.532997 0.139194 0.532997
0.894363 0.127320 0.516197
1.000000 0.115863 0.499381
0.000000 0.533615 0.533615
0.127749 0.516816 0.516816
0.500000 0.500000 0.500000
0.872251 0.483184 0.483184
1.000000 0.466385 0.466385
0.000000 0.884137 0.500619
0.105637 0.872680 0.483803
0.467003 0.860806 0.467003
0.848532 0.848532 0.450236
1.000000 0.835874 0.433519
0.000000 1.000000 0.467620
0.085259 1.000000 0.450852
0.434133 1.000000 0.434133
0.823335 1.000000 0.417481
1.000000 1.000000 0.400912
0.000000 0.000000 0.939001
0.171662 0.000000 0.930147
0.559499 0.000000 0.920783
0.910925 0.000000 0.910925
1.000000 0.000000 0.900590
0.000000 0.159256 0.921136
0.146742 0.146742 0.911296
0.526595 0.134618 0.900978
0.890200 0.122902 0.890200
1.000000 0.111609 0.878978
0.000000 0.527213 0.901366
0.123325 0.510406 0.890605
0.493588 0.493588 0.879399
0.867766 0.476776 0.867766
1.000000 0.459988 0.855723
0.000000 0.879819 0.879819
0.101540 0.868201 0.868201
0.460605 0.856173 0.856173
0.843750 0.843750 0.843750
1.000000 0.830950 0.830950
0.000000 1.000000 0.856622
0.081514 1.000000 0.844214
0.427775 1.000000 0.831428
0.818280 1.000000 0.818280
1.000000 1.000000 0.804789
0.000000 0.000000 1.000000
0.166711 0.000000 1.000000
0.553123 0.000000 1.000000
0.907040 0.000000 1.000000
1.000000 0.000000 1.000000
0.000000 0.154440 1.000000
0.142073 0.142073 1.000000
0.520189 0.130102 1.000000
0.885973 0.118545 1.000000
1.000000 0.107418 1.000000
0.000000 0.520807 1.000000
0.118963 0.503994 1.000000
0.487176 0.487176 1.000000
0.863222 0.470372 1.000000
1.000000 0.453597 1.000000
0.000000 0.875439 1.000000
0.097509 0.863663 1.000000
0.454213 0.851482 1.000000
0.838913 0.838913 1.000000
1.000000 0.825974 1.000000
0.000000 1.000000 1.000000
0.077840 1.000000 1.000000
0.421428 1.000000 1.000000
0.813176 1.000000 1.000000
1.000000 1.000000 1.000000
