Server/IGTracker/desktop_spoofer/luts/Vibrant_Pop.cube
# Cube LUT created for IGTracker
TITLE "Vibrant Pop"
LUT_3D_SIZE 9
0.000000 0.000000 0.000000
0.051979 0.000000 0.000000
0.186824 0.000000 0.000000
0.372900 0.000000 0.000000
0.578572 0.000000 0.000000
0.772204 0.000000 0.000000
0.922160 0.000000 0.000000
0.996806 0.000000 0.000000
1.000000 0.000000 0.000000
0.000000 0.048185 0.000000
0.044382 0.044382 0.000000
0.173785 0.040720 0.000000
0.356939 0.037200 0.000000
0.562209 0.033825 0.000000
0.757961 0.030598 0.000000
0.912557 0.027519 0.000000
0.994362 0.024592 0.000000
1.000000 0.021818 0.000000
0.000000 0.174026 0.000000
0.037327 0.167511 0.000000
0.161087 0.161087 0.000000
0.341118 0.154755 0.000000
0.545787 0.148518 0.000000
0.743456 0.142378 0.000000
0.902491 0.136337 0.000000
0.991256 0.130398 0.000000
1.000000 0.124561 0.000000
0.000000 0.349455 0.000000
0.030830 0.341413 0.000000
0.148746 0.333412 0.000000
0.325454 0.325454 0.000000
0.529319 0.317541 0.000000
0.728706 0.309674 0.000000
0.891979 0.301856 0.000000
0.987502 0.294089 0.000000
1.000000 0.286376 0.000000
0.000000 0.546403 0.000000
0.024908 0.538020 0.000000
0.136778 0.529628 0.000000
0.309962 0.521229 0.000000
0.512824 0.512824 0.000000
0.713727 0.504416 0.000000
0.881037 0.496006 0.000000
0.983118 0.487598 0.000000
1.000000 0.479193 0.000000
0.000000 0.736802 0.000000
0.019575 0.729263 0.000000
0.125200 0.721665 0.000000
0.294659 0.714010 0.000000
0.496316 0.706299 0.000000
0.698535 0.698535 0.000000
0.869681 0.690720 0.000000
0.978119 0.682855 0.000000
1.000000 0.674944 0.000000
0.000000 0.892582 0.000000
0.014848 0.887073 0.000000
0.114027 0.881455 0.000000
0.279560 0.875729 0.000000
0.479811 0.869898 0.000000
0.683145 0.863963 0.000000
0.857927 0.857927 0.000000
0.972521 0.851792 0.000000
1.000000 0.845560 0.000000
0.000000 0.985674 0.000000
0.010743 0.983381 0.000000
0.103275 0.980928 0.000000
0.264681 0.978317 0.000000
0.463326 0.975551 0.000000
0.667575 0.972631 0.000000
0.845791 0.969560 0.000000
0.966340 0.966340 0.000000
1.000000 0.962973 0.000000
0.000000 1.000000 0.000000
0.007277 1.000000 0.000000
0.092960 1.000000 0.000000
0.250039 1.000000 0.000000
0.446877 1.000000 0.000000
0.651839 1.000000 0.000000
0.833289 1.000000 0.000000
0.959592 1.000000 0.000000
1.000000 1.000000 0.000000
0.000000 0.000000 0.054482
0.050461 0.000000 0.050461
0.184265 0.000000 0.046578
0.369790 0.000000 0.042833
0.575400 0.000000 0.039231
0.769459 0.000000 0.035772
0.920332 0.000000 0.032458
0.996384 0.000000 0.029293
1.000000 0.000000 0.026277
0.000000 0.046718 0.046718
0.042969 0.042969 0.042969
0.171291 0.039361 0.039361
0.353855 0.035896 0.035896
0.559024 0.032577 0.032577
0.755164 0.029406 0.029406
0.910637 0.026385 0.026385
0.993810 0.023516 0.023516
1.000000 0.020801 0.020801
0.000000 0.171531 0.039491
0.036021 0.165051 0.036021
0.158662 0.158662 0.032697
0.338064 0.152366 0.029520
0.542592 0.146166 0.026494
0.740610 0.140063 0.023619
0.900484 0.134061 0.020898
0.990577 0.128160 0.018334
1.000000 0.122363 0.015927
0.000000 0.346384 0.032817
0.029635 0.338358 0.029635
0.146392 0.330373 0.026602
0.322432 0.322432 0.023722
0.526118 0.314536 0.020996
0.725815 0.306687 0.018425
0.889887 0.298889 0.016013
0.986700 0.291142 0.013761
1.000000 0.283449 0.011672
0.000000 0.543208 0.026711
0.023825 0.534822 0.023825
0.134499 0.526427 0.021093
0.306975 0.518025 0.018517
0.509618 0.509618 0.016099
0.710793 0.501209 0.013841
0.878864 0.492800 0.011746
0.982195 0.484393 0.009815
1.000000 0.475989 0.008050
0.000000 0.733935 0.021191
0.018609 0.726373 0.018609
0.122998 0.718753 0.016185
0.291710 0.711076 0.013921
0.493110 0.703345 0.011820
0.695561 0.695561 0.009883
0.867429 0.687727 0.008112
0.977078 0.679844 0.006510
1.000000 0.671916 0.005079
0.000000 0.890494 0.016271
0.014002 0.884944 0.014002
0.111905 0.879284 0.011894
0.276653 0.873518 0.009951
0.476608 0.867647 0.008174
0.680135 0.861674 0.006566
0.855600 0.855600 0.005129
0.971366 0.849427 0.003864
1.000000 0.843159 0.002774
0.000000 0.984819 0.011969
0.010020 0.982464 0.010020
0.101237 0.979951 0.008237
0.261818 0.977281 0.006622
0.460128 0.974456 0.005179
0.664531 0.971478 0.003907
0.843391 0.968350 0.002811
0.965073 0.965073 0.001892
1.000000 0.961651 0.001151
0.000000 1.000000 0.008299
0.006679 1.000000 0.006679
0.091009 1.000000 0.005229
0.247224 1.000000 0.003951
0.443688 1.000000 0.002848
0.648765 1.000000 0.001922
0.830820 1.000000 0.001175
0.958217 1.000000 0.000609
1.000000 1.000000 0.000226
0.000000 0.000000 0.195211
0.048964 0.000000 0.188423
0.181720 0.000000 0.181720
0.366685 0.000000 0.175102
0.572225 0.000000 0.168572
0.766704 0.000000 0.162133
0.918486 0.000000 0.155786
0.995937 0.000000 0.149534
1.000000 0.000000 0.143378
0.000000 0.045272 0.181965
0.041576 0.041576 0.175344
0.168811 0.038023 0.168811
0.350776 0.034614 0.162368
0.555837 0.031351 0.156018
0.752357 0.028237 0.149762
0.908701 0.025273 0.143602
0.993234 0.022463 0.137542
1.000000 0.019807 0.131581
0.000000 0.169050 0.169050
0.034736 0.162604 0.162604
0.156250 0.156250 0.156250
0.335015 0.149990 0.149990
0.539395 0.143827 0.143827
0.737755 0.137763 0.137763
0.898460 0.131799 0.131799
0.989874 0.125938 0.125938
1.000000 0.120181 0.120181
0.000000 0.343319 0.156482
0.028461 0.335309 0.150219
0.144052 0.327340 0.144052
0.319416 0.319416 0.137984
0.522915 0.311537 0.132016
0.722914 0.303708 0.126151
0.887779 0.295929 0.120391
0.985873 0.288202 0.114738
1.000000 0.280531 0.109193
0.000000 0.540012 0.144277
0.022765 0.531622 0.138206
0.132234 0.523224 0.132234
0.303995 0.514820 0.126365
0.506412 0.506412 0.120601
0.707851 0.498003 0.114944
0.876675 0.489594 0.109395
0.981248 0.481188 0.103958
1.000000 0.472787 0.098634
0.000000 0.731059 0.132452
0.017666 0.723475 0.126579
0.120811 0.715833 0.120811
0.288769 0.708135 0.115150
0.489904 0.700383 0.109598
0.692580 0.692580 0.104156
0.865162 0.684727 0.098828
0.976015 0.676827 0.093614
1.000000 0.668881 0.088519
0.000000 0.888391 0.121022
0.013179 0.882799 0.115356
0.109800 0.877098 0.109800
0.273754 0.871292 0.104354
0.473405 0.865382 0.099022
0.677118 0.859370 0.093804
0.853258 0.853258 0.088704
0.970188 0.847049 0.083723
1.000000 0.840744 0.078864
0.000000 0.983940 0.110002
0.009320 0.981525 0.104553
0.099216 0.978951 0.099216
0.258965 0.976222 0.093994
0.456932 0.973338 0.088890
0.661481 0.970303 0.083904
0.840978 0.967118 0.079040
0.963785 0.963785 0.074300
1.000000 0.960307 0.069685
0.000000 1.000000 0.099410
0.006106 1.000000 0.094184
0.089075 1.000000 0.089075
0.244419 1.000000 0.084085
0.440501 1.000000 0.079217
0.645685 1.000000 0.074472
0.828338 1.000000 0.069853
0.956822 1.000000 0.065361
1.000000 1.000000 0.060999
0.000000 0.000000 0.388105
0.047487 0.000000 0.379901
0.179186 0.000000 0.371726
0.363585 0.000000 0.363585
0.569047 0.000000 0.355477
0.763938 0.000000 0.347407
0.916622 0.000000 0.339376
0.995464 0.000000 0.331386
1.000000 0.000000 0.323438
0.000000 0.043846 0.372026
0.040205 0.040205 0.363883
0.166344 0.036706 0.355775
0.347703 0.033352 0.347703
0.552647 0.030146 0.339671
0.749541 0.027089 0.331679
0.906747 0.024184 0.323730
0.992632 0.021432 0.315826
1.000000 0.018836 0.307970
0.000000 0.166581 0.356073
0.033473 0.160170 0.348000
0.153852 0.153852 0.339965
0.331972 0.147629 0.331972
0.536197 0.141503 0.324022
0.734891 0.135477 0.316116
0.896420 0.129552 0.308258
0.989147 0.123730 0.300449
1.000000 0.118014 0.292692
0.000000 0.340260 0.340260
0.027309 0.332265 0.332265
0.141727 0.324313 0.324313
0.316406 0.316406 0.316406
0.519711 0.308546 0.308546
0.720006 0.300736 0.300736
0.885655 0.292977 0.292977
0.985024 0.285271 0.285271
1.000000 0.277621 0.277621
0.000000 0.536814 0.324605
0.021728 0.528421 0.316696
0.129984 0.520020 0.308835
0.301022 0.511615 0.301022
0.503206 0.503206 0.293261
0.704901 0.494797 0.285553
0.874470 0.486389 0.277901
0.980279 0.477984 0.270307
1.000000 0.469585 0.262772
0.000000 0.728174 0.309123
0.016746 0.720568 0.301309
0.118640 0.712904 0.293546
0.285836 0.705186 0.285836
0.486698 0.697414 0.278182
0.689592 0.689592 0.270585
0.862880 0.681720 0.263048
0.974929 0.673802 0.255573
1.000000 0.665840 0.248161
0.000000 0.886272 0.293830
0.012380 0.880638 0.286119
0.107710 0.874897 0.278462
0.270863 0.869051 0.270863
0.470203 0.863101 0.263324
0.674095 0.857051 0.255846
0.850902 0.850902 0.248433
0.968990 0.844656 0.241085
1.000000 0.838316 0.233805
0.000000 0.983038 0.278743
0.008645 0.980562 0.271142
0.097211 0.977929 0.263600
0.256120 0.975140 0.256120
0.453737 0.972199 0.248704
0.658426 0.969106 0.241354
0.838551 0.965865 0.234072
0.962476 0.962476 0.226859
1.000000 0.958944 0.219719
0.000000 1.000000 0.263877
0.005557 1.000000 0.256394
0.087159 1.000000 0.248976
0.241623 1.000000 0.241623
0.437316 1.000000 0.234338
0.642601 1.000000 0.227124
0.825843 1.000000 0.219981
0.955406 1.000000 0.212912
1.000000 1.000000 0.205920
0.000000 0.000000 0.599088
0.046031 0.000000 0.590815
0.176665 0.000000 0.582519
0.360489 0.000000 0.574202
0.565867 0.000000 0.565867
0.761162 0.000000 0.557515
0.914741 0.000000 0.549148
0.994966 0.000000 0.540769
1.000000 0.000000 0.532380
0.000000 0.042441 0.582825
0.038854 0.038854 0.574509
0.163890 0.035410 0.566174
0.344636 0.032112 0.557822
0.549456 0.028963 0.549456
0.746715 0.025963 0.541078
0.904776 0.023116 0.532689
0.992006 0.020423 0.524291
1.000000 0.017887 0.515888
0.000000 0.164126 0.566481
0.032231 0.157750 0.558130
0.151468 0.151468 0.549764
0.328936 0.145282 0.541386
0.532997 0.139194 0.532997
0.732018 0.133206 0.524601
0.894363 0.127320 0.516197
0.988395 0.121538 0.507790
1.000000 0.115863 0.499381
0.000000 0.337207 0.550072
0.026179 0.329228 0.541694
0.139416 0.321293 0.533306
0.313404 0.313404 0.524910
0.516507 0.305563 0.516507
0.717089 0.297771 0.508100
0.883515 0.290032 0.499691
0.984150 0.282347 0.491282
1.000000 0.274719 0.482875
0.000000 0.533615 0.533615
0.020713 0.525219 0.525219
0.127749 0.516816 0.516816
0.298057 0.508409 0.508409
0.500000 0.500000 0.500000
0.701943 0.491591 0.491591
0.872251 0.483184 0.483184
0.979287 0.474781 0.474781
1.000000 0.466385 0.466385
0.000000 0.725281 0.517125
0.015850 0.717653 0.508718
0.116485 0.709968 0.500309
0.282911 0.702229 0.491900
0.483493 0.694437 0.483493
0.686596 0.686596 0.475090
0.860584 0.678707 0.466694
0.973821 0.670772 0.458306
1.000000 0.662793 0.449928
0.000000 0.884137 0.500619
0.011605 0.878462 0.492210
0.105637 0.872680 0.483803
0.267982 0.866794 0.475399
0.467003 0.860806 0.467003
0.671064 0.854718 0.458614
0.848532 0.848532 0.450236
0.967769 0.842250 0.441870
1.000000 0.835874 0.433519
0.000000 0.982113 0.484112
0.007994 0.979577 0.475709
0.095224 0.976884 0.467311
0.253285 0.974037 0.458922
0.450544 0.971037 0.450544
0.655364 0.967888 0.442178
0.836110 0.964590 0.433826
0.961146 0.961146 0.425491
1.000000 0.957559 0.417175
0.000000 1.000000 0.467620
0.005034 1.000000 0.459231
0.085259 1.000000 0.450852
0.238838 1.000000 0.442485
0.434133 1.000000 0.434133
0.639511 1.000000 0.425798
0.823335 1.000000 0.417481
0.953969 1.000000 0.409185
1.000000 1.000000 0.400912
0.000000 0.000000 0.794080
0.044594 0.000000 0.787088
0.174157 0.000000 0.780019
0.357399 0.000000 0.772876
0.562684 0.000000 0.765662
0.758377 0.000000 0.758377
0.912841 0.000000 0.751024
0.994443 0.000000 0.743606
1.000000 0.000000 0.736123
0.000000 0.041056 0.780281
0.037524 0.037524 0.773141
0.161449 0.034135 0.765928
0.341574 0.030894 0.758646
0.546263 0.027801 0.751296
0.743880 0.024860 0.743880
0.902789 0.022071 0.736400
0.991355 0.019438 0.728858
1.000000 0.016962 0.721257
0.000000 0.161684 0.766195
0.031010 0.155344 0.758915
0.149098 0.149098 0.751567
0.325905 0.142949 0.744154
0.529797 0.136899 0.736676
0.729137 0.130949 0.729137
0.892290 0.125103 0.721538
0.987620 0.119362 0.713881
1.000000 0.113728 0.706170
0.000000 0.334160 0.751839
0.025071 0.326198 0.744427
0.137120 0.318280 0.736952
0.310408 0.310408 0.729415
0.513302 0.302586 0.721818
0.714164 0.294814 0.714164
0.881360 0.287096 0.706454
0.983254 0.279432 0.698691
1.000000 0.271826 0.690877
0.000000 0.530415 0.737228
0.019721 0.522016 0.729693
0.125530 0.513611 0.722099
0.295099 0.505203 0.714447
0.496794 0.496794 0.706739
0.698978 0.488385 0.698978
0.870016 0.479980 0.691165
0.978272 0.471579 0.683304
1.000000 0.463186 0.675395
0.000000 0.722379 0.722379
0.014976 0.714729 0.714729
0.114345 0.707023 0.707023
0.279994 0.699264 0.699264
0.480289 0.691454 0.691454
0.683594 0.683594 0.683594
0.858273 0.675687 0.675687
0.972691 0.667735 0.667735
1.000000 0.659740 0.659740
0.000000 0.881986 0.707308
0.010853 0.876270 0.699551
0.103580 0.870448 0.691742
0.265109 0.864523 0.683884
0.463803 0.858497 0.675978
0.668028 0.852371 0.668028
0.846148 0.846148 0.660035
0.966527 0.839830 0.652000
1.000000 0.833419 0.643927
0.000000 0.981164 0.692030
0.007368 0.978568 0.684174
0.093253 0.975816 0.676270
0.250459 0.972911 0.668321
0.447353 0.969854 0.660329
0.652297 0.966648 0.652297
0.833656 0.963294 0.644225
0.959795 0.959795 0.636117
1.000000 0.956154 0.627974
0.000000 1.000000 0.676562
0.004536 1.000000 0.668614
0.083378 1.000000 0.660624
0.236062 1.000000 0.652593
0.430953 1.000000 0.644523
0.636415 1.000000 0.636415
0.820814 1.000000 0.628274
0.952513 1.000000 0.620099
1.000000 1.000000 0.611895
0.000000 0.000000 0.939001
0.043178 0.000000 0.934639
0.171662 0.000000 0.930147
0.354315 0.000000 0.925528
0.559499 0.000000 0.920783
0.755581 0.000000 0.915915
0.910925 0.000000 0.910925
0.993894 0.000000 0.905816
1.000000 0.000000 0.900590
0.000000 0.039693 0.930315
0.036215 0.036215 0.925700
0.159022 0.032882 0.920960
0.338519 0.029697 0.916096
0.543068 0.026662 0.911110
0.741035 0.023778 0.906006
0.900784 0.021049 0.900784
0.990680 0.018475 0.895447
1.000000 0.016060 0.889998
0.000000 0.159256 0.921136
0.029812 0.152951 0.916277
0.146742 0.146742 0.911296
0.322882 0.140630 0.906196
0.526595 0.134618 0.900978
0.726246 0.128708 0.895646
0.890200 0.122902 0.890200
0.986821 0.117201 0.884644
1.000000 0.111609 0.878978
0.000000 0.331119 0.911481
0.023985 0.323173 0.906386
0.134838 0.315273 0.901172
0.307420 0.307420 0.895844
0.510096 0.299617 0.890402
0.711231 0.291865 0.884850
0.879189 0.284167 0.879189
0.982334 0.276525 0.873421
1.000000 0.268941 0.867548
0.000000 0.527213 0.901366
0.018752 0.518812 0.896042
0.123325 0.510406 0.890605
0.292149 0.501997 0.885056
0.493588 0.493588 0.879399
0.696005 0.485180 0.873635
0.867766 0.476776 0.867766
0.977235 0.468378 0.861794
1.000000 0.459988 0.855723
0.000000 0.719469 0.890807
0.014127 0.711798 0.885262
0.112221 0.704071 0.879609
0.277086 0.696292 0.873849
0.477085 0.688463 0.867984
0.680584 0.680584 0.862016
0.855948 0.672660 0.855948
0.971539 0.664691 0.849781
1.000000 0.656681 0.843518
0.000000 0.879819 0.879819
0.010126 0.874062 0.874062
0.101540 0.868201 0.868201
0.262245 0.862237 0.862237
0.460605 0.856173 0.856173
0.664985 0.850010 0.850010
0.843750 0.843750 0.843750
0.965264 0.837396 0.837396
1.000000 0.830950 0.830950
0.000000 0.980193 0.868419
0.006766 0.977537 0.862458
0.091299 0.974727 0.856398
0.247643 0.971763 0.850238
0.444163 0.968649 0.843982
0.649224 0.965386 0.837632
0.831189 0.961977 0.831189
0.958424 0.958424 0.824656
1.000000 0.954728 0.818035
0.000000 1.000000 0.856622
0.004063 1.000000 0.850466
0.081514 1.000000 0.844214
0.233296 1.000000 0.837867
0.427775 1.000000 0.831428
0.633315 1.000000 0.824898
0.818280 1.000000 0.818280
0.951036 1.000000 0.811577
1.000000 1.000000 0.804789
0.000000 0.000000 0.999774
0.041783 0.000000 0.999391
0.169180 0.000000 0.998825
0.351235 0.000000 0.998078
0.556312 0.000000 0.997152
0.752776 0.000000 0.996049
0.908991 0.000000 0.994771
0.993321 0.000000 0.993321
1.000000 0.000000 0.991701
0.000000 0.038349 0.998849
0.034927 0.034927 0.998108
0.156609 0.031650 0.997189
0.335469 0.028522 0.996093
0.539872 0.025544 0.994821
0.738182 0.022719 0.993378
0.898763 0.020049 0.991763
0.989980 0.017536 0.989980
1.000000 0.015181 0.988031
0.000000 0.156841 0.997226
0.028634 0.150573 0.996136
0.144400 0.144400 0.994871
0.319865 0.138326 0.993434
0.523392 0.132353 0.991826
0.723347 0.126482 0.990049
0.888095 0.120716 0.988106
0.985998 0.115056 0.985998
1.000000 0.109506 0.983729
0.000000 0.328084 0.994921
0.022922 0.320156 0.993490
0.132571 0.312273 0.991888
0.304439 0.304439 0.990117
0.506890 0.296655 0.988180
0.708290 0.288924 0.986079
0.877002 0.281247 0.983815
0.981391 0.273627 0.981391
1.000000 0.266065 0.978809
0.000000 0.524011 0.991950
0.017805 0.515607 0.990185
0.121136 0.507200 0.988254
0.289207 0.498791 0.986159
0.490382 0.490382 0.983901
0.693025 0.481975 0.981483
0.865501 0.473573 0.978907
0.976175 0.465178 0.976175
1.000000 0.456792 0.973289
0.000000 0.716551 0.988328
0.013300 0.708858 0.986239
0.110113 0.701111 0.983987
0.274185 0.693313 0.981575
0.473882 0.685464 0.979004
0.677568 0.677568 0.976278
0.853608 0.669627 0.973398
0.970365 0.661642 0.970365
1.000000 0.653616 0.967183
0.000000 0.877637 0.984073
0.009423 0.871840 0.981666
0.099516 0.865939 0.979102
0.259390 0.859937 0.976381
0.457408 0.853834 0.973506
0.661936 0.847634 0.970480
0.841338 0.841338 0.967303
0.963979 0.834949 0.963979
1.000000 0.828469 0.960509
0.000000 0.979199 0.979199
0.006190 0.976484 0.976484
0.089363 0.973615 0.973615
0.244836 0.970594 0.970594
0.440976 0.967423 0.967423
0.646145 0.964104 0.964104
0.828709 0.960639 0.960639
0.957031 0.957031 0.957031
1.000000 0.953282 0.953282
0.000000 1.000000 0.973723
0.003616 1.000000 0.970707
0.079668 1.000000 0.967542
0.230541 1.000000 0.964228
0.424600 1.000000 0.960769
0.630210 1.000000 0.957167
0.815735 1.000000 0.953422
0.949539 1.000000 0.949539
1.000000 1.000000 0.945518
0.000000 0.000000 1.000000
0.040408 0.000000 1.000000
0.166711 0.000000 1.000000
0.348161 0.000000 1.000000
0.553123 0.000000 1.000000
0.749961 0.000000 1.000000
0.907040 0.000000 1.000000
0.992723 0.000000 1.000000
1.000000 0.000000 1.000000
0.000000 0.037027 1.000000
0.033660 0.033660 1.000000
0.154209 0.030440 1.000000
0.332425 0.027369 1.000000
0.536674 0.024449 1.000000
0.735319 0.021683 1.000000
0.896725 0.019072 1.000000
0.989257 0.016619 1.000000
1.000000 0.014326 1.000000
0.000000 0.154440 1.000000
0.027479 0.148208 1.000000
0.142073 0.142073 1.000000
0.316855 0.136037 1.000000
0.520189 0.130102 1.000000
0.720440 0.124271 1.000000
0.885973 0.118545 1.000000
0.985152 0.112927 1.000000
1.000000 0.107418 1.000000
0.000000 0.325056 1.000000
0.021881 0.317145 1.000000
0.130319 0.309280 1.000000
0.301465 0.301465 1.000000
0.503684 0.293701 1.000000
0.705341 0.285990 1.000000
0.874800 0.278335 1.000000
0.980425 0.270737 1.000000
1.000000 0.263198 1.000000
0.000000 0.520807 1.000000
0.016882 0.512402 1.000000
0.118963 0.503994 1.000000
0.286273 0.495584 1.000000
0.487176 0.487176 1.000000
0.690038 0.478771 1.000000
0.863222 0.470372 1.000000
0.975092 0.461980 1.000000
1.000000 0.453597 1.000000
0.000000 0.713624 1.000000
0.012498 0.705911 1.000000
0.108021 0.698144 1.000000
0.271294 0.690326 1.000000
0.470681 0.682459 1.000000
0.674546 0.674546 1.000000
0.851254 0.666588 1.000000
0.969170 0.658587 1.000000
1.000000 0.650545 1.000000
0.000000 0.875439 1.000000
0.008744 0.869602 1.000000
0.097509 0.863663 1.000000
0.256544 0.857622 1.000000
0.454213 0.851482 1.000000
0.658882 0.845245 1.000000
0.838913 0.838913 1.000000
0.962673 0.832489 1.000000
1.000000 0.825974 1.000000
0.000000 0.978182 1.000000
0.005638 0.975408 1.000000
0.087443 0.972481 1.000000
0.242039 0.969402 1.000000
0.437791 0.966175 1.000000
0.643061 0.962800 1.000000
0.826215 0.959280 1.000000
0.955618 0.955618 1.000000
1.000000 0.951815 1.000000
0.000000 1.000000 1.000000
0.003194 1.000000 1.000000
0.077840 1.000000 1.000000
0.227796 1.000000 1.000000
0.421428 1.000000 1.000000
0.627100 1.000000 1.000000
0.813176 1.000000 1.000000
0.948021 1.000000 1.000000
1.000000 1.000000 1.000000
